{"compressionlevel": -1, "type": "map", "version": "1.10", "tiledversion": "1.10.2", "orientation": "orthogonal", "renderorder": "right-down", "infinite": false, "width": 70, "height": 45, "tilewidth": 32, "tileheight": 32, "nextlayerid": 7, "nextobjectid": 136, "tilesets": [{"firstgid": 1, "name": "lpc-arena", "image": "../tilesets/lpc-arena-32.png", "imagewidth": 128, "imageheight": 160, "tilewidth": 32, "tileheight": 32, "tilecount": 19, "columns": 4, "margin": 0, "spacing": 0, "tiles": [{"id": 0, "properties": [{"name": "collides", "type": "bool", "value": false}]}, {"id": 1, "properties": [{"name": "collides", "type": "bool", "value": false}]}, {"id": 2, "properties": [{"name": "collides", "type": "bool", "value": false}]}, {"id": 3, "properties": [{"name": "collides", "type": "bool", "value": false}]}, {"id": 4, "properties": [{"name": "collides", "type": "bool", "value": false}]}, {"id": 5, "properties": [{"name": "collides", "type": "bool", "value": false}]}, {"id": 6, "properties": [{"name": "collides", "type": "bool", "value": false}]}, {"id": 7, "properties": [{"name": "collides", "type": "bool", "value": false}]}, {"id": 8, "properties": [{"name": "collides", "type": "bool", "value": false}]}, {"id": 9, "properties": [{"name": "collides", "type": "bool", "value": false}]}, {"id": 10, "properties": [{"name": "collides", "type": "bool", "value": false}]}, {"id": 11, "properties": [{"name": "collides", "type": "bool", "value": false}]}, {"id": 12, "properties": [{"name": "collides", "type": "bool", "value": false}]}, {"id": 13, "properties": [{"name": "collides", "type": "bool", "value": false}]}, {"id": 14, "properties": [{"name": "collides", "type": "bool", "value": false}]}, {"id": 15, "properties": [{"name": "collides", "type": "bool", "value": false}]}, {"id": 16, "properties": [{"name": "collides", "type": "bool", "value": false}]}, {"id": 17, "properties": [{"name": "collides", "type": "bool", "value": false}]}, {"id": 18, "properties": [{"name": "collides", "type": "bool", "value": false}]}], "wangsets": [{"name": "lpc-arena", "type": "corner", "tile": -1, "colors": [{"name": "vac\u00edo", "color": "#3a9d23", "tile": -1, "probability": 1}, {"name": "base", "color": "#8b5a2b", "tile": -1, "probability": 1}], "wangtiles": [{"tileid": 0, "wangid": [0, 1, 0, 1, 0, 1, 0, 1]}, {"tileid": 1, "wangid": [0, 1, 0, 2, 0, 1, 0, 1]}, {"tileid": 2, "wangid": [0, 1, 0, 1, 0, 2, 0, 1]}, {"tileid": 3, "wangid": [0, 1, 0, 2, 0, 2, 0, 1]}, {"tileid": 4, "wangid": [0, 2, 0, 1, 0, 1, 0, 1]}, {"tileid": 5, "wangid": [0, 2, 0, 2, 0, 1, 0, 1]}, {"tileid": 6, "wangid": [0, 2, 0, 1, 0, 2, 0, 1]}, {"tileid": 7, "wangid": [0, 2, 0, 2, 0, 2, 0, 1]}, {"tileid": 8, "wangid": [0, 1, 0, 1, 0, 1, 0, 2]}, {"tileid": 9, "wangid": [0, 1, 0, 2, 0, 1, 0, 2]}, {"tileid": 10, "wangid": [0, 1, 0, 1, 0, 2, 0, 2]}, {"tileid": 11, "wangid": [0, 1, 0, 2, 0, 2, 0, 2]}, {"tileid": 12, "wangid": [0, 2, 0, 1, 0, 1, 0, 2]}, {"tileid": 13, "wangid": [0, 2, 0, 2, 0, 1, 0, 2]}, {"tileid": 14, "wangid": [0, 2, 0, 1, 0, 2, 0, 2]}, {"tileid": 15, "wangid": [0, 2, 0, 2, 0, 2, 0, 2]}, {"tileid": 16, "wangid": [0, 2, 0, 2, 0, 2, 0, 2]}, {"tileid": 17, "wangid": [0, 2, 0, 2, 0, 2, 0, 2]}, {"tileid": 18, "wangid": [0, 2, 0, 2, 0, 2, 0, 2]}]}]}, {"firstgid": 20, "name": "lpc-picon", "image": "../tilesets/lpc-picon-32.png", "imagewidth": 128, "imageheight": 160, "tilewidth": 32, "tileheight": 32, "tilecount": 19, "columns": 4, "margin": 0, "spacing": 0, "tiles": [{"id": 0, "properties": [{"name": "collides", "type": "bool", "value": false}]}, {"id": 1, "properties": [{"name": "collides", "type": "bool", "value": false}]}, {"id": 2, "properties": [{"name": "collides", "type": "bool", "value": false}]}, {"id": 3, "properties": [{"name": "collides", "type": "bool", "value": false}]}, {"id": 4, "properties": [{"name": "collides", "type": "bool", "value": false}]}, {"id": 5, "properties": [{"name": "collides", "type": "bool", "value": false}]}, {"id": 6, "properties": [{"name": "collides", "type": "bool", "value": false}]}, {"id": 7, "properties": [{"name": "collides", "type": "bool", "value": false}]}, {"id": 8, "properties": [{"name": "collides", "type": "bool", "value": false}]}, {"id": 9, "properties": [{"name": "collides", "type": "bool", "value": false}]}, {"id": 10, "properties": [{"name": "collides", "type": "bool", "value": false}]}, {"id": 11, "properties": [{"name": "collides", "type": "bool", "value": false}]}, {"id": 12, "properties": [{"name": "collides", "type": "bool", "value": false}]}, {"id": 13, "properties": [{"name": "collides", "type": "bool", "value": false}]}, {"id": 14, "properties": [{"name": "collides", "type": "bool", "value": false}]}, {"id": 15, "properties": [{"name": "collides", "type": "bool", "value": false}]}, {"id": 16, "properties": [{"name": "collides", "type": "bool", "value": false}]}, {"id": 17, "properties": [{"name": "collides", "type": "bool", "value": false}]}, {"id": 18, "properties": [{"name": "collides", "type": "bool", "value": false}]}], "wangsets": [{"name": "lpc-picon", "type": "corner", "tile": -1, "colors": [{"name": "vac\u00edo", "color": "#3a9d23", "tile": -1, "probability": 1}, {"name": "malpa\u00eds", "color": "#8b5a2b", "tile": -1, "probability": 1}], "wangtiles": [{"tileid": 0, "wangid": [0, 1, 0, 1, 0, 1, 0, 1]}, {"tileid": 1, "wangid": [0, 1, 0, 2, 0, 1, 0, 1]}, {"tileid": 2, "wangid": [0, 1, 0, 1, 0, 2, 0, 1]}, {"tileid": 3, "wangid": [0, 1, 0, 2, 0, 2, 0, 1]}, {"tileid": 4, "wangid": [0, 2, 0, 1, 0, 1, 0, 1]}, {"tileid": 5, "wangid": [0, 2, 0, 2, 0, 1, 0, 1]}, {"tileid": 6, "wangid": [0, 2, 0, 1, 0, 2, 0, 1]}, {"tileid": 7, "wangid": [0, 2, 0, 2, 0, 2, 0, 1]}, {"tileid": 8, "wangid": [0, 1, 0, 1, 0, 1, 0, 2]}, {"tileid": 9, "wangid": [0, 1, 0, 2, 0, 1, 0, 2]}, {"tileid": 10, "wangid": [0, 1, 0, 1, 0, 2, 0, 2]}, {"tileid": 11, "wangid": [0, 1, 0, 2, 0, 2, 0, 2]}, {"tileid": 12, "wangid": [0, 2, 0, 1, 0, 1, 0, 2]}, {"tileid": 13, "wangid": [0, 2, 0, 2, 0, 1, 0, 2]}, {"tileid": 14, "wangid": [0, 2, 0, 1, 0, 2, 0, 2]}, {"tileid": 15, "wangid": [0, 2, 0, 2, 0, 2, 0, 2]}, {"tileid": 16, "wangid": [0, 2, 0, 2, 0, 2, 0, 2]}, {"tileid": 17, "wangid": [0, 2, 0, 2, 0, 2, 0, 2]}, {"tileid": 18, "wangid": [0, 2, 0, 2, 0, 2, 0, 2]}]}]}, {"firstgid": 39, "name": "lpc-hierba", "image": "../tilesets/lpc-hierba-32.png", "imagewidth": 128, "imageheight": 160, "tilewidth": 32, "tileheight": 32, "tilecount": 19, "columns": 4, "margin": 0, "spacing": 0, "tiles": [{"id": 0, "properties": [{"name": "collides", "type": "bool", "value": false}]}, {"id": 1, "properties": [{"name": "collides", "type": "bool", "value": false}]}, {"id": 2, "properties": [{"name": "collides", "type": "bool", "value": false}]}, {"id": 3, "properties": [{"name": "collides", "type": "bool", "value": false}]}, {"id": 4, "properties": [{"name": "collides", "type": "bool", "value": false}]}, {"id": 5, "properties": [{"name": "collides", "type": "bool", "value": false}]}, {"id": 6, "properties": [{"name": "collides", "type": "bool", "value": false}]}, {"id": 7, "properties": [{"name": "collides", "type": "bool", "value": false}]}, {"id": 8, "properties": [{"name": "collides", "type": "bool", "value": false}]}, {"id": 9, "properties": [{"name": "collides", "type": "bool", "value": false}]}, {"id": 10, "properties": [{"name": "collides", "type": "bool", "value": false}]}, {"id": 11, "properties": [{"name": "collides", "type": "bool", "value": false}]}, {"id": 12, "properties": [{"name": "collides", "type": "bool", "value": false}]}, {"id": 13, "properties": [{"name": "collides", "type": "bool", "value": false}]}, {"id": 14, "properties": [{"name": "collides", "type": "bool", "value": false}]}, {"id": 15, "properties": [{"name": "collides", "type": "bool", "value": false}]}, {"id": 16, "properties": [{"name": "collides", "type": "bool", "value": false}]}, {"id": 17, "properties": [{"name": "collides", "type": "bool", "value": false}]}, {"id": 18, "properties": [{"name": "collides", "type": "bool", "value": false}]}], "wangsets": [{"name": "lpc-hierba", "type": "corner", "tile": -1, "colors": [{"name": "vac\u00edo", "color": "#3a9d23", "tile": -1, "probability": 1}, {"name": "vega de la villa", "color": "#8b5a2b", "tile": -1, "probability": 1}], "wangtiles": [{"tileid": 0, "wangid": [0, 1, 0, 1, 0, 1, 0, 1]}, {"tileid": 1, "wangid": [0, 1, 0, 2, 0, 1, 0, 1]}, {"tileid": 2, "wangid": [0, 1, 0, 1, 0, 2, 0, 1]}, {"tileid": 3, "wangid": [0, 1, 0, 2, 0, 2, 0, 1]}, {"tileid": 4, "wangid": [0, 2, 0, 1, 0, 1, 0, 1]}, {"tileid": 5, "wangid": [0, 2, 0, 2, 0, 1, 0, 1]}, {"tileid": 6, "wangid": [0, 2, 0, 1, 0, 2, 0, 1]}, {"tileid": 7, "wangid": [0, 2, 0, 2, 0, 2, 0, 1]}, {"tileid": 8, "wangid": [0, 1, 0, 1, 0, 1, 0, 2]}, {"tileid": 9, "wangid": [0, 1, 0, 2, 0, 1, 0, 2]}, {"tileid": 10, "wangid": [0, 1, 0, 1, 0, 2, 0, 2]}, {"tileid": 11, "wangid": [0, 1, 0, 2, 0, 2, 0, 2]}, {"tileid": 12, "wangid": [0, 2, 0, 1, 0, 1, 0, 2]}, {"tileid": 13, "wangid": [0, 2, 0, 2, 0, 1, 0, 2]}, {"tileid": 14, "wangid": [0, 2, 0, 1, 0, 2, 0, 2]}, {"tileid": 15, "wangid": [0, 2, 0, 2, 0, 2, 0, 2]}, {"tileid": 16, "wangid": [0, 2, 0, 2, 0, 2, 0, 2]}, {"tileid": 17, "wangid": [0, 2, 0, 2, 0, 2, 0, 2]}, {"tileid": 18, "wangid": [0, 2, 0, 2, 0, 2, 0, 2]}]}]}, {"firstgid": 58, "name": "lpc-camino", "image": "../tilesets/lpc-camino-32.png", "imagewidth": 128, "imageheight": 160, "tilewidth": 32, "tileheight": 32, "tilecount": 19, "columns": 4, "margin": 0, "spacing": 0, "tiles": [{"id": 0, "properties": [{"name": "collides", "type": "bool", "value": false}]}, {"id": 1, "properties": [{"name": "collides", "type": "bool", "value": false}]}, {"id": 2, "properties": [{"name": "collides", "type": "bool", "value": false}]}, {"id": 3, "properties": [{"name": "collides", "type": "bool", "value": false}]}, {"id": 4, "properties": [{"name": "collides", "type": "bool", "value": false}]}, {"id": 5, "properties": [{"name": "collides", "type": "bool", "value": false}]}, {"id": 6, "properties": [{"name": "collides", "type": "bool", "value": false}]}, {"id": 7, "properties": [{"name": "collides", "type": "bool", "value": false}]}, {"id": 8, "properties": [{"name": "collides", "type": "bool", "value": false}]}, {"id": 9, "properties": [{"name": "collides", "type": "bool", "value": false}]}, {"id": 10, "properties": [{"name": "collides", "type": "bool", "value": false}]}, {"id": 11, "properties": [{"name": "collides", "type": "bool", "value": false}]}, {"id": 12, "properties": [{"name": "collides", "type": "bool", "value": false}]}, {"id": 13, "properties": [{"name": "collides", "type": "bool", "value": false}]}, {"id": 14, "properties": [{"name": "collides", "type": "bool", "value": false}]}, {"id": 15, "properties": [{"name": "collides", "type": "bool", "value": false}]}, {"id": 16, "properties": [{"name": "collides", "type": "bool", "value": false}]}, {"id": 17, "properties": [{"name": "collides", "type": "bool", "value": false}]}, {"id": 18, "properties": [{"name": "collides", "type": "bool", "value": false}]}], "wangsets": [{"name": "lpc-camino", "type": "corner", "tile": -1, "colors": [{"name": "vac\u00edo", "color": "#3a9d23", "tile": -1, "probability": 1}, {"name": "camino", "color": "#8b5a2b", "tile": -1, "probability": 1}], "wangtiles": [{"tileid": 0, "wangid": [0, 1, 0, 1, 0, 1, 0, 1]}, {"tileid": 1, "wangid": [0, 1, 0, 2, 0, 1, 0, 1]}, {"tileid": 2, "wangid": [0, 1, 0, 1, 0, 2, 0, 1]}, {"tileid": 3, "wangid": [0, 1, 0, 2, 0, 2, 0, 1]}, {"tileid": 4, "wangid": [0, 2, 0, 1, 0, 1, 0, 1]}, {"tileid": 5, "wangid": [0, 2, 0, 2, 0, 1, 0, 1]}, {"tileid": 6, "wangid": [0, 2, 0, 1, 0, 2, 0, 1]}, {"tileid": 7, "wangid": [0, 2, 0, 2, 0, 2, 0, 1]}, {"tileid": 8, "wangid": [0, 1, 0, 1, 0, 1, 0, 2]}, {"tileid": 9, "wangid": [0, 1, 0, 2, 0, 1, 0, 2]}, {"tileid": 10, "wangid": [0, 1, 0, 1, 0, 2, 0, 2]}, {"tileid": 11, "wangid": [0, 1, 0, 2, 0, 2, 0, 2]}, {"tileid": 12, "wangid": [0, 2, 0, 1, 0, 1, 0, 2]}, {"tileid": 13, "wangid": [0, 2, 0, 2, 0, 1, 0, 2]}, {"tileid": 14, "wangid": [0, 2, 0, 1, 0, 2, 0, 2]}, {"tileid": 15, "wangid": [0, 2, 0, 2, 0, 2, 0, 2]}, {"tileid": 16, "wangid": [0, 2, 0, 2, 0, 2, 0, 2]}, {"tileid": 17, "wangid": [0, 2, 0, 2, 0, 2, 0, 2]}, {"tileid": 18, "wangid": [0, 2, 0, 2, 0, 2, 0, 2]}]}]}], "layers": [{"id": 1, "name": "Below Player", "type": "tilelayer", "x": 0, "y": 0, "width": 70, "height": 45, "opacity": 1, "visible": true, "data": [16, 16, 16, 18, 16, 19, 16, 16, 16, 19, 19, 18, 19, 16, 16, 16, 16, 18, 17, 16, 16, 16, 17, 19, 16, 19, 16, 16, 17, 19, 16, 19, 19, 16, 16, 18, 16, 17, 16, 16, 16, 16, 17, 16, 16, 16, 16, 19, 16, 16, 16, 16, 17, 16, 16, 16, 16, 16, 19, 16, 17, 16, 16, 16, 16, 16, 17, 16, 19, 17, 17, 16, 16, 16, 16, 16, 16, 16, 19, 16, 16, 19, 16, 19, 16, 16, 16, 16, 16, 18, 16, 16, 16, 16, 16, 17, 17, 18, 16, 19, 19, 16, 16, 16, 16, 16, 16, 16, 16, 17, 16, 16, 16, 16, 19, 17, 19, 19, 16, 16, 16, 17, 17, 18, 16, 16, 18, 19, 19, 17, 18, 16, 16, 16, 16, 18, 16, 19, 16, 16, 16, 16, 16, 16, 16, 17, 16, 16, 16, 19, 18, 16, 19, 16, 16, 16, 16, 16, 16, 16, 17, 18, 16, 16, 18, 16, 18, 19, 18, 16, 16, 16, 19, 16, 19, 16, 18, 16, 16, 18, 16, 16, 16, 19, 18, 16, 16, 16, 19, 16, 16, 17, 19, 18, 16, 16, 16, 16, 17, 18, 18, 18, 16, 17, 16, 16, 16, 18, 19, 19, 16, 16, 16, 19, 16, 16, 16, 16, 17, 18, 16, 16, 18, 17, 18, 18, 16, 19, 17, 16, 19, 16, 16, 16, 17, 16, 16, 18, 16, 18, 17, 16, 16, 16, 17, 19, 18, 17, 16, 16, 16, 16, 16, 16, 17, 17, 16, 16, 16, 17, 16, 16, 17, 19, 19, 16, 16, 19, 16, 19, 18, 16, 19, 17, 16, 16, 16, 16, 16, 18, 16, 16, 18, 16, 16, 16, 16, 16, 16, 16, 16, 17, 16, 16, 16, 16, 16, 19, 16, 17, 16, 18, 16, 16, 16, 16, 16, 16, 16, 16, 16, 18, 17, 16, 17, 17, 16, 16, 16, 16, 16, 16, 16, 16, 17, 18, 16, 16, 16, 19, 16, 17, 18, 16, 16, 16, 16, 16, 18, 19, 16, 19, 16, 16, 16, 17, 16, 16, 17, 16, 16, 19, 16, 18, 16, 16, 18, 16, 16, 16, 16, 16, 17, 16, 16, 19, 16, 16, 16, 16, 16, 16, 18, 16, 16, 16, 16, 17, 16, 16, 17, 16, 16, 19, 16, 19, 16, 18, 16, 16, 16, 16, 16, 16, 18, 16, 16, 17, 18, 18, 17, 16, 19, 16, 18, 16, 19, 16, 18, 17, 19, 16, 16, 17, 16, 16, 18, 18, 17, 16, 16, 17, 16, 16, 16, 16, 16, 19, 16, 16, 16, 16, 16, 16, 18, 17, 19, 18, 16, 16, 16, 16, 16, 16, 16, 16, 16, 16, 17, 18, 16, 16, 16, 16, 16, 17, 16, 16, 19, 16, 16, 16, 16, 16, 18, 16, 19, 16, 16, 16, 16, 16, 16, 16, 16, 16, 17, 18, 17, 18, 19, 16, 16, 19, 16, 16, 19, 16, 19, 19, 18, 16, 16, 16, 16, 17, 16, 19, 19, 16, 19, 17, 16, 19, 16, 16, 16, 16, 19, 16, 16, 16, 16, 17, 17, 17, 16, 16, 18, 16, 16, 16, 18, 16, 19, 16, 19, 19, 19, 16, 16, 17, 16, 18, 16, 17, 16, 18, 16, 16, 16, 16, 16, 16, 16, 16, 16, 16, 16, 17, 16, 16, 16, 17, 16, 16, 16, 16, 16, 16, 17, 16, 16, 19, 16, 16, 19, 16, 16, 16, 17, 16, 16, 16, 16, 19, 18, 19, 16, 19, 16, 16, 16, 16, 16, 16, 16, 16, 17, 17, 16, 16, 16, 16, 16, 16, 18, 16, 16, 17, 16, 16, 16, 16, 16, 16, 16, 16, 16, 16, 16, 16, 16, 16, 16, 19, 16, 16, 16, 19, 17, 16, 18, 19, 16, 16, 16, 16, 16, 16, 18, 18, 18, 16, 18, 17, 16, 16, 16, 16, 16, 16, 16, 16, 16, 19, 16, 16, 16, 17, 16, 16, 16, 16, 19, 16, 17, 16, 18, 16, 16, 16, 16, 16, 16, 18, 16, 16, 18, 19, 16, 16, 16, 16, 17, 17, 16, 16, 17, 16, 18, 16, 16, 16, 19, 16, 16, 16, 16, 16, 16, 19, 17, 16, 16, 19, 16, 16, 16, 16, 17, 17, 16, 16, 17, 18, 16, 19, 16, 16, 18, 17, 18, 16, 16, 17, 19, 16, 17, 16, 16, 16, 19, 16, 16, 16, 18, 16, 16, 17, 17, 16, 18, 16, 16, 16, 18, 17, 19, 17, 19, 16, 16, 16, 16, 16, 16, 16, 19, 17, 16, 16, 16, 16, 17, 16, 16, 19, 16, 16, 18, 16, 16, 16, 16, 16, 16, 16, 19, 16, 16, 16, 16, 16, 16, 16, 19, 19, 16, 16, 16, 17, 16, 17, 16, 18, 18, 17, 17, 16, 18, 16, 16, 16, 16, 16, 16, 16, 16, 18, 16, 16, 16, 16, 16, 16, 16, 16, 16, 19, 16, 19, 16, 16, 16, 16, 16, 18, 16, 16, 16, 17, 16, 17, 17, 16, 16, 16, 17, 16, 16, 16, 16, 16, 16, 16, 16, 16, 16, 18, 16, 17, 16, 19, 16, 16, 16, 16, 19, 16, 16, 16, 18, 19, 16, 16, 16, 18, 16, 16, 16, 19, 16, 16, 16, 18, 19, 16, 16, 16, 17, 16, 16, 19, 16, 16, 16, 18, 16, 16, 16, 16, 16, 18, 16, 18, 16, 16, 16, 16, 16, 16, 18, 16, 19, 18, 19, 16, 18, 18, 16, 16, 16, 18, 18, 16, 17, 16, 19, 16, 19, 16, 16, 17, 16, 16, 16, 16, 16, 16, 16, 16, 16, 18, 19, 16, 16, 18, 16, 16, 16, 16, 19, 18, 16, 17, 19, 16, 16, 16, 18, 18, 16, 18, 16, 19, 16, 17, 16, 16, 16, 16, 19, 16, 18, 16, 16, 16, 16, 16, 16, 18, 18, 17, 18, 16, 18, 19, 18, 16, 16, 19, 16, 16, 16, 18, 16, 16, 16, 16, 16, 17, 18, 18, 16, 18, 16, 16, 17, 16, 17, 16, 16, 16, 18, 18, 18, 16, 16, 17, 16, 17, 16, 16, 16, 16, 18, 16, 17, 16, 17, 18, 16, 17, 16, 16, 16, 18, 17, 16, 16, 18, 16, 16, 16, 16, 19, 17, 17, 16, 16, 16, 16, 16, 17, 16, 17, 18, 16, 17, 16, 18, 19, 16, 16, 16, 16, 16, 19, 16, 16, 16, 16, 17, 16, 16, 16, 16, 16, 16, 16, 18, 16, 19, 18, 16, 16, 16, 16, 17, 16, 17, 19, 19, 16, 17, 16, 16, 16, 16, 17, 16, 17, 16, 16, 16, 19, 16, 16, 16, 16, 16, 18, 16, 17, 16, 16, 16, 16, 16, 16, 18, 16, 16, 16, 16, 16, 16, 16, 16, 19, 16, 19, 17, 16, 16, 18, 17, 16, 16, 16, 16, 16, 16, 17, 16, 18, 16, 16, 18, 16, 17, 18, 16, 16, 16, 18, 18, 17, 16, 16, 16, 16, 19, 18, 18, 16, 16, 16, 16, 16, 16, 16, 16, 16, 16, 16, 16, 16, 17, 16, 16, 16, 16, 16, 16, 19, 16, 18, 16, 16, 16, 16, 16, 16, 16, 16, 16, 16, 16, 19, 16, 18, 16, 16, 16, 16, 16, 16, 16, 16, 16, 18, 19, 16, 16, 16, 16, 17, 16, 16, 18, 16, 16, 16, 19, 16, 17, 16, 17, 16, 18, 16, 16, 18, 19, 16, 18, 16, 16, 17, 16, 16, 16, 19, 16, 16, 17, 16, 18, 18, 16, 17, 16, 16, 16, 19, 19, 16, 16, 16, 16, 16, 16, 19, 16, 16, 16, 18, 16, 16, 18, 16, 16, 18, 16, 19, 18, 17, 18, 16, 16, 16, 19, 17, 16, 16, 17, 16, 16, 19, 16, 19, 16, 16, 16, 16, 16, 16, 17, 16, 16, 16, 16, 19, 16, 16, 17, 17, 16, 16, 16, 16, 17, 16, 18, 18, 16, 16, 18, 16, 16, 17, 16, 16, 17, 16, 16, 18, 16, 17, 16, 16, 16, 16, 16, 16, 16, 16, 18, 18, 16, 16, 16, 16, 18, 16, 19, 17, 16, 16, 17, 19, 16, 18, 16, 18, 17, 18, 16, 17, 16, 16, 16, 16, 18, 16, 19, 16, 16, 19, 17, 16, 16, 16, 16, 17, 16, 16, 16, 16, 17, 16, 16, 17, 16, 16, 16, 18, 16, 17, 16, 16, 16, 19, 16, 19, 17, 16, 19, 16, 16, 17, 18, 19, 16, 16, 16, 16, 17, 16, 16, 16, 18, 16, 17, 19, 18, 18, 16, 19, 16, 16, 16, 16, 16, 18, 16, 16, 19, 16, 18, 19, 16, 16, 16, 16, 16, 16, 16, 17, 16, 19, 18, 16, 16, 19, 19, 16, 16, 19, 16, 16, 16, 16, 16, 16, 16, 19, 16, 16, 16, 19, 16, 16, 16, 16, 19, 16, 16, 16, 18, 19, 16, 16, 16, 16, 16, 19, 16, 16, 16, 19, 18, 16, 16, 19, 16, 17, 19, 16, 16, 16, 16, 18, 18, 19, 18, 16, 16, 16, 16, 16, 16, 16, 16, 16, 17, 16, 16, 16, 17, 16, 16, 16, 16, 16, 16, 16, 16, 16, 16, 16, 16, 16, 16, 17, 16, 17, 17, 18, 16, 19, 16, 16, 16, 19, 16, 17, 17, 16, 16, 16, 16, 16, 16, 18, 16, 16, 19, 16, 16, 18, 19, 17, 19, 19, 16, 17, 16, 18, 16, 16, 16, 16, 18, 16, 19, 16, 16, 16, 16, 16, 16, 18, 19, 18, 16, 16, 18, 16, 16, 17, 16, 16, 16, 16, 16, 16, 19, 16, 19, 16, 16, 19, 18, 16, 16, 18, 16, 19, 17, 17, 16, 19, 17, 16, 16, 17, 16, 17, 19, 17, 19, 16, 18, 16, 16, 16, 16, 16, 17, 17, 16, 18, 16, 16, 16, 16, 16, 17, 16, 18, 17, 16, 16, 18, 16, 16, 17, 16, 17, 17, 19, 18, 16, 16, 16, 16, 16, 16, 16, 16, 16, 16, 17, 16, 16, 16, 17, 18, 19, 16, 16, 17, 16, 16, 18, 16, 16, 18, 16, 16, 17, 16, 16, 16, 17, 18, 19, 18, 16, 16, 16, 16, 16, 16, 16, 19, 18, 16, 17, 17, 19, 17, 17, 18, 16, 19, 19, 16, 16, 16, 18, 16, 16, 17, 18, 16, 19, 19, 19, 16, 16, 16, 18, 17, 16, 16, 16, 16, 16, 19, 16, 16, 18, 16, 18, 16, 16, 16, 16, 16, 16, 16, 16, 16, 17, 16, 17, 18, 16, 16, 16, 18, 18, 16, 19, 16, 16, 16, 16, 16, 18, 16, 16, 16, 16, 16, 16, 17, 16, 18, 19, 19, 16, 18, 19, 17, 16, 17, 16, 16, 17, 16, 16, 16, 16, 16, 16, 18, 17, 16, 16, 16, 16, 17, 18, 17, 16, 17, 16, 16, 17, 18, 17, 16, 18, 16, 16, 17, 16, 16, 16, 18, 19, 16, 17, 16, 18, 16, 16, 17, 17, 19, 16, 16, 16, 18, 16, 16, 16, 16, 16, 17, 16, 16, 16, 16, 16, 16, 16, 16, 16, 18, 16, 16, 16, 16, 16, 16, 19, 18, 16, 16, 16, 16, 16, 18, 16, 17, 16, 16, 16, 19, 16, 16, 16, 19, 16, 16, 16, 16, 16, 16, 16, 16, 16, 16, 16, 16, 17, 17, 18, 16, 16, 16, 16, 17, 16, 16, 16, 17, 16, 16, 16, 17, 19, 18, 16, 17, 16, 18, 16, 16, 16, 16, 16, 17, 16, 18, 18, 16, 16, 16, 18, 16, 16, 16, 16, 16, 16, 16, 16, 16, 18, 19, 16, 17, 16, 16, 16, 16, 16, 18, 19, 16, 16, 17, 19, 16, 16, 16, 19, 16, 16, 16, 18, 17, 16, 19, 16, 16, 16, 19, 16, 16, 16, 19, 16, 17, 16, 18, 17, 16, 18, 16, 16, 16, 16, 16, 19, 18, 16, 19, 16, 17, 19, 16, 17, 16, 16, 16, 17, 18, 16, 18, 16, 18, 18, 16, 19, 19, 16, 19, 19, 16, 16, 19, 16, 16, 17, 16, 17, 16, 16, 16, 16, 16, 16, 18, 19, 16, 16, 16, 19, 16, 16, 16, 17, 19, 16, 16, 16, 16, 16, 16, 16, 19, 16, 16, 16, 16, 19, 16, 16, 16, 19, 16, 16, 16, 16, 17, 17, 16, 19, 16, 19, 19, 17, 16, 16, 16, 16, 16, 18, 19, 16, 16, 16, 19, 16, 17, 18, 16, 16, 16, 16, 16, 16, 16, 16, 16, 16, 18, 19, 16, 16, 16, 18, 16, 19, 17, 18, 16, 16, 16, 16, 16, 16, 16, 19, 16, 16, 18, 16, 16, 18, 17, 16, 16, 16, 16, 16, 16, 18, 16, 16, 16, 19, 16, 16, 16, 19, 18, 16, 16, 18, 16, 16, 16, 18, 16, 18, 17, 18, 19, 16, 17, 16, 19, 16, 17, 18, 18, 19, 19, 18, 16, 16, 16, 18, 18, 16, 19, 16, 16, 17, 17, 16, 16, 19, 18, 16, 17, 16, 16, 16, 16, 16, 16, 16, 16, 16, 16, 18, 16, 18, 19, 18, 17, 16, 16, 17, 17, 16, 16, 19, 16, 16, 18, 17, 18, 16, 16, 16, 16, 16, 18, 16, 18, 16, 16, 19, 17, 16, 16, 19, 16, 17, 17, 16, 16, 16, 18, 17, 16, 18, 16, 16, 16, 16, 16, 16, 16, 19, 16, 16, 16, 16, 16, 16, 16, 16, 19, 16, 16, 17, 17, 19, 16, 16, 16, 18, 16, 17, 16, 19, 16, 17, 16, 16, 16, 17, 16, 16, 19, 18, 16, 17, 16, 16, 16, 16, 17, 16, 16, 16, 16, 16, 18, 16, 16, 16, 17, 16, 16, 16, 16, 17, 16, 16, 16, 16, 19, 16, 16, 19, 16, 16, 16, 16, 16, 17, 17, 19, 16, 16, 17, 16, 16, 16, 17, 16, 16, 19, 16, 16, 16, 16, 16, 17, 16, 18, 16, 16, 17, 16, 17, 16, 16, 16, 16, 17, 16, 16, 16, 16, 18, 19, 16, 16, 16, 18, 16, 18, 16, 16, 16, 16, 16, 19, 16, 17, 16, 16, 16, 17, 16, 16, 16, 18, 16, 16, 16, 16, 16, 18, 19, 16, 16, 17, 16, 16, 16, 16, 18, 16, 19, 18, 16, 16, 19, 16, 16, 16, 16, 16, 16, 16, 19, 16, 16, 19, 16, 16, 16, 16, 16, 17, 16, 17, 17, 16, 16, 16, 18, 16, 16, 16, 16, 16, 16, 16, 16, 17, 19, 16, 16, 16, 16, 16, 17, 16, 16, 17, 18, 16, 16, 16, 16, 16, 16, 19, 16, 16, 16, 16, 17, 16, 16, 16, 17, 16, 17, 17, 18, 17, 16, 17, 16, 19, 16, 16, 17, 17, 16, 16, 16, 17, 16, 16, 16, 17, 19, 19, 16, 16, 16, 16, 16, 18, 16, 16, 18, 16, 16, 16, 17, 16, 16, 19, 19, 16, 18, 16, 16, 17, 16, 16, 16, 18, 18, 16, 16, 16, 17, 17, 17, 16, 16, 18, 16, 16, 16, 16, 17, 18, 16, 16, 16, 16, 17, 18, 16, 17, 16, 16, 16, 16, 16, 16, 18, 16, 18, 19, 17, 16, 16, 16, 16, 16, 16, 16, 16, 18, 16, 16, 16, 16, 17, 17, 16, 16, 16, 18, 16, 16, 16, 18, 19, 16, 19, 16, 18, 16, 16, 16, 16, 16, 18, 16, 17, 16, 16, 18, 16, 16, 17, 17, 16, 16, 16, 16, 16, 17, 16, 16, 18, 16, 16, 19, 16, 16, 16, 16, 19, 17, 19, 19, 19, 16, 16, 16, 16, 17, 16, 16, 17, 16, 16, 19, 18, 16, 16, 16, 16, 16, 16, 16, 19, 16, 16, 16, 16, 16, 16, 16, 18, 17, 19, 16, 16, 17, 17, 17, 16, 16, 17, 16, 17, 16, 16, 18, 16, 16, 17, 16, 18, 16, 16, 19, 16, 16, 16, 16, 17, 16, 16, 17, 16, 18, 16, 19, 18, 16, 18, 17, 16, 16, 17, 16, 17, 18, 18, 18, 19, 18, 18, 18, 16, 18, 16, 16, 16, 18, 16, 16, 18, 16, 16, 18, 16, 16, 16, 17, 19, 16, 17, 16, 18, 19, 17, 16, 16, 16, 17, 16, 16, 17, 16, 19, 16, 19, 16, 16, 16, 16, 16, 16, 18, 16, 19, 17, 17, 19, 17, 16, 16, 19, 17, 16, 18, 16, 18, 19, 16, 16, 16, 16, 16, 16, 16, 16, 16, 16, 16, 16, 16, 16, 16, 16, 16, 17, 16, 16, 16, 19, 16, 16, 16, 16, 17, 16, 18, 17, 16, 19, 19, 16, 17, 18, 16, 16, 16, 16, 16, 16, 16, 18, 17, 16, 16, 16, 17, 16, 16, 16, 17, 16, 16, 19, 18, 16, 19, 16, 16, 16, 17, 16, 16, 16, 16, 16, 16, 18, 16, 16, 16, 19, 16, 16, 16, 16, 16, 19, 16, 16, 18, 18, 16, 18, 18, 16, 16, 16, 16, 16, 16, 16, 16, 19, 19, 16, 16, 16, 18, 16, 18, 16, 16, 16, 16, 17, 16, 16, 17, 16, 16, 16, 19, 16, 16, 16, 17, 17, 19, 16, 16, 19, 16, 16, 18, 19, 16, 16, 16, 16, 16, 18, 16, 16, 16, 19, 16, 16, 18, 17, 16, 16, 17, 16, 16, 16, 16, 16, 16, 19, 16, 16, 16, 18, 18, 16, 16, 18, 16, 16, 17, 16, 16, 16, 16, 16, 16, 17, 16, 19, 16, 16, 18, 19, 16, 16, 16, 17, 16, 18, 16, 16, 16, 18, 16, 16, 17, 19, 17, 16, 17, 16, 18, 16, 19, 16, 16, 16, 19, 16, 19, 18, 17, 19, 16, 16, 16, 16, 16, 16, 16, 16, 17, 16, 19, 16, 16, 16, 16, 18, 16, 16, 18, 16, 16, 19, 16, 16, 16, 19, 17, 16, 16, 16, 16, 16, 16, 17, 17, 16, 17, 16, 16, 16, 18, 16, 19, 19, 16, 16, 16, 18, 16, 16, 16, 17, 16, 16, 16, 17, 18, 16, 18, 18, 16, 16, 19, 16, 19, 17, 16, 16, 16, 19, 19, 18, 16, 16, 16, 19, 16, 16, 16, 16, 16, 16, 16, 16, 16, 16, 16, 16, 19, 16, 16, 16, 16, 16, 18, 19, 16, 16, 18, 17, 18, 16, 16, 16, 16, 16, 19, 19, 16, 16, 16, 17, 16, 16, 16, 16, 16, 16, 16, 16, 16, 18, 16, 17, 16, 18, 16, 16, 18, 17, 16, 16, 18, 16, 16, 16, 16, 16, 18, 16, 16, 16, 16, 17, 16, 17, 16, 18, 19, 16, 18, 16, 17, 19, 18, 17, 16, 17, 16, 18, 16, 16, 16, 18, 16, 18, 18, 18, 16, 17, 16, 16, 16, 17, 16, 16, 16, 16, 19, 16, 16, 16, 18, 17, 16, 16, 16, 18, 16, 16, 16, 19, 18, 16, 16, 18, 16, 16, 16, 16, 16, 17, 16, 16, 16, 16, 18, 19, 16, 17, 16, 16, 16, 16, 16, 16, 16, 18, 16, 16, 18, 16, 18, 16, 17, 18, 17, 19, 16, 16, 16, 16, 19, 17, 19, 16, 16, 16, 16, 16, 16, 16, 18, 16, 18, 16, 16, 16, 16, 16, 16, 16, 16, 19, 17, 16, 16, 19, 19, 16, 18, 16, 16, 18, 16, 18, 19, 19]}, {"id": 2, "name": "malpa\u00eds", "type": "tilelayer", "x": 0, "y": 0, "width": 70, "height": 45, "opacity": 1, "visible": true, "data": [38, 38, 35, 30, 0, 0, 0, 0, 0, 0, 0, 0, 24, 33, 36, 35, 37, 35, 36, 35, 35, 35, 30, 0, 0, 0, 0, 0, 0, 0, 0, 0, 0, 0, 0, 24, 33, 38, 35, 37, 36, 35, 30, 0, 0, 0, 0, 0, 0, 0, 0, 0, 0, 25, 35, 36, 35, 35, 35, 35, 35, 38, 36, 38, 30, 0, 0, 0, 0, 0, 36, 35, 34, 28, 0, 0, 0, 0, 0, 0, 0, 0, 0, 25, 35, 35, 35, 37, 35, 37, 35, 34, 28, 0, 0, 0, 0, 0, 0, 0, 0, 0, 0, 0, 0, 0, 24, 33, 36, 37, 35, 34, 28, 0, 0, 0, 0, 0, 0, 0, 0, 0, 0, 24, 33, 36, 35, 38, 35, 38, 38, 37, 35, 34, 28, 0, 0, 0, 0, 0, 36, 35, 30, 0, 0, 0, 0, 0, 0, 0, 0, 0, 0, 24, 33, 35, 35, 35, 35, 38, 38, 30, 0, 0, 0, 0, 0, 0, 0, 0, 0, 0, 0, 0, 0, 0, 0, 24, 33, 35, 34, 28, 0, 0, 0, 0, 0, 0, 0, 0, 0, 0, 0, 0, 25, 36, 37, 35, 35, 35, 35, 38, 34, 28, 0, 0, 0, 0, 0, 0, 38, 34, 28, 0, 0, 0, 0, 0, 0, 0, 0, 0, 0, 0, 24, 33, 35, 35, 35, 34, 32, 28, 0, 0, 0, 0, 0, 0, 0, 0, 0, 0, 0, 0, 0, 0, 0, 0, 24, 32, 28, 0, 0, 0, 0, 0, 0, 0, 0, 0, 0, 0, 0, 0, 24, 33, 35, 35, 36, 37, 35, 34, 28, 0, 0, 0, 0, 0, 0, 0, 34, 28, 0, 0, 0, 0, 0, 0, 0, 0, 0, 0, 0, 0, 0, 24, 32, 32, 32, 28, 0, 0, 0, 0, 0, 0, 0, 0, 0, 0, 0, 0, 0, 0, 0, 0, 0, 0, 0, 0, 0, 0, 0, 0, 0, 0, 0, 0, 0, 0, 0, 0, 0, 0, 0, 24, 33, 35, 35, 38, 35, 30, 0, 0, 0, 0, 0, 0, 0, 0, 28, 0, 0, 0, 0, 0, 0, 0, 0, 0, 0, 0, 0, 0, 0, 0, 0, 0, 0, 0, 0, 0, 0, 0, 0, 0, 0, 0, 0, 0, 0, 0, 0, 0, 0, 0, 0, 0, 0, 0, 0, 0, 0, 0, 0, 0, 0, 0, 0, 0, 0, 0, 0, 0, 0, 0, 24, 33, 35, 34, 32, 28, 0, 0, 0, 0, 0, 0, 0, 0, 0, 0, 0, 0, 0, 0, 0, 0, 0, 0, 0, 0, 0, 0, 0, 0, 0, 0, 0, 0, 0, 0, 0, 0, 0, 0, 0, 0, 0, 0, 0, 0, 0, 0, 0, 0, 0, 0, 0, 0, 0, 0, 0, 0, 0, 0, 0, 0, 0, 0, 0, 0, 0, 0, 0, 0, 0, 24, 32, 28, 0, 0, 0, 0, 0, 0, 0, 0, 0, 0, 0, 0, 0, 0, 0, 0, 0, 0, 0, 0, 0, 0, 0, 0, 0, 0, 0, 0, 0, 0, 0, 0, 0, 0, 0, 0, 0, 0, 0, 0, 0, 0, 0, 0, 0, 0, 0, 0, 0, 0, 0, 0, 0, 0, 0, 0, 0, 0, 0, 0, 0, 0, 0, 0, 0, 0, 0, 0, 0, 0, 0, 0, 0, 0, 0, 0, 0, 0, 0, 0, 0, 0, 0, 0, 0, 0, 0, 0, 0, 0, 0, 0, 0, 0, 0, 0, 0, 0, 0, 0, 0, 0, 0, 0, 0, 0, 0, 0, 0, 0, 0, 0, 0, 0, 0, 0, 0, 0, 0, 0, 0, 0, 0, 0, 0, 0, 0, 0, 0, 0, 0, 0, 0, 0, 0, 0, 0, 0, 0, 0, 0, 0, 0, 0, 0, 0, 0, 0, 0, 0, 0, 0, 0, 0, 0, 0, 0, 0, 0, 0, 0, 0, 0, 0, 0, 0, 0, 0, 0, 0, 0, 0, 0, 0, 0, 0, 0, 0, 0, 0, 0, 0, 0, 0, 0, 0, 0, 0, 0, 0, 0, 0, 0, 0, 0, 0, 0, 0, 0, 0, 0, 0, 0, 0, 0, 0, 0, 0, 0, 0, 0, 0, 0, 0, 0, 0, 0, 0, 0, 0, 0, 0, 0, 0, 0, 0, 0, 0, 0, 0, 0, 0, 0, 0, 0, 0, 0, 0, 0, 0, 0, 0, 0, 0, 0, 0, 0, 0, 0, 0, 0, 0, 0, 0, 0, 0, 0, 0, 0, 0, 0, 0, 0, 0, 0, 0, 0, 0, 0, 0, 0, 0, 0, 0, 0, 0, 0, 0, 0, 0, 0, 0, 0, 0, 0, 0, 0, 0, 0, 0, 0, 0, 0, 0, 0, 0, 0, 0, 0, 0, 0, 0, 0, 0, 0, 0, 0, 0, 0, 0, 0, 0, 0, 0, 0, 0, 0, 0, 0, 0, 0, 0, 0, 0, 0, 0, 0, 0, 0, 0, 0, 0, 0, 0, 0, 0, 0, 0, 0, 0, 0, 0, 0, 0, 0, 0, 0, 0, 0, 0, 0, 0, 0, 0, 0, 0, 0, 0, 0, 0, 0, 0, 0, 0, 0, 0, 0, 0, 0, 0, 0, 0, 0, 0, 0, 0, 0, 0, 0, 0, 0, 0, 0, 0, 0, 0, 0, 0, 0, 0, 0, 0, 0, 0, 0, 0, 0, 0, 0, 0, 0, 0, 0, 0, 0, 0, 0, 0, 0, 0, 0, 0, 0, 0, 0, 0, 0, 0, 0, 0, 0, 0, 0, 0, 0, 0, 0, 0, 0, 0, 0, 0, 0, 0, 0, 0, 0, 0, 0, 0, 0, 0, 0, 0, 0, 0, 0, 0, 0, 0, 0, 0, 0, 0, 0, 0, 0, 0, 0, 0, 0, 0, 0, 0, 0, 0, 0, 0, 0, 0, 0, 0, 0, 0, 0, 0, 0, 0, 0, 0, 0, 0, 0, 0, 0, 0, 0, 0, 0, 0, 0, 0, 0, 0, 0, 0, 0, 0, 0, 0, 22, 0, 0, 0, 0, 0, 0, 0, 0, 0, 0, 0, 0, 0, 0, 0, 0, 0, 0, 0, 0, 0, 0, 0, 0, 0, 0, 0, 0, 0, 0, 0, 0, 0, 0, 0, 0, 0, 21, 23, 23, 22, 0, 0, 0, 0, 0, 0, 0, 0, 0, 0, 0, 0, 0, 0, 0, 0, 0, 0, 0, 0, 0, 0, 0, 0, 0, 0, 0, 0, 31, 22, 0, 0, 0, 0, 0, 0, 0, 0, 0, 0, 0, 0, 0, 0, 0, 0, 0, 0, 0, 0, 0, 0, 0, 0, 0, 0, 0, 0, 0, 0, 0, 0, 0, 0, 0, 21, 27, 37, 37, 31, 22, 0, 0, 0, 0, 0, 0, 0, 0, 0, 0, 0, 0, 0, 0, 0, 0, 0, 0, 0, 0, 0, 0, 0, 0, 0, 0, 0, 35, 30, 0, 0, 0, 0, 0, 0, 0, 0, 0, 0, 0, 0, 0, 0, 0, 0, 0, 0, 0, 0, 0, 0, 0, 0, 0, 0, 0, 0, 0, 0, 0, 0, 0, 0, 21, 27, 38, 35, 37, 35, 30, 0, 0, 0, 0, 0, 0, 0, 0, 0, 0, 0, 0, 0, 21, 23, 23, 23, 22, 0, 0, 0, 0, 0, 0, 0, 0, 0, 35, 31, 22, 0, 0, 0, 0, 0, 0, 0, 0, 0, 0, 0, 0, 0, 21, 23, 23, 23, 22, 0, 0, 0, 0, 0, 0, 0, 0, 0, 0, 0, 0, 0, 21, 23, 27, 35, 38, 35, 35, 37, 31, 22, 0, 0, 0, 0, 0, 0, 0, 0, 0, 0, 0, 0, 25, 35, 37, 36, 30, 0, 0, 0, 0, 0, 0, 0, 0, 0, 35, 38, 30, 0, 0, 0, 0, 0, 0, 0, 0, 0, 0, 0, 0, 21, 27, 35, 35, 38, 31, 22, 0, 0, 0, 0, 0, 0, 0, 0, 0, 0, 0, 21, 27, 35, 35, 38, 35, 35, 35, 35, 35, 30, 0, 0, 0, 0, 0, 0, 0, 0, 0, 0, 0, 21, 27, 35, 34, 32, 28, 0, 0, 0, 0, 0, 0, 0, 0, 0, 38, 35, 30, 0, 0, 0, 0, 0, 0, 0, 0, 0, 0, 0, 0, 25, 35, 35, 35, 35, 35, 31, 22, 0, 0, 0, 0, 0, 0, 0, 0, 0, 0, 25, 38, 35, 35, 35, 35, 35, 35, 36, 35, 31, 22, 0, 0, 0, 0, 0, 0, 0, 0, 0, 0, 25, 35, 34, 28, 0, 0, 0, 0, 0, 0, 0, 0, 0, 0, 0, 35, 35, 30, 0, 0, 0, 0, 0, 0, 0, 0, 0, 0, 0, 0, 25, 35, 35, 35, 35, 36, 35, 30, 0, 0, 0, 0, 0, 0, 0, 0, 0, 21, 27, 35, 35, 35, 35, 38, 38, 38, 35, 35, 35, 30, 0, 0, 0, 0, 0, 0, 0, 0, 0, 0, 25, 34, 28, 0, 0, 0, 21, 22, 0, 0, 0, 0, 0, 0, 0, 37, 35, 30, 0, 0, 0, 0, 0, 0, 0, 0, 0, 0, 0, 21, 27, 35, 35, 35, 35, 36, 35, 30, 0, 0, 0, 0, 0, 0, 0, 0, 0, 25, 35, 35, 35, 35, 38, 35, 36, 36, 38, 35, 35, 30, 0, 0, 0, 0, 0, 0, 0, 0, 0, 0, 24, 28, 0, 0, 0, 21, 27, 30, 0, 0, 0, 0, 0, 0, 0, 36, 35, 30, 0, 0, 0, 0, 0, 0, 0, 0, 0, 0, 0, 24, 33, 37, 36, 35, 35, 35, 36, 30, 0, 0, 0, 0, 0, 0, 0, 0, 0, 25, 35, 36, 37, 35, 35, 37, 35, 35, 35, 35, 34, 28, 0, 0, 0, 0, 0, 0, 0, 0, 0, 0, 0, 0, 0, 0, 0, 25, 36, 30, 0, 0, 0, 0, 0, 0, 0, 35, 34, 28, 0, 0, 0, 0, 0, 0, 0, 0, 0, 0, 0, 0, 25, 35, 35, 36, 36, 35, 37, 30, 0, 0, 0, 0, 0, 0, 0, 0, 0, 24, 33, 37, 37, 35, 35, 35, 35, 37, 35, 35, 30, 0, 0, 0, 0, 0, 0, 0, 0, 0, 0, 0, 0, 0, 0, 0, 21, 27, 34, 28, 0, 0, 0, 0, 0, 0, 0, 37, 30, 0, 0, 0, 0, 0, 0, 0, 0, 0, 0, 0, 0, 0, 25, 35, 38, 35, 36, 36, 35, 30, 0, 0, 0, 0, 0, 0, 0, 0, 0, 0, 25, 35, 35, 35, 36, 35, 35, 37, 35, 34, 28, 0, 0, 0, 0, 0, 0, 0, 0, 0, 0, 0, 0, 0, 0, 21, 27, 35, 30, 0, 0, 0, 0, 0, 0, 0, 0, 34, 28, 0, 0, 0, 0, 0, 0, 0, 0, 0, 0, 0, 0, 0, 24, 33, 36, 35, 35, 35, 34, 28, 0, 0, 0, 0, 0, 0, 0, 0, 0, 0, 24, 33, 35, 35, 35, 38, 35, 36, 35, 30, 0, 0, 0, 0, 0, 0, 0, 0, 0, 0, 0, 0, 0, 0, 0, 25, 34, 32, 28, 0, 0, 0, 0, 0, 0, 0, 0, 28, 0, 0, 0, 0, 0, 0, 0, 0, 0, 0, 0, 0, 0, 0, 0, 24, 33, 35, 35, 34, 28, 0, 0, 0, 0, 0, 0, 0, 0, 0, 0, 0, 0, 25, 35, 35, 35, 35, 35, 35, 34, 28, 0, 0, 0, 0, 0, 0, 0, 0, 0, 0, 0, 0, 0, 0, 0, 24, 28, 0, 0, 0, 0, 0, 0, 0, 0, 0, 0, 0, 0, 0, 0, 0, 0, 0, 0, 0, 0, 0, 0, 0, 0, 0, 0, 0, 24, 32, 32, 28, 0, 0, 0, 0, 0, 0, 0, 0, 0, 0, 0, 0, 0, 24, 33, 35, 37, 35, 35, 34, 28, 0, 0, 0, 0, 0, 0, 0, 0, 0, 0, 0, 0, 0, 0, 0, 0, 0, 0, 0, 0, 0, 0, 0, 0, 0, 0, 0, 0, 0, 0, 0, 0, 0, 0, 0, 0, 0, 0, 0, 0, 0, 0, 0, 0, 0, 0, 0, 0, 0, 0, 0, 0, 0, 0, 0, 0, 0, 0, 0, 0, 0, 0, 0, 24, 32, 32, 32, 32, 28, 0, 0, 0, 0, 0, 0, 0, 0, 0, 0, 0, 0, 0, 0, 0, 0, 0, 0, 0, 0, 0, 0, 0, 0, 0, 0, 0, 0, 0, 0, 0, 0, 0, 0, 0, 0, 0, 0, 0, 0, 0, 0, 0, 0, 0, 0, 0, 0, 0, 0, 0, 0, 0, 0, 0, 0, 0, 0, 0, 0, 0, 0, 0, 0, 0, 0, 0, 0, 0, 0, 0, 0, 0, 0, 0, 0, 0, 0, 0, 0, 0, 0, 0, 0, 0, 0, 0, 0, 0, 0, 0, 0, 0, 0, 0, 0, 0, 0, 0, 0, 0, 0, 0, 0, 0, 0, 0, 0, 0, 0, 0, 0, 0, 0, 0, 0, 0, 0, 0, 0, 0, 0, 0, 0, 0, 0, 0, 0, 0, 0, 0, 0, 0, 0, 0, 0, 0, 0, 0, 0, 0, 0, 0, 0, 0, 0, 0, 0, 0, 0, 0, 0, 0, 0, 0, 0, 0, 0, 0, 0, 0, 0, 0, 0, 0, 0, 0, 0, 0, 0, 0, 0, 0, 0, 0, 0, 0, 0, 0, 0, 0, 0, 0, 0, 0, 0, 0, 0, 0, 0, 0, 0, 0, 0, 0, 0, 0, 0, 0, 0, 0, 0, 0, 0, 0, 0, 0, 0, 0, 0, 0, 0, 0, 0, 0, 0, 0, 0, 0, 0, 0, 0, 0, 0, 0, 0, 0, 0, 0, 0, 0, 0, 0, 0, 0, 0, 0, 0, 0, 0, 0, 0, 0, 0, 0, 0, 0, 0, 0, 0, 0, 0, 0, 0, 0, 0, 0, 0, 0, 0, 0, 0, 0, 0, 0, 0, 0, 0, 0, 0, 0, 0, 0, 0, 0, 0, 0, 0, 0, 0, 0, 0, 0, 0, 0, 0, 0, 0, 0, 0, 0, 0, 0, 0, 0, 0, 0, 0, 0, 0, 0, 0, 0, 0, 0, 0, 0, 0, 0, 0, 0, 0, 0, 0, 0, 0, 0, 0, 0, 0, 0, 0, 0, 0, 0, 0, 0, 0, 0, 0, 0, 0, 0, 0, 0, 0, 0, 0, 0, 0, 0, 0, 0, 0, 0, 0, 0, 0, 0, 0, 0, 0, 0, 0, 0, 0, 0, 0, 0, 0, 0, 0, 0, 0, 0, 0, 0, 0, 0, 0, 0, 0, 0, 0, 0, 0, 0, 0, 0, 0, 0, 0, 0, 0, 0, 0, 0, 0, 0, 0, 0, 0, 0, 0, 0, 0, 0, 0, 0, 0, 0, 0, 0, 0, 0, 0, 0, 0, 0, 0, 0, 0, 0, 0, 0, 0, 0, 0, 0, 0, 0, 0, 0, 0, 0, 0, 0, 0, 0, 0, 0, 0, 0, 0, 0, 0, 0, 0, 0, 0, 0, 0, 0, 0, 0, 0, 0, 0, 0, 0, 0, 0, 0, 0, 0, 0, 0, 0, 0, 0, 0, 0, 0, 0, 0, 0, 0, 0, 0, 0, 0, 0, 0, 0, 0, 0, 0, 0, 0, 0, 0, 0, 0, 0, 0, 0, 0, 0, 0, 0, 0, 0, 0, 0, 0, 0, 0, 0, 0, 0, 0, 0, 0, 0, 0, 0, 0, 0, 0, 0, 0, 0, 0, 0, 0, 0, 0, 0, 0, 0, 0, 0, 0, 0, 0, 0, 0, 0, 0, 0, 0, 0, 0, 0, 0, 0, 0, 21, 22, 0, 0, 0, 0, 0, 0, 0, 0, 0, 0, 0, 0, 0, 0, 0, 0, 0, 0, 0, 0, 0, 0, 0, 0, 0, 0, 0, 0, 0, 0, 0, 0, 0, 0, 0, 0, 0, 0, 0, 0, 0, 0, 0, 0, 0, 0, 0, 0, 0, 0, 0, 0, 0, 0, 0, 0, 0, 0, 0, 0, 0, 0, 0, 0, 0, 0, 21, 23, 27, 31, 22, 0, 0, 0, 0, 0, 0, 0, 0, 0, 0, 0, 0, 0, 0, 0, 0, 0, 0, 0, 0, 0, 0, 0, 0, 0, 0, 0, 0, 0, 0, 0, 0, 0, 0, 0, 0, 0, 0, 0, 0, 0, 0, 0, 0, 0, 0, 0, 0, 0, 0, 0, 0, 0, 0, 0, 0, 0, 0, 0, 0, 0, 0, 0, 0, 21, 27, 35, 35, 35, 31, 22, 0, 0, 0, 0, 0, 0, 0, 0, 0, 0, 0, 0, 0, 0, 0, 0, 0, 0, 0, 0, 0, 0, 0, 0, 0, 0, 0, 0, 0, 0, 0, 0, 0, 0, 0, 21, 23, 23, 23, 22, 0, 0, 0, 0, 0, 0, 0, 0, 0, 0, 0, 0, 0, 0, 0, 0, 0, 0, 0, 0, 0, 0, 21, 27, 37, 35, 35, 35, 36, 31, 22, 0, 0, 0, 0, 0, 0, 0, 0, 0, 0, 0, 0, 0, 0, 0, 0, 0, 0, 0, 0, 0, 0, 0, 0, 0, 0, 0, 0, 0, 0, 0, 0, 0, 21, 27, 36, 36, 35, 31, 22, 0, 0, 0, 0, 0, 0, 0, 22, 0, 0, 0, 0, 0, 0, 0, 0, 0, 0, 0, 0, 21, 27, 35, 35, 38, 35, 35, 35, 35, 30, 0, 0, 0, 0, 0, 0, 0, 0, 0, 0, 0, 0, 0, 21, 23, 23, 23, 22, 0, 0, 0, 0, 0, 0, 0, 0, 0, 0, 0, 0, 0, 0, 21, 27, 35, 35, 35, 35, 35, 31, 22, 0, 0, 0, 0, 0, 0, 31, 22, 0, 0, 0, 0, 0, 0, 0, 0, 0, 0, 0, 25, 35, 35, 35, 35, 38, 35, 35, 35, 31, 22, 0, 0, 0, 0, 0, 0, 0, 0, 0, 0, 0, 0, 25, 35, 36, 35, 30, 0, 0, 0, 0, 0, 0, 0, 0, 0, 0, 0, 0, 0, 21, 27, 35, 37, 35, 35, 35, 35, 35, 31, 22, 0, 0, 0, 0, 0, 37, 31, 22, 0, 0, 0, 0, 0, 0, 0, 0, 0, 21, 27, 36, 35, 35, 35, 35, 35, 35, 35, 38, 30, 0, 0, 0, 0, 0, 0, 0, 0, 0, 0, 0, 0, 25, 35, 35, 38, 31, 22, 0, 0, 0, 0, 0, 0, 0, 0, 0, 0, 0, 0, 25, 37, 35, 35, 38, 35, 35, 37, 35, 35, 30, 0, 0, 0, 0, 0, 35, 35, 30, 0, 0, 0, 0, 0, 0, 0, 0, 0, 25, 35, 35, 35, 35, 35, 35, 35, 35, 36, 35, 30, 0, 0, 0, 0, 0, 0, 0, 0, 0, 0, 0, 0, 25, 36, 37, 35, 35, 31, 22, 0, 0, 0, 0, 0, 0, 0, 0, 0, 0, 21, 27, 37, 35, 37, 35, 35, 35, 35, 35, 35, 30, 0, 0, 0, 0, 0, 35, 35, 31, 22, 0, 0, 0, 0, 0, 0, 0, 0, 25, 35, 35, 37, 38, 37, 35, 37, 36, 36, 35, 30, 0, 0, 0, 0, 0, 0, 0, 0, 0, 0, 0, 0, 25, 36, 36, 35, 35, 35, 30, 0, 0, 0, 0, 0, 0, 0, 0, 0, 0, 25, 37, 35, 35, 35, 37, 35, 35, 35, 36, 37, 30, 0, 0, 0, 0, 0]}, {"id": 3, "name": "vega de la villa", "type": "tilelayer", "x": 0, "y": 0, "width": 70, "height": 45, "opacity": 1, "visible": true, "data": [0, 0, 0, 0, 0, 0, 0, 0, 0, 0, 0, 0, 0, 0, 0, 0, 0, 0, 0, 0, 0, 0, 0, 0, 0, 0, 0, 0, 0, 0, 0, 0, 0, 0, 0, 0, 0, 0, 0, 0, 0, 0, 0, 0, 0, 0, 0, 0, 0, 0, 0, 0, 0, 0, 0, 0, 0, 0, 0, 0, 0, 0, 0, 0, 0, 0, 0, 0, 0, 0, 0, 0, 0, 0, 0, 0, 0, 0, 0, 0, 0, 0, 0, 0, 0, 0, 0, 0, 0, 0, 0, 0, 0, 0, 0, 0, 0, 0, 0, 0, 0, 0, 0, 0, 0, 0, 0, 0, 0, 0, 0, 0, 0, 0, 0, 0, 0, 0, 0, 0, 0, 0, 0, 0, 0, 0, 0, 0, 0, 0, 0, 0, 0, 0, 0, 0, 0, 0, 0, 0, 0, 0, 0, 0, 0, 0, 0, 0, 0, 0, 0, 0, 0, 0, 0, 0, 0, 0, 0, 0, 0, 0, 0, 0, 0, 0, 40, 42, 42, 42, 42, 42, 42, 42, 41, 0, 0, 0, 0, 0, 0, 0, 0, 0, 0, 0, 0, 0, 0, 0, 0, 0, 0, 0, 0, 0, 0, 0, 0, 0, 0, 0, 0, 0, 0, 0, 0, 0, 0, 0, 0, 0, 0, 0, 0, 0, 0, 0, 0, 0, 0, 0, 0, 0, 0, 0, 0, 0, 0, 0, 0, 0, 0, 0, 40, 42, 46, 54, 54, 54, 54, 57, 54, 54, 50, 41, 0, 0, 0, 0, 0, 0, 0, 0, 0, 0, 0, 0, 0, 0, 0, 0, 0, 0, 0, 0, 0, 0, 0, 0, 0, 0, 0, 0, 0, 0, 0, 0, 0, 0, 0, 0, 0, 0, 0, 0, 0, 0, 0, 0, 0, 0, 0, 0, 0, 0, 0, 0, 0, 0, 0, 0, 0, 40, 46, 54, 54, 54, 54, 54, 56, 57, 54, 54, 54, 50, 42, 41, 0, 0, 0, 0, 0, 0, 0, 0, 0, 0, 0, 0, 0, 0, 0, 0, 0, 0, 0, 0, 0, 0, 0, 0, 0, 0, 0, 0, 0, 0, 0, 0, 0, 0, 0, 0, 0, 0, 0, 0, 0, 0, 0, 0, 0, 0, 0, 0, 0, 0, 0, 0, 0, 0, 40, 46, 57, 54, 54, 56, 54, 54, 54, 57, 55, 54, 54, 56, 54, 49, 0, 0, 0, 0, 0, 0, 0, 0, 0, 0, 0, 0, 0, 0, 0, 0, 0, 0, 0, 0, 0, 0, 0, 0, 0, 0, 0, 0, 0, 0, 0, 0, 0, 0, 0, 0, 0, 0, 0, 0, 0, 0, 0, 0, 0, 0, 0, 0, 0, 0, 0, 0, 0, 40, 46, 54, 54, 54, 55, 55, 56, 54, 54, 54, 57, 54, 54, 54, 54, 50, 41, 0, 0, 0, 0, 0, 0, 0, 0, 0, 0, 0, 0, 0, 0, 0, 0, 0, 0, 0, 0, 0, 0, 0, 0, 0, 0, 0, 0, 0, 0, 0, 0, 0, 0, 0, 0, 0, 0, 0, 0, 0, 0, 0, 0, 0, 0, 0, 0, 0, 0, 0, 0, 44, 54, 54, 55, 55, 54, 54, 57, 54, 54, 54, 54, 54, 54, 57, 54, 56, 49, 0, 0, 0, 0, 0, 0, 0, 0, 0, 0, 0, 0, 0, 0, 0, 0, 0, 0, 0, 0, 0, 0, 0, 0, 0, 0, 0, 0, 0, 0, 0, 0, 0, 0, 0, 0, 0, 0, 0, 0, 0, 0, 0, 0, 0, 0, 0, 0, 0, 0, 0, 0, 44, 57, 54, 54, 54, 56, 54, 55, 54, 54, 54, 54, 54, 54, 54, 54, 54, 49, 0, 0, 0, 0, 0, 0, 0, 0, 0, 0, 0, 0, 0, 0, 0, 0, 0, 0, 0, 0, 0, 0, 0, 0, 0, 0, 0, 0, 0, 0, 0, 0, 0, 0, 0, 0, 0, 0, 0, 0, 0, 0, 0, 0, 0, 0, 0, 0, 0, 0, 0, 0, 44, 57, 54, 57, 57, 54, 54, 54, 54, 54, 55, 55, 57, 57, 54, 57, 57, 49, 0, 0, 0, 0, 0, 0, 0, 0, 0, 0, 0, 0, 0, 0, 0, 0, 0, 0, 0, 0, 0, 0, 0, 0, 0, 0, 0, 0, 0, 0, 0, 0, 0, 0, 0, 0, 0, 0, 0, 0, 0, 0, 0, 0, 0, 0, 0, 0, 0, 0, 0, 0, 44, 55, 54, 54, 54, 54, 56, 56, 55, 57, 54, 54, 54, 55, 57, 54, 55, 49, 0, 0, 0, 0, 0, 0, 0, 0, 0, 0, 0, 0, 0, 0, 0, 0, 0, 0, 0, 0, 0, 0, 0, 0, 0, 0, 0, 0, 0, 0, 0, 0, 0, 0, 0, 0, 0, 0, 0, 0, 0, 0, 0, 0, 0, 0, 0, 0, 0, 0, 0, 0, 43, 52, 54, 54, 54, 55, 55, 55, 54, 54, 57, 57, 54, 54, 57, 54, 55, 49, 0, 0, 0, 0, 0, 0, 0, 0, 0, 0, 0, 0, 0, 0, 0, 0, 0, 0, 0, 0, 0, 0, 0, 0, 0, 0, 0, 0, 0, 0, 0, 0, 0, 0, 0, 0, 0, 0, 0, 0, 0, 0, 0, 0, 0, 0, 0, 0, 0, 0, 0, 0, 0, 44, 55, 55, 57, 54, 54, 54, 54, 54, 54, 54, 54, 56, 54, 54, 53, 47, 0, 0, 0, 0, 0, 0, 0, 0, 0, 0, 0, 0, 0, 0, 0, 0, 0, 0, 0, 0, 0, 0, 0, 0, 0, 0, 0, 0, 0, 0, 0, 0, 0, 0, 0, 0, 0, 0, 0, 0, 0, 0, 0, 0, 0, 0, 0, 0, 0, 0, 0, 0, 0, 43, 51, 52, 54, 56, 54, 54, 54, 54, 54, 54, 54, 57, 54, 53, 47, 0, 0, 0, 0, 0, 0, 0, 0, 0, 0, 0, 0, 0, 0, 0, 0, 0, 0, 0, 0, 0, 0, 0, 0, 0, 0, 0, 0, 0, 0, 0, 0, 0, 0, 0, 0, 0, 0, 0, 0, 0, 0, 0, 0, 0, 0, 0, 0, 0, 0, 0, 0, 0, 0, 0, 0, 43, 52, 54, 54, 56, 56, 56, 57, 54, 54, 54, 53, 47, 0, 0, 0, 0, 0, 0, 0, 0, 0, 0, 0, 0, 0, 0, 0, 0, 0, 0, 0, 0, 0, 0, 0, 0, 0, 0, 0, 0, 0, 0, 0, 0, 0, 0, 0, 0, 0, 0, 0, 0, 0, 0, 0, 0, 0, 0, 0, 0, 0, 0, 0, 0, 0, 0, 0, 0, 0, 0, 43, 51, 51, 52, 54, 54, 56, 54, 53, 51, 47, 0, 0, 0, 0, 0, 0, 0, 0, 0, 0, 0, 0, 0, 0, 0, 0, 0, 0, 0, 0, 0, 0, 0, 0, 0, 0, 0, 0, 0, 0, 0, 0, 0, 0, 0, 0, 0, 0, 0, 0, 0, 0, 0, 0, 0, 0, 0, 0, 0, 0, 0, 0, 0, 0, 0, 0, 0, 0, 0, 0, 0, 0, 43, 51, 51, 51, 51, 47, 0, 0, 0, 0, 0, 0, 0, 0, 0, 0, 0, 0, 0, 0, 0, 0, 0, 0, 0, 0, 0, 0, 0, 0, 0, 0, 0, 0, 0, 0, 0, 0, 0, 0, 0, 0, 0, 0, 0, 0, 0, 0, 0, 0, 0, 0, 0, 0, 0, 0, 0, 0, 0, 0, 0, 0, 0, 0, 0, 0, 0, 0, 0, 0, 0, 0, 0, 0, 0, 0, 0, 0, 0, 0, 0, 0, 0, 0, 0, 0, 0, 0, 0, 0, 0, 0, 0, 0, 0, 0, 0, 0, 0, 0, 0, 0, 0, 0, 0, 0, 0, 0, 0, 0, 0, 0, 0, 0, 0, 0, 0, 0, 0, 0, 0, 0, 0, 0, 0, 0, 0, 0, 0, 0, 0, 0, 0, 0, 0, 0, 0, 0, 0, 0, 0, 0, 0, 0, 0, 0, 0, 0, 0, 0, 0, 0, 0, 0, 0, 0, 0, 0, 0, 0, 0, 0, 0, 0, 0, 0, 0, 0, 0, 0, 0, 0, 0, 0, 0, 0, 0, 0, 0, 0, 0, 0, 0, 0, 0, 0, 0, 0, 0, 0, 0, 0, 0, 0, 0, 0, 0, 0, 0, 0, 0, 0, 0, 0, 0, 0, 0, 0, 0, 0, 0, 0, 0, 0, 0, 0, 0, 0, 0, 0, 0, 0, 0, 0, 0, 0, 0, 0, 0, 0, 0, 0, 0, 0, 0, 0, 0, 0, 0, 0, 0, 0, 0, 0, 0, 0, 0, 0, 0, 0, 0, 0, 0, 0, 0, 0, 0, 0, 0, 0, 0, 0, 0, 0, 0, 0, 0, 0, 0, 0, 0, 0, 0, 0, 0, 0, 0, 0, 0, 0, 0, 0, 0, 0, 0, 0, 0, 0, 0, 0, 0, 0, 0, 0, 0, 0, 0, 0, 0, 0, 0, 0, 0, 0, 0, 0, 0, 0, 0, 0, 0, 0, 0, 0, 0, 0, 0, 0, 0, 0, 0, 0, 0, 0, 0, 0, 0, 0, 0, 0, 0, 0, 0, 0, 0, 0, 0, 0, 0, 0, 0, 0, 0, 0, 0, 0, 0, 0, 0, 0, 0, 0, 0, 0, 0, 0, 0, 0, 0, 0, 0, 0, 0, 0, 0, 0, 0, 0, 0, 0, 0, 0, 0, 0, 0, 0, 0, 0, 0, 0, 0, 0, 0, 0, 0, 0, 0, 0, 0, 0, 0, 0, 0, 0, 0, 0, 0, 0, 0, 0, 0, 0, 0, 0, 0, 0, 0, 0, 0, 0, 0, 0, 0, 0, 0, 0, 0, 0, 0, 0, 0, 0, 0, 0, 0, 0, 0, 0, 0, 0, 0, 0, 0, 0, 0, 0, 0, 0, 0, 0, 0, 0, 0, 0, 0, 0, 0, 0, 0, 0, 0, 0, 0, 0, 0, 0, 0, 0, 0, 0, 0, 0, 0, 0, 0, 0, 0, 0, 0, 0, 0, 0, 0, 0, 0, 0, 0, 0, 0, 0, 0, 0, 0, 0, 0, 0, 0, 0, 0, 0, 0, 0, 0, 0, 0, 0, 0, 0, 0, 0, 0, 0, 0, 0, 0, 0, 0, 0, 0, 0, 0, 0, 0, 0, 0, 0, 0, 0, 0, 0, 0, 0, 0, 0, 0, 0, 0, 0, 0, 0, 0, 0, 0, 0, 0, 0, 0, 0, 0, 0, 0, 0, 0, 0, 0, 0, 0, 0, 0, 0, 0, 0, 0, 0, 0, 0, 0, 0, 0, 0, 0, 0, 0, 0, 0, 0, 0, 0, 0, 0, 0, 0, 0, 0, 0, 0, 0, 0, 0, 0, 0, 0, 0, 0, 0, 0, 0, 0, 0, 0, 0, 0, 0, 0, 0, 0, 0, 0, 0, 0, 0, 0, 0, 0, 0, 0, 0, 0, 0, 0, 0, 0, 0, 0, 0, 0, 0, 0, 0, 0, 0, 0, 0, 0, 0, 0, 0, 0, 0, 0, 0, 0, 0, 0, 0, 0, 0, 0, 0, 0, 0, 0, 0, 0, 0, 0, 0, 0, 0, 0, 0, 0, 0, 0, 0, 0, 0, 0, 0, 0, 0, 0, 0, 0, 0, 0, 0, 0, 0, 0, 0, 0, 0, 0, 0, 0, 0, 0, 0, 0, 0, 0, 0, 0, 0, 0, 0, 0, 0, 0, 0, 0, 0, 0, 0, 0, 0, 0, 0, 0, 0, 0, 0, 0, 0, 0, 0, 0, 0, 0, 0, 0, 0, 0, 0, 0, 0, 0, 0, 0, 0, 0, 0, 0, 0, 0, 0, 0, 0, 0, 0, 0, 0, 0, 0, 0, 0, 0, 0, 0, 0, 0, 0, 0, 0, 0, 0, 0, 0, 0, 0, 0, 0, 0, 0, 0, 0, 0, 0, 0, 0, 0, 0, 0, 0, 0, 0, 0, 0, 0, 0, 0, 0, 0, 0, 0, 0, 0, 0, 0, 0, 0, 0, 0, 0, 0, 0, 0, 0, 0, 0, 0, 0, 0, 0, 0, 0, 0, 0, 0, 0, 0, 0, 0, 0, 0, 0, 0, 0, 0, 0, 0, 0, 0, 0, 0, 0, 0, 0, 0, 0, 0, 0, 0, 0, 0, 0, 0, 0, 0, 0, 0, 0, 0, 0, 0, 0, 0, 0, 0, 0, 0, 0, 0, 0, 0, 0, 0, 0, 0, 0, 0, 0, 0, 0, 0, 0, 0, 0, 0, 0, 0, 0, 0, 0, 0, 0, 0, 0, 0, 0, 0, 0, 0, 0, 0, 0, 0, 0, 0, 0, 0, 0, 0, 0, 0, 0, 0, 0, 0, 0, 0, 0, 0, 0, 0, 0, 0, 0, 0, 0, 0, 0, 0, 0, 0, 0, 0, 0, 0, 0, 0, 0, 0, 0, 0, 0, 0, 0, 0, 0, 0, 0, 0, 0, 0, 0, 0, 0, 0, 0, 0, 0, 0, 0, 0, 0, 0, 0, 0, 0, 0, 0, 0, 0, 0, 0, 0, 0, 0, 0, 0, 0, 0, 0, 0, 0, 0, 0, 0, 0, 0, 0, 0, 0, 0, 0, 0, 0, 0, 0, 0, 0, 0, 0, 0, 0, 0, 0, 0, 0, 0, 0, 0, 0, 0, 0, 0, 0, 0, 0, 0, 0, 0, 0, 0, 0, 0, 0, 0, 0, 0, 0, 0, 0, 0, 0, 0, 0, 0, 0, 0, 0, 0, 0, 0, 0, 0, 0, 0, 0, 0, 0, 0, 0, 0, 0, 0, 0, 0, 0, 0, 0, 0, 0, 0, 0, 0, 0, 0, 0, 0, 0, 0, 0, 0, 0, 0, 0, 0, 0, 0, 0, 0, 0, 0, 0, 0, 0, 0, 0, 0, 0, 0, 0, 0, 0, 0, 0, 0, 0, 0, 0, 0, 0, 0, 0, 0, 0, 0, 0, 0, 0, 0, 0, 0, 0, 0, 0, 0, 0, 0, 0, 0, 0, 0, 0, 0, 0, 0, 0, 0, 0, 0, 0, 0, 0, 0, 0, 0, 0, 0, 0, 0, 0, 0, 0, 0, 0, 0, 0, 0, 0, 0, 0, 0, 0, 0, 0, 0, 0, 0, 0, 0, 0, 0, 0, 0, 0, 0, 0, 0, 0, 0, 0, 0, 0, 0, 0, 0, 0, 0, 0, 0, 0, 0, 0, 0, 0, 0, 0, 0, 0, 0, 0, 0, 0, 0, 0, 0, 0, 0, 0, 0, 0, 0, 0, 0, 0, 0, 0, 0, 0, 0, 0, 0, 0, 0, 0, 0, 0, 0, 0, 0, 0, 0, 0, 0, 0, 0, 0, 0, 0, 0, 0, 0, 0, 0, 0, 0, 0, 0, 0, 0, 0, 0, 0, 0, 0, 0, 0, 0, 0, 0, 0, 0, 0, 0, 0, 0, 0, 0, 0, 0, 0, 0, 0, 0, 0, 0, 0, 0, 0, 0, 0, 0, 0, 0, 0, 0, 0, 0, 0, 0, 0, 0, 0, 0, 0, 0, 0, 0, 0, 0, 0, 0, 0, 0, 0, 0, 0, 0, 0, 0, 0, 0, 0, 0, 0, 0, 0, 0, 0, 0, 0, 0, 0, 0, 0, 0, 0, 0, 0, 0, 0, 0, 0, 0, 0, 0, 0, 0, 0, 0, 0, 0, 0, 0, 0, 0, 0, 0, 0, 0, 0, 0, 0, 0, 0, 0, 0, 0, 0, 0, 0, 0, 0, 0, 0, 0, 0, 0, 0, 0, 0, 0, 0, 0, 0, 0, 0, 0, 0, 0, 0, 0, 0, 0, 0, 0, 0, 0, 0, 0, 0, 0, 0, 0, 0, 0, 0, 0, 0, 0, 0, 0, 0, 0, 0, 0, 0, 0, 0, 0, 0, 0, 0, 0, 0, 0, 0, 0, 0, 0, 0, 0, 0, 0, 0, 0, 0, 0, 0, 0, 0, 0, 0, 0, 0, 0, 0, 0, 0, 0, 0, 0, 0, 0, 0, 0, 0, 0, 0, 0, 0, 0, 0, 0, 0, 0, 0, 0, 0, 0, 0, 0, 0, 0, 0, 0, 0, 0, 0, 0, 0, 0, 0, 0, 0, 0, 0, 0, 0, 0, 0, 0, 0, 0, 0, 0, 0, 0, 0, 0, 0, 0, 0, 0, 0, 0, 0, 0, 0, 0, 0, 0, 0, 0, 0, 0, 0, 0, 0, 0, 0, 0, 0, 0, 0, 0, 0, 0, 0, 0, 0, 0, 0, 0, 0, 0, 0, 0, 0, 0, 0, 0, 0, 0, 0, 0, 0, 0, 0, 0, 0, 0, 0, 0, 0, 0, 0, 0, 0, 0, 0, 0, 0, 0, 0, 0, 0, 0, 0, 0, 0, 0, 0, 0, 0, 0, 0, 0, 0, 0, 0, 0, 0, 0, 0, 0, 0, 0, 0, 0, 0, 0, 0, 0, 0, 0, 0, 0, 0, 0, 0, 0, 0, 0, 0, 0, 0, 0, 0, 0, 0, 0, 0, 0, 0, 0, 0, 0, 0, 0, 0, 0, 0, 0, 0, 0, 0, 0, 0, 0, 0, 0, 0, 0, 0, 0, 0, 0, 0, 0, 0, 0, 0, 0, 0, 0, 0, 0, 0, 0, 0, 0, 0, 0, 0, 0, 0, 0, 0, 0, 0, 0, 0, 0, 0, 0, 0, 0, 0, 0, 0, 0, 0, 0, 0, 0, 0, 0, 0, 0, 0, 0, 0, 0, 0, 0, 0, 0, 0, 0, 0, 0, 0, 0, 0, 0, 0, 0, 0, 0, 0, 0, 0, 0, 0, 0, 0, 0, 0, 0, 0, 0, 0, 0, 0, 0, 0, 0, 0, 0, 0, 0, 0, 0, 0, 0, 0, 0, 0, 0, 0, 0, 0, 0, 0, 0, 0, 0, 0, 0, 0, 0, 0, 0, 0, 0, 0, 0, 0, 0, 0, 0, 0, 0, 0, 0, 0, 0, 0, 0, 0, 0, 0, 0, 0, 0, 0, 0, 0, 0, 0, 0, 0, 0, 0, 0, 0, 0, 0, 0, 0, 0, 0, 0, 0, 0, 0, 0, 0, 0, 0, 0, 0, 0, 0, 0, 0, 0, 0, 0, 0, 0, 0, 0, 0, 0, 0, 0, 0, 0, 0, 0, 0, 0, 0, 0, 0, 0, 0, 0, 0, 0, 0, 0, 0, 0, 0, 0, 0, 0, 0, 0, 0, 0, 0, 0, 0, 0, 0, 0, 0, 0, 0, 0, 0, 0, 0, 0, 0, 0, 0, 0, 0, 0, 0, 0, 0, 0, 0, 0, 0, 0, 0, 0, 0, 0, 0, 0, 0, 0, 0, 0, 0, 0, 0, 0, 0, 0, 0, 0, 0, 0, 0, 0, 0, 0, 0, 0, 0, 0, 0, 0, 0, 0, 0, 0, 0, 0, 0, 0, 0, 0, 0, 0, 0, 0, 0, 0, 0, 0, 0, 0, 0, 0, 0, 0, 0, 0, 0, 0, 0, 0, 0, 0, 0, 0, 0, 0, 0, 0, 0, 0, 0, 0, 0, 0, 0, 0, 0, 0, 0, 0, 0, 0, 0, 0, 0, 0, 0, 0, 0, 0, 0, 0, 0, 0, 0, 0, 0, 0, 0, 0, 0, 0, 0, 0, 0, 0, 0, 0, 0, 0, 0, 0, 0, 0, 0, 0, 0, 0, 0, 0, 0, 0, 0, 0, 0, 0, 0, 0, 0, 0, 0, 0, 0, 0, 0, 0, 0, 0, 0, 0, 0, 0, 0, 0, 0, 0, 0, 0, 0, 0, 0, 0, 0, 0, 0, 0, 0, 0, 0, 0, 0, 0, 0, 0, 0, 0, 0, 0, 0, 0, 0, 0, 0, 0, 0, 0, 0, 0, 0, 0, 0, 0, 0, 0, 0, 0]}, {"id": 4, "name": "camino", "type": "tilelayer", "x": 0, "y": 0, "width": 70, "height": 45, "opacity": 1, "visible": true, "data": [0, 0, 0, 0, 0, 0, 0, 0, 0, 0, 0, 0, 0, 0, 0, 0, 0, 0, 0, 0, 0, 0, 0, 0, 0, 0, 0, 0, 0, 0, 0, 0, 0, 0, 0, 0, 0, 0, 0, 0, 0, 0, 0, 0, 0, 0, 0, 0, 0, 0, 0, 0, 0, 0, 0, 0, 0, 0, 0, 0, 0, 0, 0, 0, 0, 0, 0, 0, 0, 0, 0, 0, 0, 0, 0, 0, 0, 0, 0, 0, 0, 0, 0, 0, 0, 0, 0, 0, 0, 0, 0, 0, 0, 0, 0, 0, 0, 0, 0, 0, 0, 0, 0, 0, 0, 0, 0, 0, 0, 0, 0, 0, 0, 0, 0, 0, 0, 0, 0, 0, 0, 0, 0, 0, 0, 0, 0, 0, 0, 0, 0, 0, 0, 0, 0, 0, 0, 0, 0, 0, 0, 0, 0, 0, 0, 0, 0, 0, 0, 0, 0, 0, 0, 0, 0, 0, 0, 0, 0, 0, 0, 0, 0, 0, 0, 0, 0, 0, 0, 0, 0, 0, 0, 0, 0, 0, 0, 0, 0, 0, 0, 0, 0, 0, 0, 0, 0, 0, 0, 0, 0, 0, 0, 0, 0, 0, 0, 0, 0, 0, 0, 0, 0, 0, 0, 0, 0, 0, 0, 0, 0, 0, 0, 0, 0, 0, 0, 0, 0, 0, 0, 0, 0, 0, 0, 0, 0, 0, 0, 0, 0, 0, 0, 0, 0, 0, 0, 0, 0, 0, 0, 0, 0, 0, 0, 0, 0, 0, 0, 0, 0, 0, 0, 0, 0, 0, 0, 0, 0, 0, 0, 0, 0, 0, 0, 0, 0, 0, 0, 0, 0, 0, 0, 0, 0, 0, 0, 0, 0, 0, 0, 0, 0, 0, 0, 0, 0, 0, 0, 0, 0, 0, 0, 0, 0, 0, 0, 0, 0, 0, 0, 0, 0, 0, 0, 0, 0, 0, 0, 0, 0, 0, 0, 0, 0, 0, 0, 0, 0, 0, 0, 0, 0, 0, 0, 0, 0, 0, 0, 0, 0, 0, 0, 0, 0, 0, 0, 0, 0, 0, 0, 0, 0, 0, 0, 0, 0, 0, 0, 0, 0, 0, 0, 0, 0, 0, 0, 0, 0, 0, 0, 0, 0, 0, 0, 0, 0, 0, 0, 0, 0, 0, 0, 0, 0, 0, 0, 0, 0, 0, 0, 0, 0, 0, 0, 0, 0, 0, 0, 0, 0, 0, 0, 0, 0, 0, 0, 0, 0, 0, 0, 0, 0, 0, 0, 0, 0, 0, 0, 0, 0, 0, 0, 0, 0, 0, 0, 0, 0, 0, 0, 0, 0, 0, 0, 0, 0, 0, 0, 0, 0, 0, 0, 0, 0, 0, 0, 0, 0, 0, 0, 0, 0, 0, 0, 0, 0, 0, 0, 0, 0, 0, 0, 0, 0, 0, 0, 0, 0, 0, 0, 0, 0, 0, 0, 0, 0, 0, 0, 0, 0, 0, 0, 0, 0, 0, 0, 0, 0, 0, 0, 0, 0, 0, 0, 0, 0, 0, 0, 0, 0, 0, 0, 0, 0, 0, 0, 0, 0, 0, 0, 0, 0, 0, 0, 0, 0, 0, 0, 0, 0, 0, 0, 0, 0, 0, 0, 0, 0, 0, 0, 0, 0, 0, 0, 0, 0, 0, 0, 0, 0, 0, 0, 0, 0, 0, 0, 0, 0, 0, 0, 0, 0, 0, 0, 0, 0, 0, 0, 0, 0, 0, 0, 0, 0, 0, 0, 0, 0, 0, 0, 0, 0, 0, 0, 0, 0, 0, 0, 0, 0, 0, 0, 0, 0, 0, 0, 0, 0, 0, 0, 0, 0, 0, 0, 0, 0, 0, 0, 0, 0, 0, 0, 0, 0, 0, 0, 0, 0, 0, 0, 0, 0, 0, 0, 0, 0, 0, 0, 0, 0, 0, 0, 0, 0, 0, 0, 0, 0, 0, 0, 0, 0, 0, 0, 0, 0, 0, 0, 0, 0, 0, 0, 0, 0, 0, 0, 0, 0, 0, 0, 0, 0, 0, 0, 0, 0, 0, 0, 0, 0, 0, 0, 0, 0, 0, 0, 0, 0, 0, 0, 0, 0, 0, 0, 0, 0, 0, 0, 0, 0, 0, 0, 0, 0, 0, 0, 0, 0, 0, 0, 0, 0, 0, 0, 0, 0, 0, 0, 0, 0, 0, 0, 0, 0, 0, 0, 0, 0, 0, 0, 0, 0, 0, 0, 0, 0, 0, 0, 0, 0, 0, 0, 0, 0, 0, 0, 0, 0, 0, 0, 0, 0, 0, 0, 0, 0, 0, 0, 59, 60, 0, 0, 0, 0, 0, 0, 0, 0, 0, 0, 0, 0, 0, 0, 0, 0, 0, 0, 0, 0, 0, 0, 0, 0, 0, 0, 0, 0, 0, 0, 0, 0, 0, 0, 0, 0, 0, 0, 0, 0, 0, 0, 0, 0, 0, 0, 0, 0, 0, 0, 0, 0, 0, 0, 0, 0, 0, 0, 0, 0, 0, 0, 0, 0, 0, 0, 0, 59, 65, 69, 60, 0, 0, 0, 0, 0, 0, 0, 0, 0, 0, 0, 0, 0, 0, 0, 0, 0, 0, 0, 0, 0, 0, 0, 0, 0, 0, 0, 0, 0, 0, 0, 0, 0, 0, 0, 0, 0, 0, 0, 0, 0, 0, 0, 0, 0, 0, 0, 0, 0, 0, 0, 0, 0, 0, 0, 0, 0, 0, 0, 0, 0, 0, 0, 0, 0, 0, 63, 73, 73, 68, 0, 0, 0, 0, 0, 0, 0, 0, 0, 0, 0, 0, 0, 0, 0, 0, 0, 0, 0, 0, 0, 0, 0, 0, 0, 0, 0, 0, 0, 0, 0, 0, 0, 0, 0, 0, 0, 0, 0, 0, 0, 0, 0, 0, 0, 0, 0, 0, 0, 0, 0, 0, 0, 0, 0, 0, 0, 0, 0, 0, 0, 0, 0, 0, 0, 0, 63, 76, 72, 66, 0, 0, 0, 0, 0, 0, 0, 0, 0, 0, 0, 0, 0, 0, 0, 0, 0, 0, 0, 0, 0, 0, 0, 0, 0, 0, 0, 0, 0, 0, 0, 0, 0, 0, 0, 0, 0, 0, 0, 0, 0, 0, 0, 0, 0, 0, 0, 0, 0, 0, 0, 0, 0, 0, 0, 0, 0, 0, 0, 0, 0, 0, 0, 0, 0, 0, 63, 73, 68, 0, 0, 0, 0, 0, 0, 0, 0, 0, 0, 0, 0, 0, 0, 0, 0, 0, 0, 0, 0, 0, 0, 0, 0, 0, 0, 0, 0, 0, 0, 0, 0, 0, 0, 0, 0, 0, 0, 0, 0, 0, 0, 0, 0, 0, 0, 0, 0, 0, 0, 0, 0, 0, 0, 0, 0, 0, 0, 0, 0, 0, 0, 0, 0, 0, 0, 0, 63, 73, 68, 0, 0, 0, 0, 0, 0, 0, 0, 0, 0, 0, 0, 0, 0, 0, 0, 0, 0, 0, 0, 0, 0, 0, 0, 0, 0, 0, 0, 0, 0, 0, 0, 0, 0, 0, 0, 0, 0, 0, 0, 0, 0, 0, 0, 0, 0, 0, 0, 0, 0, 0, 0, 0, 0, 0, 0, 0, 0, 0, 0, 0, 0, 0, 0, 0, 0, 59, 65, 73, 68, 0, 0, 0, 0, 0, 0, 0, 0, 0, 0, 0, 0, 0, 0, 0, 0, 0, 0, 0, 0, 0, 0, 0, 0, 0, 0, 0, 0, 0, 0, 0, 0, 0, 0, 0, 0, 0, 0, 0, 0, 0, 0, 0, 0, 0, 0, 0, 0, 0, 0, 0, 0, 0, 0, 0, 0, 0, 0, 0, 0, 0, 0, 0, 0, 0, 0, 63, 73, 73, 68, 0, 0, 0, 0, 0, 0, 0, 0, 0, 0, 0, 0, 0, 0, 0, 0, 0, 0, 0, 0, 0, 0, 0, 0, 0, 0, 0, 0, 0, 0, 0, 0, 0, 0, 0, 0, 0, 0, 0, 0, 0, 0, 0, 0, 0, 0, 0, 0, 0, 0, 0, 0, 0, 0, 0, 0, 0, 0, 0, 0, 0, 0, 0, 0, 0, 0, 63, 74, 76, 68, 0, 0, 0, 0, 0, 0, 0, 0, 0, 0, 0, 0, 0, 0, 0, 0, 0, 0, 0, 0, 0, 0, 0, 0, 0, 0, 0, 0, 59, 60, 0, 0, 0, 0, 0, 0, 0, 0, 0, 0, 0, 0, 0, 0, 0, 0, 0, 0, 0, 0, 0, 0, 0, 0, 0, 0, 0, 0, 0, 0, 0, 0, 0, 0, 0, 0, 63, 73, 72, 66, 0, 0, 0, 0, 0, 0, 0, 0, 0, 0, 0, 0, 0, 0, 0, 0, 0, 0, 0, 0, 0, 0, 0, 0, 0, 0, 0, 59, 65, 69, 60, 0, 0, 0, 0, 0, 0, 0, 0, 0, 0, 0, 0, 0, 0, 0, 0, 0, 0, 0, 0, 0, 0, 0, 0, 0, 0, 0, 0, 0, 0, 0, 0, 0, 0, 0, 63, 73, 68, 0, 0, 0, 0, 0, 0, 0, 0, 0, 0, 0, 0, 0, 0, 0, 0, 0, 0, 0, 0, 0, 0, 0, 0, 0, 0, 0, 59, 65, 73, 72, 66, 0, 0, 0, 0, 0, 0, 0, 0, 0, 0, 0, 0, 0, 0, 0, 0, 0, 0, 0, 0, 0, 0, 0, 0, 0, 0, 0, 0, 0, 0, 0, 0, 0, 0, 0, 63, 73, 68, 0, 0, 0, 0, 0, 0, 0, 0, 0, 0, 0, 0, 0, 0, 0, 0, 0, 0, 0, 0, 0, 0, 0, 0, 0, 0, 59, 65, 73, 72, 66, 0, 0, 0, 0, 0, 0, 0, 0, 0, 0, 0, 0, 0, 0, 0, 0, 0, 0, 0, 0, 0, 0, 0, 0, 0, 0, 0, 0, 0, 0, 0, 0, 0, 0, 0, 59, 65, 75, 68, 0, 0, 0, 0, 0, 0, 0, 0, 0, 0, 0, 0, 0, 0, 0, 0, 0, 0, 0, 0, 0, 0, 0, 0, 0, 0, 63, 73, 73, 68, 0, 0, 0, 0, 0, 0, 0, 0, 0, 0, 0, 0, 0, 0, 0, 0, 0, 0, 0, 0, 0, 0, 0, 0, 0, 0, 0, 0, 0, 0, 0, 0, 0, 0, 0, 0, 63, 73, 74, 68, 0, 0, 0, 0, 0, 0, 0, 0, 0, 0, 0, 0, 0, 0, 0, 0, 0, 0, 0, 0, 0, 0, 0, 0, 0, 59, 65, 73, 72, 66, 0, 0, 0, 0, 0, 0, 0, 0, 0, 0, 0, 0, 0, 0, 0, 0, 0, 0, 0, 0, 0, 0, 0, 0, 0, 0, 0, 0, 0, 0, 0, 0, 0, 0, 0, 0, 62, 71, 76, 69, 60, 0, 0, 0, 0, 0, 0, 0, 0, 0, 0, 0, 0, 0, 0, 0, 0, 0, 0, 0, 0, 0, 0, 0, 59, 65, 73, 72, 66, 0, 0, 0, 0, 0, 0, 0, 0, 0, 0, 0, 0, 0, 0, 0, 0, 0, 0, 0, 0, 0, 0, 0, 0, 0, 0, 0, 0, 0, 0, 0, 0, 0, 0, 0, 0, 0, 0, 63, 73, 73, 68, 0, 0, 0, 0, 0, 0, 0, 0, 0, 0, 0, 0, 0, 0, 0, 0, 0, 0, 0, 0, 0, 0, 59, 65, 73, 72, 66, 0, 0, 0, 0, 0, 0, 0, 0, 0, 0, 0, 0, 0, 0, 0, 0, 0, 0, 0, 0, 0, 0, 0, 0, 0, 0, 0, 0, 0, 0, 0, 0, 0, 0, 0, 0, 0, 0, 0, 62, 71, 74, 69, 60, 0, 0, 0, 0, 0, 0, 0, 0, 0, 0, 0, 0, 0, 0, 0, 0, 0, 0, 0, 0, 59, 65, 73, 72, 66, 0, 0, 0, 0, 0, 0, 0, 0, 0, 0, 0, 0, 0, 0, 0, 0, 0, 0, 0, 0, 0, 0, 0, 0, 0, 0, 0, 0, 0, 0, 0, 0, 0, 0, 0, 0, 0, 0, 0, 0, 0, 62, 71, 75, 69, 60, 0, 0, 0, 0, 0, 0, 0, 0, 0, 0, 0, 0, 0, 0, 0, 0, 0, 0, 0, 63, 73, 75, 68, 0, 0, 0, 0, 0, 0, 0, 0, 0, 0, 0, 0, 0, 0, 0, 0, 0, 0, 0, 0, 0, 0, 0, 0, 0, 0, 0, 0, 0, 0, 0, 0, 0, 0, 0, 0, 0, 0, 0, 0, 0, 0, 0, 62, 71, 75, 68, 0, 0, 0, 0, 0, 0, 0, 0, 0, 0, 0, 0, 0, 0, 0, 0, 0, 0, 59, 65, 75, 72, 66, 0, 0, 0, 0, 0, 0, 0, 0, 0, 0, 0, 0, 0, 0, 0, 0, 0, 0, 0, 0, 0, 0, 0, 0, 0, 0, 0, 0, 0, 0, 0, 0, 0, 0, 0, 0, 0, 0, 0, 0, 0, 0, 0, 0, 63, 75, 69, 60, 0, 0, 0, 0, 0, 0, 0, 0, 0, 0, 0, 0, 59, 61, 61, 61, 61, 65, 73, 72, 66, 0, 0, 0, 0, 0, 0, 0, 0, 0, 0, 0, 0, 0, 0, 0, 0, 0, 0, 0, 0, 0, 0, 0, 0, 0, 0, 0, 0, 0, 0, 0, 0, 0, 0, 0, 0, 0, 0, 0, 0, 0, 0, 0, 0, 0, 62, 71, 74, 69, 60, 0, 0, 0, 0, 0, 0, 0, 59, 61, 61, 61, 65, 75, 73, 73, 74, 73, 72, 66, 0, 0, 0, 0, 0, 0, 0, 0, 0, 0, 0, 0, 0, 0, 0, 0, 0, 0, 0, 0, 0, 0, 0, 0, 0, 0, 0, 0, 0, 0, 0, 0, 0, 0, 0, 0, 0, 0, 0, 0, 0, 0, 0, 0, 0, 0, 0, 62, 71, 73, 69, 60, 0, 0, 59, 61, 61, 61, 65, 75, 73, 75, 75, 74, 72, 70, 70, 70, 66, 0, 0, 0, 0, 0, 0, 0, 0, 0, 0, 0, 0, 0, 0, 0, 0, 0, 0, 0, 0, 0, 0, 0, 0, 0, 0, 0, 0, 0, 0, 0, 0, 0, 0, 0, 0, 0, 0, 0, 0, 0, 0, 0, 0, 0, 0, 0, 0, 0, 63, 76, 73, 69, 61, 61, 65, 73, 73, 73, 73, 76, 72, 70, 70, 70, 66, 0, 0, 0, 0, 0, 0, 0, 0, 0, 0, 0, 0, 0, 0, 0, 0, 0, 0, 0, 0, 0, 0, 0, 0, 0, 0, 0, 0, 0, 0, 0, 0, 0, 0, 0, 0, 0, 0, 0, 0, 0, 0, 0, 0, 0, 0, 0, 0, 0, 0, 0, 0, 0, 62, 71, 73, 73, 73, 74, 73, 76, 72, 70, 70, 70, 66, 0, 0, 0, 0, 0, 0, 0, 0, 0, 0, 0, 0, 0, 0, 0, 0, 0, 0, 0, 0, 0, 0, 0, 0, 0, 0, 0, 0, 0, 0, 0, 0, 0, 0, 0, 0, 0, 0, 0, 0, 0, 0, 0, 0, 0, 0, 0, 0, 0, 0, 0, 0, 0, 0, 0, 0, 0, 0, 63, 73, 73, 72, 70, 70, 70, 66, 0, 0, 0, 0, 0, 0, 0, 0, 0, 0, 0, 0, 0, 0, 0, 0, 0, 0, 0, 0, 0, 0, 0, 0, 0, 0, 0, 0, 0, 0, 0, 0, 0, 0, 0, 0, 0, 0, 0, 0, 0, 0, 0, 0, 0, 0, 0, 0, 0, 0, 0, 0, 0, 0, 0, 0, 0, 0, 0, 0, 0, 0, 63, 76, 73, 68, 0, 0, 0, 0, 0, 0, 0, 0, 0, 0, 0, 0, 0, 0, 0, 0, 0, 0, 0, 0, 0, 0, 0, 0, 0, 0, 0, 0, 0, 0, 0, 0, 0, 0, 0, 0, 0, 0, 0, 0, 0, 0, 0, 0, 0, 0, 0, 0, 0, 0, 0, 0, 0, 0, 0, 0, 0, 0, 0, 0, 0, 0, 0, 0, 0, 0, 63, 73, 74, 68, 0, 0, 0, 0, 0, 0, 0, 0, 0, 0, 0, 0, 0, 0, 0, 0, 0, 0, 0, 0, 0, 0, 0, 0, 0, 0, 0, 0, 0, 0, 0, 0, 0, 0, 0, 0, 0, 0, 0, 0, 0, 0, 0, 0, 0, 0, 0, 0, 0, 0, 0, 0, 0, 0, 0, 0, 0, 0, 0, 0, 0, 0, 0, 0, 0, 0, 63, 74, 73, 68, 0, 0, 0, 0, 0, 0, 0, 0, 0, 0, 0, 0, 0, 0, 0, 0, 0, 0, 0, 0, 0, 0, 0, 0, 0, 0, 0, 0, 0, 0, 0, 0, 0, 0, 0, 0, 0, 0, 0, 0, 0, 0, 0, 0, 0, 0, 0, 0, 0, 0, 0, 0, 0, 0, 0, 0, 0, 0, 0, 0, 0, 0, 0, 0, 0, 0, 63, 76, 73, 68, 0, 0, 0, 0, 0, 0, 0, 0, 0, 0, 0, 0, 0, 0, 0, 0, 0, 0, 0, 0, 0, 0, 0, 0, 0, 0, 0, 0, 0, 0, 0, 0, 0, 0, 0, 0, 0, 0, 0, 0, 0, 0, 0, 0, 0, 0, 0, 0, 0, 0, 0, 0, 0, 0, 0, 0, 0, 0, 0, 0, 0, 0, 0, 0, 0, 0, 63, 73, 73, 68, 0, 0, 0, 0, 0, 0, 0, 0, 0, 0, 0, 0, 0, 0, 0, 0, 0, 0, 0, 0, 0, 0, 0, 0, 0, 0, 0, 0, 0, 0, 0, 0, 0, 0, 0, 0, 0, 0, 0, 0, 0, 0, 0, 0, 0, 0, 0, 0, 0, 0, 0, 0, 0, 0, 0, 0, 0, 0, 0, 0, 0, 0, 0, 0, 0, 0, 63, 73, 75, 68, 0, 0, 0, 0, 0, 0, 0, 0, 0, 0, 0, 0, 0, 0, 0, 0, 0, 0, 0, 0, 0, 0, 0, 0, 0, 0, 0, 0, 0, 0, 0, 0, 0, 0, 0, 0, 0, 0, 0, 0, 0, 0, 0, 0, 0, 0, 0, 0, 0, 0, 0, 0, 0, 0, 0, 0, 0, 0, 0, 0, 0, 0, 0, 0, 0, 0, 63, 76, 73, 68, 0, 0, 0, 0, 0, 0, 0, 0, 0, 0, 0, 0, 0, 0, 0, 0, 0, 0, 0, 0, 0, 0, 0, 0, 0, 0, 0, 0, 0, 0, 0, 0, 0, 0, 0, 0, 0, 0, 0, 0, 0, 0, 0, 0, 0, 0, 0, 0, 0, 0, 0, 0, 0, 0, 0, 0, 0, 0, 0, 0, 0, 0, 0, 0, 0, 0, 63, 73, 75, 68, 0, 0, 0, 0, 0, 0, 0, 0, 0, 0, 0, 0, 0, 0, 0, 0, 0, 0, 0, 0, 0, 0, 0, 0, 0, 0, 0, 0, 0, 0, 0, 0, 0, 0, 0, 0, 0, 0, 0, 0, 0, 0, 0, 0, 0, 0, 0, 0, 0, 0, 0, 0, 0, 0, 0, 0, 0, 0, 0, 0, 0, 0, 0, 0, 0, 0, 63, 73, 76, 68, 0, 0, 0, 0, 0, 0, 0, 0, 0, 0, 0, 0, 0, 0, 0, 0, 0, 0, 0, 0, 0, 0, 0, 0, 0, 0, 0, 0, 0, 0, 0, 0, 0, 0, 0, 0, 0, 0, 0, 0, 0, 0, 0, 0, 0, 0, 0, 0, 0, 0, 0, 0, 0, 0, 0, 0, 0, 0, 0, 0, 0, 0, 0, 0, 0, 0, 63, 73, 73, 68, 0, 0, 0, 0, 0, 0, 0, 0, 0, 0, 0, 0, 0, 0, 0, 0, 0, 0, 0, 0, 0, 0, 0, 0, 0, 0, 0, 0, 0, 0, 0, 0, 0]}, {"id": 5, "name": "Above Player", "type": "tilelayer", "x": 0, "y": 0, "width": 70, "height": 45, "opacity": 1, "visible": true, "data": [0, 0, 0, 0, 0, 0, 0, 0, 0, 0, 0, 0, 0, 0, 0, 0, 0, 0, 0, 0, 0, 0, 0, 0, 0, 0, 0, 0, 0, 0, 0, 0, 0, 0, 0, 0, 0, 0, 0, 0, 0, 0, 0, 0, 0, 0, 0, 0, 0, 0, 0, 0, 0, 0, 0, 0, 0, 0, 0, 0, 0, 0, 0, 0, 0, 0, 0, 0, 0, 0, 0, 0, 0, 0, 0, 0, 0, 0, 0, 0, 0, 0, 0, 0, 0, 0, 0, 0, 0, 0, 0, 0, 0, 0, 0, 0, 0, 0, 0, 0, 0, 0, 0, 0, 0, 0, 0, 0, 0, 0, 0, 0, 0, 0, 0, 0, 0, 0, 0, 0, 0, 0, 0, 0, 0, 0, 0, 0, 0, 0, 0, 0, 0, 0, 0, 0, 0, 0, 0, 0, 0, 0, 0, 0, 0, 0, 0, 0, 0, 0, 0, 0, 0, 0, 0, 0, 0, 0, 0, 0, 0, 0, 0, 0, 0, 0, 0, 0, 0, 0, 0, 0, 0, 0, 0, 0, 0, 0, 0, 0, 0, 0, 0, 0, 0, 0, 0, 0, 0, 0, 0, 0, 0, 0, 0, 0, 0, 0, 0, 0, 0, 0, 0, 0, 0, 0, 0, 0, 0, 0, 0, 0, 0, 0, 0, 0, 0, 0, 0, 0, 0, 0, 0, 0, 0, 0, 0, 0, 0, 0, 0, 0, 0, 0, 0, 0, 0, 0, 0, 0, 0, 0, 0, 0, 0, 0, 0, 0, 0, 0, 0, 0, 0, 0, 0, 0, 0, 0, 0, 0, 0, 0, 0, 0, 0, 0, 0, 0, 0, 0, 0, 0, 0, 0, 0, 0, 0, 0, 0, 0, 0, 0, 0, 0, 0, 0, 0, 0, 0, 0, 0, 0, 0, 0, 0, 0, 0, 0, 0, 0, 0, 0, 0, 0, 0, 0, 0, 0, 0, 0, 0, 0, 0, 0, 0, 0, 0, 0, 0, 0, 0, 0, 0, 0, 0, 0, 0, 0, 0, 0, 0, 0, 0, 0, 0, 0, 0, 0, 0, 0, 0, 0, 0, 0, 0, 0, 0, 0, 0, 0, 0, 0, 0, 0, 0, 0, 0, 0, 0, 0, 0, 0, 0, 0, 0, 0, 0, 0, 0, 0, 0, 0, 0, 0, 0, 0, 0, 0, 0, 0, 0, 0, 0, 0, 0, 0, 0, 0, 0, 0, 0, 0, 0, 0, 0, 0, 0, 0, 0, 0, 0, 0, 0, 0, 0, 0, 0, 0, 0, 0, 0, 0, 0, 0, 0, 0, 0, 0, 0, 0, 0, 0, 0, 0, 0, 0, 0, 0, 0, 0, 0, 0, 0, 0, 0, 0, 0, 0, 0, 0, 0, 0, 0, 0, 0, 0, 0, 0, 0, 0, 0, 0, 0, 0, 0, 0, 0, 0, 0, 0, 0, 0, 0, 0, 0, 0, 0, 0, 0, 0, 0, 0, 0, 0, 0, 0, 0, 0, 0, 0, 0, 0, 0, 0, 0, 0, 0, 0, 0, 0, 0, 0, 0, 0, 0, 0, 0, 0, 0, 0, 0, 0, 0, 0, 0, 0, 0, 0, 0, 0, 0, 0, 0, 0, 0, 0, 0, 0, 0, 0, 0, 0, 0, 0, 0, 0, 0, 0, 0, 0, 0, 0, 0, 0, 0, 0, 0, 0, 0, 0, 0, 0, 0, 0, 0, 0, 0, 0, 0, 0, 0, 0, 0, 0, 0, 0, 0, 0, 0, 0, 0, 0, 0, 0, 0, 0, 0, 0, 0, 0, 0, 0, 0, 0, 0, 0, 0, 0, 0, 0, 0, 0, 0, 0, 0, 0, 0, 0, 0, 0, 0, 0, 0, 0, 0, 0, 0, 0, 0, 0, 0, 0, 0, 0, 0, 0, 0, 0, 0, 0, 0, 0, 0, 0, 0, 0, 0, 0, 0, 0, 0, 0, 0, 0, 0, 0, 0, 0, 0, 0, 0, 0, 0, 0, 0, 0, 0, 0, 0, 0, 0, 0, 0, 0, 0, 0, 0, 0, 0, 0, 0, 0, 0, 0, 0, 0, 0, 0, 0, 0, 0, 0, 0, 0, 0, 0, 0, 0, 0, 0, 0, 0, 0, 0, 0, 0, 0, 0, 0, 0, 0, 0, 0, 0, 0, 0, 0, 0, 0, 0, 0, 0, 0, 0, 0, 0, 0, 0, 0, 0, 0, 0, 0, 0, 0, 0, 0, 0, 0, 0, 0, 0, 0, 0, 0, 0, 0, 0, 0, 0, 0, 0, 0, 0, 0, 0, 0, 0, 0, 0, 0, 0, 0, 0, 0, 0, 0, 0, 0, 0, 0, 0, 0, 0, 0, 0, 0, 0, 0, 0, 0, 0, 0, 0, 0, 0, 0, 0, 0, 0, 0, 0, 0, 0, 0, 0, 0, 0, 0, 0, 0, 0, 0, 0, 0, 0, 0, 0, 0, 0, 0, 0, 0, 0, 0, 0, 0, 0, 0, 0, 0, 0, 0, 0, 0, 0, 0, 0, 0, 0, 0, 0, 0, 0, 0, 0, 0, 0, 0, 0, 0, 0, 0, 0, 0, 0, 0, 0, 0, 0, 0, 0, 0, 0, 0, 0, 0, 0, 0, 0, 0, 0, 0, 0, 0, 0, 0, 0, 0, 0, 0, 0, 0, 0, 0, 0, 0, 0, 0, 0, 0, 0, 0, 0, 0, 0, 0, 0, 0, 0, 0, 0, 0, 0, 0, 0, 0, 0, 0, 0, 0, 0, 0, 0, 0, 0, 0, 0, 0, 0, 0, 0, 0, 0, 0, 0, 0, 0, 0, 0, 0, 0, 0, 0, 0, 0, 0, 0, 0, 0, 0, 0, 0, 0, 0, 0, 0, 0, 0, 0, 0, 0, 0, 0, 0, 0, 0, 0, 0, 0, 0, 0, 0, 0, 0, 0, 0, 0, 0, 0, 0, 0, 0, 0, 0, 0, 0, 0, 0, 0, 0, 0, 0, 0, 0, 0, 0, 0, 0, 0, 0, 0, 0, 0, 0, 0, 0, 0, 0, 0, 0, 0, 0, 0, 0, 0, 0, 0, 0, 0, 0, 0, 0, 0, 0, 0, 0, 0, 0, 0, 0, 0, 0, 0, 0, 0, 0, 0, 0, 0, 0, 0, 0, 0, 0, 0, 0, 0, 0, 0, 0, 0, 0, 0, 0, 0, 0, 0, 0, 0, 0, 0, 0, 0, 0, 0, 0, 0, 0, 0, 0, 0, 0, 0, 0, 0, 0, 0, 0, 0, 0, 0, 0, 0, 0, 0, 0, 0, 0, 0, 0, 0, 0, 0, 0, 0, 0, 0, 0, 0, 0, 0, 0, 0, 0, 0, 0, 0, 0, 0, 0, 0, 0, 0, 0, 0, 0, 0, 0, 0, 0, 0, 0, 0, 0, 0, 0, 0, 0, 0, 0, 0, 0, 0, 0, 0, 0, 0, 0, 0, 0, 0, 0, 0, 0, 0, 0, 0, 0, 0, 0, 0, 0, 0, 0, 0, 0, 0, 0, 0, 0, 0, 0, 0, 0, 0, 0, 0, 0, 0, 0, 0, 0, 0, 0, 0, 0, 0, 0, 0, 0, 0, 0, 0, 0, 0, 0, 0, 0, 0, 0, 0, 0, 0, 0, 0, 0, 0, 0, 0, 0, 0, 0, 0, 0, 0, 0, 0, 0, 0, 0, 0, 0, 0, 0, 0, 0, 0, 0, 0, 0, 0, 0, 0, 0, 0, 0, 0, 0, 0, 0, 0, 0, 0, 0, 0, 0, 0, 0, 0, 0, 0, 0, 0, 0, 0, 0, 0, 0, 0, 0, 0, 0, 0, 0, 0, 0, 0, 0, 0, 0, 0, 0, 0, 0, 0, 0, 0, 0, 0, 0, 0, 0, 0, 0, 0, 0, 0, 0, 0, 0, 0, 0, 0, 0, 0, 0, 0, 0, 0, 0, 0, 0, 0, 0, 0, 0, 0, 0, 0, 0, 0, 0, 0, 0, 0, 0, 0, 0, 0, 0, 0, 0, 0, 0, 0, 0, 0, 0, 0, 0, 0, 0, 0, 0, 0, 0, 0, 0, 0, 0, 0, 0, 0, 0, 0, 0, 0, 0, 0, 0, 0, 0, 0, 0, 0, 0, 0, 0, 0, 0, 0, 0, 0, 0, 0, 0, 0, 0, 0, 0, 0, 0, 0, 0, 0, 0, 0, 0, 0, 0, 0, 0, 0, 0, 0, 0, 0, 0, 0, 0, 0, 0, 0, 0, 0, 0, 0, 0, 0, 0, 0, 0, 0, 0, 0, 0, 0, 0, 0, 0, 0, 0, 0, 0, 0, 0, 0, 0, 0, 0, 0, 0, 0, 0, 0, 0, 0, 0, 0, 0, 0, 0, 0, 0, 0, 0, 0, 0, 0, 0, 0, 0, 0, 0, 0, 0, 0, 0, 0, 0, 0, 0, 0, 0, 0, 0, 0, 0, 0, 0, 0, 0, 0, 0, 0, 0, 0, 0, 0, 0, 0, 0, 0, 0, 0, 0, 0, 0, 0, 0, 0, 0, 0, 0, 0, 0, 0, 0, 0, 0, 0, 0, 0, 0, 0, 0, 0, 0, 0, 0, 0, 0, 0, 0, 0, 0, 0, 0, 0, 0, 0, 0, 0, 0, 0, 0, 0, 0, 0, 0, 0, 0, 0, 0, 0, 0, 0, 0, 0, 0, 0, 0, 0, 0, 0, 0, 0, 0, 0, 0, 0, 0, 0, 0, 0, 0, 0, 0, 0, 0, 0, 0, 0, 0, 0, 0, 0, 0, 0, 0, 0, 0, 0, 0, 0, 0, 0, 0, 0, 0, 0, 0, 0, 0, 0, 0, 0, 0, 0, 0, 0, 0, 0, 0, 0, 0, 0, 0, 0, 0, 0, 0, 0, 0, 0, 0, 0, 0, 0, 0, 0, 0, 0, 0, 0, 0, 0, 0, 0, 0, 0, 0, 0, 0, 0, 0, 0, 0, 0, 0, 0, 0, 0, 0, 0, 0, 0, 0, 0, 0, 0, 0, 0, 0, 0, 0, 0, 0, 0, 0, 0, 0, 0, 0, 0, 0, 0, 0, 0, 0, 0, 0, 0, 0, 0, 0, 0, 0, 0, 0, 0, 0, 0, 0, 0, 0, 0, 0, 0, 0, 0, 0, 0, 0, 0, 0, 0, 0, 0, 0, 0, 0, 0, 0, 0, 0, 0, 0, 0, 0, 0, 0, 0, 0, 0, 0, 0, 0, 0, 0, 0, 0, 0, 0, 0, 0, 0, 0, 0, 0, 0, 0, 0, 0, 0, 0, 0, 0, 0, 0, 0, 0, 0, 0, 0, 0, 0, 0, 0, 0, 0, 0, 0, 0, 0, 0, 0, 0, 0, 0, 0, 0, 0, 0, 0, 0, 0, 0, 0, 0, 0, 0, 0, 0, 0, 0, 0, 0, 0, 0, 0, 0, 0, 0, 0, 0, 0, 0, 0, 0, 0, 0, 0, 0, 0, 0, 0, 0, 0, 0, 0, 0, 0, 0, 0, 0, 0, 0, 0, 0, 0, 0, 0, 0, 0, 0, 0, 0, 0, 0, 0, 0, 0, 0, 0, 0, 0, 0, 0, 0, 0, 0, 0, 0, 0, 0, 0, 0, 0, 0, 0, 0, 0, 0, 0, 0, 0, 0, 0, 0, 0, 0, 0, 0, 0, 0, 0, 0, 0, 0, 0, 0, 0, 0, 0, 0, 0, 0, 0, 0, 0, 0, 0, 0, 0, 0, 0, 0, 0, 0, 0, 0, 0, 0, 0, 0, 0, 0, 0, 0, 0, 0, 0, 0, 0, 0, 0, 0, 0, 0, 0, 0, 0, 0, 0, 0, 0, 0, 0, 0, 0, 0, 0, 0, 0, 0, 0, 0, 0, 0, 0, 0, 0, 0, 0, 0, 0, 0, 0, 0, 0, 0, 0, 0, 0, 0, 0, 0, 0, 0, 0, 0, 0, 0, 0, 0, 0, 0, 0, 0, 0, 0, 0, 0, 0, 0, 0, 0, 0, 0, 0, 0, 0, 0, 0, 0, 0, 0, 0, 0, 0, 0, 0, 0, 0, 0, 0, 0, 0, 0, 0, 0, 0, 0, 0, 0, 0, 0, 0, 0, 0, 0, 0, 0, 0, 0, 0, 0, 0, 0, 0, 0, 0, 0, 0, 0, 0, 0, 0, 0, 0, 0, 0, 0, 0, 0, 0, 0, 0, 0, 0, 0, 0, 0, 0, 0, 0, 0, 0, 0, 0, 0, 0, 0, 0, 0, 0, 0, 0, 0, 0, 0, 0, 0, 0, 0, 0, 0, 0, 0, 0, 0, 0, 0, 0, 0, 0, 0, 0, 0, 0, 0, 0, 0, 0, 0, 0, 0, 0, 0, 0, 0, 0, 0, 0, 0, 0, 0, 0, 0, 0, 0, 0, 0, 0, 0, 0, 0, 0, 0, 0, 0, 0, 0, 0, 0, 0, 0, 0, 0, 0, 0, 0, 0, 0, 0, 0, 0, 0, 0, 0, 0, 0, 0, 0, 0, 0, 0, 0, 0, 0, 0, 0, 0, 0, 0, 0, 0, 0, 0, 0, 0, 0, 0, 0, 0, 0, 0, 0, 0, 0, 0, 0, 0, 0, 0, 0, 0, 0, 0, 0, 0, 0, 0, 0, 0, 0, 0, 0, 0, 0, 0, 0, 0, 0, 0, 0, 0, 0, 0, 0, 0, 0, 0, 0, 0, 0, 0, 0, 0, 0, 0, 0, 0, 0, 0, 0, 0, 0, 0, 0, 0, 0, 0, 0, 0, 0, 0, 0, 0, 0, 0, 0, 0, 0, 0, 0, 0, 0, 0, 0, 0, 0, 0, 0, 0, 0, 0, 0, 0, 0, 0, 0, 0, 0, 0, 0, 0, 0, 0, 0, 0, 0, 0, 0, 0, 0, 0, 0, 0, 0, 0, 0, 0, 0, 0, 0, 0, 0, 0, 0, 0, 0, 0, 0, 0, 0, 0, 0, 0, 0, 0, 0, 0, 0, 0, 0, 0, 0, 0, 0, 0, 0, 0, 0, 0, 0, 0, 0, 0, 0, 0, 0, 0, 0, 0, 0, 0, 0, 0, 0, 0, 0, 0, 0, 0, 0, 0, 0, 0, 0, 0, 0, 0, 0, 0, 0, 0, 0, 0, 0, 0, 0, 0, 0, 0, 0, 0, 0, 0, 0, 0, 0, 0, 0, 0, 0, 0, 0, 0, 0, 0, 0, 0, 0, 0, 0, 0, 0, 0, 0, 0, 0, 0, 0, 0, 0, 0, 0, 0, 0, 0, 0, 0, 0, 0, 0, 0, 0, 0, 0, 0, 0, 0, 0, 0, 0, 0, 0, 0, 0, 0, 0, 0, 0, 0, 0, 0, 0, 0, 0, 0, 0, 0, 0, 0, 0, 0, 0, 0, 0, 0, 0, 0, 0, 0, 0, 0, 0, 0, 0, 0, 0, 0, 0, 0, 0, 0, 0, 0, 0, 0, 0, 0, 0, 0, 0, 0, 0, 0, 0, 0, 0, 0, 0, 0, 0, 0, 0, 0, 0, 0, 0, 0, 0, 0, 0, 0, 0, 0, 0, 0, 0, 0, 0, 0, 0, 0, 0, 0, 0, 0, 0, 0, 0, 0, 0, 0, 0, 0, 0, 0, 0, 0, 0, 0, 0, 0, 0, 0, 0, 0, 0, 0, 0, 0, 0, 0, 0, 0, 0, 0, 0, 0, 0, 0, 0, 0, 0, 0, 0, 0, 0, 0, 0, 0, 0, 0, 0, 0, 0, 0, 0, 0, 0, 0, 0, 0, 0, 0, 0, 0, 0, 0, 0, 0, 0, 0, 0, 0, 0, 0, 0, 0, 0, 0, 0, 0, 0, 0, 0, 0, 0, 0, 0, 0, 0, 0, 0, 0, 0, 0, 0, 0, 0, 0, 0, 0, 0, 0, 0, 0, 0, 0, 0, 0, 0, 0, 0, 0, 0, 0, 0, 0, 0, 0, 0, 0, 0, 0, 0, 0, 0, 0, 0, 0, 0, 0, 0, 0, 0, 0, 0, 0, 0, 0, 0, 0, 0, 0, 0, 0, 0, 0, 0, 0, 0, 0, 0, 0, 0, 0, 0, 0, 0, 0, 0, 0, 0, 0, 0, 0, 0, 0, 0, 0, 0, 0, 0, 0, 0, 0, 0, 0, 0, 0, 0, 0, 0, 0, 0, 0, 0, 0, 0, 0, 0, 0, 0, 0, 0, 0, 0, 0, 0, 0, 0, 0, 0, 0, 0, 0, 0, 0, 0, 0, 0, 0, 0, 0, 0, 0, 0, 0, 0, 0, 0, 0, 0, 0, 0, 0, 0, 0, 0, 0, 0, 0, 0, 0, 0, 0, 0, 0, 0, 0, 0, 0, 0, 0, 0, 0, 0, 0, 0, 0, 0, 0, 0, 0, 0, 0, 0, 0, 0, 0, 0, 0, 0, 0, 0, 0, 0, 0, 0, 0, 0, 0, 0, 0, 0, 0, 0, 0, 0, 0, 0, 0, 0, 0, 0, 0, 0, 0, 0, 0, 0, 0, 0, 0, 0, 0, 0, 0, 0, 0, 0, 0, 0, 0, 0, 0, 0, 0, 0, 0, 0, 0, 0, 0, 0, 0, 0, 0, 0, 0, 0, 0, 0, 0, 0, 0, 0, 0, 0, 0, 0, 0, 0, 0, 0, 0, 0, 0, 0, 0, 0, 0, 0, 0, 0, 0, 0, 0, 0, 0, 0, 0, 0, 0, 0, 0, 0, 0, 0, 0, 0, 0, 0, 0, 0, 0, 0, 0, 0, 0, 0, 0, 0, 0, 0, 0, 0, 0, 0, 0, 0, 0, 0, 0, 0, 0, 0, 0, 0, 0, 0, 0, 0, 0, 0, 0, 0, 0, 0, 0, 0, 0, 0, 0, 0, 0, 0, 0, 0, 0, 0, 0, 0, 0, 0, 0, 0, 0, 0, 0, 0, 0, 0, 0, 0, 0, 0, 0, 0, 0, 0, 0, 0, 0, 0, 0, 0, 0, 0, 0, 0, 0, 0, 0, 0, 0, 0, 0, 0, 0, 0, 0, 0, 0, 0, 0, 0, 0, 0, 0, 0, 0, 0, 0, 0, 0, 0, 0, 0, 0, 0, 0, 0, 0, 0, 0, 0, 0, 0, 0, 0, 0, 0, 0, 0, 0, 0, 0, 0, 0, 0, 0, 0, 0, 0, 0, 0, 0, 0, 0, 0, 0, 0, 0, 0, 0, 0, 0, 0, 0, 0, 0, 0, 0, 0, 0, 0, 0, 0, 0, 0, 0, 0, 0, 0, 0, 0, 0, 0, 0, 0, 0, 0, 0, 0, 0, 0, 0, 0, 0, 0, 0, 0, 0, 0, 0, 0, 0, 0, 0, 0, 0, 0, 0, 0, 0, 0, 0, 0, 0, 0, 0, 0, 0, 0, 0, 0, 0, 0, 0, 0, 0, 0, 0, 0, 0, 0, 0, 0, 0, 0, 0, 0, 0, 0, 0, 0, 0, 0, 0, 0, 0, 0, 0, 0, 0, 0, 0, 0, 0, 0, 0, 0, 0, 0, 0, 0, 0, 0, 0, 0, 0, 0, 0, 0, 0, 0, 0, 0, 0, 0, 0, 0, 0, 0, 0, 0, 0, 0, 0, 0, 0, 0, 0, 0, 0, 0, 0, 0, 0, 0, 0, 0, 0, 0, 0, 0, 0, 0, 0, 0, 0, 0, 0, 0, 0, 0, 0, 0, 0, 0, 0, 0, 0, 0, 0, 0, 0, 0, 0, 0, 0, 0, 0, 0, 0, 0, 0, 0, 0, 0, 0, 0, 0, 0, 0, 0, 0, 0, 0, 0, 0, 0, 0, 0, 0, 0, 0, 0, 0, 0, 0, 0, 0, 0, 0, 0, 0, 0, 0, 0, 0, 0, 0, 0, 0, 0, 0, 0, 0, 0, 0, 0, 0, 0, 0, 0, 0, 0, 0, 0, 0, 0, 0, 0, 0, 0, 0, 0, 0, 0, 0, 0, 0, 0, 0, 0, 0, 0, 0, 0, 0, 0, 0, 0, 0, 0, 0, 0, 0, 0, 0, 0, 0, 0, 0, 0, 0, 0, 0, 0, 0, 0, 0, 0, 0, 0, 0, 0, 0, 0, 0, 0]}, {"id": 6, "name": "Objects", "type": "objectgroup", "x": 0, "y": 0, "opacity": 1, "visible": true, "draworder": "topdown", "objects": [{"id": 1, "name": "Spawn Point", "type": "", "x": 1120, "y": 1376, "width": 0, "height": 0, "rotation": 0, "visible": true, "point": true}, {"id": 2, "name": "quesera", "type": "npc", "x": 1216, "y": 1312, "width": 0, "height": 0, "rotation": 0, "visible": true, "point": true, "properties": [{"name": "sprite", "type": "string", "value": "villagegirl"}]}, {"id": 3, "name": "testigo-dunas", "type": "npc", "x": 1920, "y": 576, "width": 0, "height": 0, "rotation": 0, "visible": true, "point": true, "properties": [{"name": "sprite", "type": "string", "value": "desertnpc"}]}, {"id": 4, "name": "betancuria", "type": "hito", "x": 960, "y": 416, "width": 0, "height": 0, "rotation": 0, "visible": true, "point": true}, {"id": 5, "name": "betancuria", "type": "zona", "x": 960, "y": 96, "width": 0, "height": 0, "rotation": 0, "visible": true, "point": true}, {"id": 6, "name": "casa-canaria", "type": "decor", "x": 768, "y": 224, "width": 0, "height": 0, "rotation": 0, "visible": true, "point": true, "properties": [{"name": "solido", "type": "bool", "value": true}, {"name": "escala", "type": "float", "value": 2.0}]}, {"id": 7, "name": "casa-canaria", "type": "decor", "x": 1152, "y": 224, "width": 0, "height": 0, "rotation": 0, "visible": true, "point": true, "properties": [{"name": "solido", "type": "bool", "value": true}, {"name": "escala", "type": "float", "value": 2.0}]}, {"id": 8, "name": "casa-canaria", "type": "decor", "x": 704, "y": 384, "width": 0, "height": 0, "rotation": 0, "visible": true, "point": true, "properties": [{"name": "solido", "type": "bool", "value": true}, {"name": "escala", "type": "float", "value": 2.0}]}, {"id": 9, "name": "casa-canaria", "type": "decor", "x": 1216, "y": 384, "width": 0, "height": 0, "rotation": 0, "visible": true, "point": true, "properties": [{"name": "solido", "type": "bool", "value": true}, {"name": "escala", "type": "float", "value": 2.0}]}, {"id": 10, "name": "ladron", "type": "enemigo", "x": 832, "y": 576, "width": 0, "height": 0, "rotation": 0, "visible": true, "point": true}, {"id": 11, "name": "ladron", "type": "enemigo", "x": 1152, "y": 544, "width": 0, "height": 0, "rotation": 0, "visible": true, "point": true}, {"id": 12, "name": "ladron", "type": "enemigo", "x": 1408, "y": 288, "width": 0, "height": 0, "rotation": 0, "visible": true, "point": true}, {"id": 13, "name": "culebra", "type": "enemigo", "x": 448, "y": 960, "width": 0, "height": 0, "rotation": 0, "visible": true, "point": true}, {"id": 14, "name": "culebra", "type": "enemigo", "x": 1600, "y": 1216, "width": 0, "height": 0, "rotation": 0, "visible": true, "point": true}, {"id": 15, "name": "culebra", "type": "enemigo", "x": 1856, "y": 256, "width": 0, "height": 0, "rotation": 0, "visible": true, "point": true}, {"id": 16, "name": "palmera", "type": "decor", "x": 1580, "y": 1397, "width": 0, "height": 0, "rotation": 0, "visible": true, "point": true, "properties": [{"name": "solido", "type": "bool", "value": true}]}, {"id": 17, "name": "palmera", "type": "decor", "x": 171, "y": 1048, "width": 0, "height": 0, "rotation": 0, "visible": true, "point": true, "properties": [{"name": "solido", "type": "bool", "value": true}]}, {"id": 18, "name": "palmera", "type": "decor", "x": 612, "y": 1146, "width": 0, "height": 0, "rotation": 0, "visible": true, "point": true, "properties": [{"name": "solido", "type": "bool", "value": true}]}, {"id": 19, "name": "palmera", "type": "decor", "x": 1295, "y": 877, "width": 0, "height": 0, "rotation": 0, "visible": true, "point": true, "properties": [{"name": "solido", "type": "bool", "value": true}]}, {"id": 20, "name": "palmera", "type": "decor", "x": 412, "y": 1294, "width": 0, "height": 0, "rotation": 0, "visible": true, "point": true, "properties": [{"name": "solido", "type": "bool", "value": true}]}, {"id": 21, "name": "palmera", "type": "decor", "x": 178, "y": 138, "width": 0, "height": 0, "rotation": 0, "visible": true, "point": true, "properties": [{"name": "solido", "type": "bool", "value": true}]}, {"id": 22, "name": "palmera", "type": "decor", "x": 549, "y": 271, "width": 0, "height": 0, "rotation": 0, "visible": true, "point": true, "properties": [{"name": "solido", "type": "bool", "value": true}]}, {"id": 23, "name": "palmera", "type": "decor", "x": 2116, "y": 602, "width": 0, "height": 0, "rotation": 0, "visible": true, "point": true, "properties": [{"name": "solido", "type": "bool", "value": true}]}, {"id": 24, "name": "palmera", "type": "decor", "x": 75, "y": 462, "width": 0, "height": 0, "rotation": 0, "visible": true, "point": true, "properties": [{"name": "solido", "type": "bool", "value": true}]}, {"id": 25, "name": "palmera", "type": "decor", "x": 1579, "y": 415, "width": 0, "height": 0, "rotation": 0, "visible": true, "point": true, "properties": [{"name": "solido", "type": "bool", "value": true}]}, {"id": 26, "name": "palmera", "type": "decor", "x": 2136, "y": 848, "width": 0, "height": 0, "rotation": 0, "visible": true, "point": true, "properties": [{"name": "solido", "type": "bool", "value": true}]}, {"id": 27, "name": "palmera", "type": "decor", "x": 1696, "y": 413, "width": 0, "height": 0, "rotation": 0, "visible": true, "point": true, "properties": [{"name": "solido", "type": "bool", "value": true}]}, {"id": 28, "name": "palmera", "type": "decor", "x": 2008, "y": 1193, "width": 0, "height": 0, "rotation": 0, "visible": true, "point": true, "properties": [{"name": "solido", "type": "bool", "value": true}]}, {"id": 29, "name": "palmera", "type": "decor", "x": 1497, "y": 126, "width": 0, "height": 0, "rotation": 0, "visible": true, "point": true, "properties": [{"name": "solido", "type": "bool", "value": true}]}, {"id": 30, "name": "palmera", "type": "decor", "x": 352, "y": 744, "width": 0, "height": 0, "rotation": 0, "visible": true, "point": true, "properties": [{"name": "solido", "type": "bool", "value": true}]}, {"id": 31, "name": "palmera", "type": "decor", "x": 1465, "y": 1162, "width": 0, "height": 0, "rotation": 0, "visible": true, "point": true, "properties": [{"name": "solido", "type": "bool", "value": true}]}, {"id": 32, "name": "palmera", "type": "decor", "x": 666, "y": 914, "width": 0, "height": 0, "rotation": 0, "visible": true, "point": true, "properties": [{"name": "solido", "type": "bool", "value": true}]}, {"id": 33, "name": "palmera", "type": "decor", "x": 1341, "y": 771, "width": 0, "height": 0, "rotation": 0, "visible": true, "point": true, "properties": [{"name": "solido", "type": "bool", "value": true}]}, {"id": 34, "name": "palmera", "type": "decor", "x": 886, "y": 1188, "width": 0, "height": 0, "rotation": 0, "visible": true, "point": true, "properties": [{"name": "solido", "type": "bool", "value": true}]}, {"id": 35, "name": "palmera", "type": "decor", "x": 317, "y": 1085, "width": 0, "height": 0, "rotation": 0, "visible": true, "point": true, "properties": [{"name": "solido", "type": "bool", "value": true}]}, {"id": 36, "name": "palmera", "type": "decor", "x": 1478, "y": 609, "width": 0, "height": 0, "rotation": 0, "visible": true, "point": true, "properties": [{"name": "solido", "type": "bool", "value": true}]}, {"id": 37, "name": "palmera", "type": "decor", "x": 45, "y": 171, "width": 0, "height": 0, "rotation": 0, "visible": true, "point": true, "properties": [{"name": "solido", "type": "bool", "value": true}]}, {"id": 38, "name": "palmera", "type": "decor", "x": 71, "y": 647, "width": 0, "height": 0, "rotation": 0, "visible": true, "point": true, "properties": [{"name": "solido", "type": "bool", "value": true}]}, {"id": 39, "name": "palmera", "type": "decor", "x": 2163, "y": 1234, "width": 0, "height": 0, "rotation": 0, "visible": true, "point": true, "properties": [{"name": "solido", "type": "bool", "value": true}]}, {"id": 40, "name": "palmera", "type": "decor", "x": 253, "y": 262, "width": 0, "height": 0, "rotation": 0, "visible": true, "point": true, "properties": [{"name": "solido", "type": "bool", "value": true}]}, {"id": 41, "name": "palmera", "type": "decor", "x": 525, "y": 543, "width": 0, "height": 0, "rotation": 0, "visible": true, "point": true, "properties": [{"name": "solido", "type": "bool", "value": true}]}, {"id": 42, "name": "palmera", "type": "decor", "x": 1549, "y": 746, "width": 0, "height": 0, "rotation": 0, "visible": true, "point": true, "properties": [{"name": "solido", "type": "bool", "value": true}]}, {"id": 43, "name": "palmera", "type": "decor", "x": 1632, "y": 240, "width": 0, "height": 0, "rotation": 0, "visible": true, "point": true, "properties": [{"name": "solido", "type": "bool", "value": true}]}, {"id": 44, "name": "palmera", "type": "decor", "x": 1383, "y": 542, "width": 0, "height": 0, "rotation": 0, "visible": true, "point": true, "properties": [{"name": "solido", "type": "bool", "value": true}]}, {"id": 45, "name": "palmera", "type": "decor", "x": 386, "y": 555, "width": 0, "height": 0, "rotation": 0, "visible": true, "point": true, "properties": [{"name": "solido", "type": "bool", "value": true}]}, {"id": 46, "name": "roca-malpais", "type": "decor", "x": 583, "y": 823, "width": 0, "height": 0, "rotation": 0, "visible": true, "point": true, "properties": [{"name": "solido", "type": "bool", "value": true}]}, {"id": 47, "name": "roca-malpais", "type": "decor", "x": 554, "y": 1374, "width": 0, "height": 0, "rotation": 0, "visible": true, "point": true, "properties": [{"name": "solido", "type": "bool", "value": true}]}, {"id": 48, "name": "roca-malpais", "type": "decor", "x": 1294, "y": 646, "width": 0, "height": 0, "rotation": 0, "visible": true, "point": true, "properties": [{"name": "solido", "type": "bool", "value": true}]}, {"id": 49, "name": "roca-malpais", "type": "decor", "x": 1866, "y": 1249, "width": 0, "height": 0, "rotation": 0, "visible": true, "point": true, "properties": [{"name": "solido", "type": "bool", "value": true}]}, {"id": 50, "name": "roca-malpais", "type": "decor", "x": 1895, "y": 1388, "width": 0, "height": 0, "rotation": 0, "visible": true, "point": true, "properties": [{"name": "solido", "type": "bool", "value": true}]}, {"id": 51, "name": "roca-malpais", "type": "decor", "x": 561, "y": 758, "width": 0, "height": 0, "rotation": 0, "visible": true, "point": true, "properties": [{"name": "solido", "type": "bool", "value": true}]}, {"id": 52, "name": "roca-malpais", "type": "decor", "x": 1905, "y": 101, "width": 0, "height": 0, "rotation": 0, "visible": true, "point": true, "properties": [{"name": "solido", "type": "bool", "value": true}]}, {"id": 53, "name": "roca-malpais", "type": "decor", "x": 561, "y": 684, "width": 0, "height": 0, "rotation": 0, "visible": true, "point": true, "properties": [{"name": "solido", "type": "bool", "value": true}]}, {"id": 54, "name": "roca-malpais", "type": "decor", "x": 1816, "y": 1386, "width": 0, "height": 0, "rotation": 0, "visible": true, "point": true, "properties": [{"name": "solido", "type": "bool", "value": true}]}, {"id": 55, "name": "roca-malpais", "type": "decor", "x": 629, "y": 740, "width": 0, "height": 0, "rotation": 0, "visible": true, "point": true, "properties": [{"name": "solido", "type": "bool", "value": true}]}, {"id": 56, "name": "roca-malpais", "type": "decor", "x": 1801, "y": 43, "width": 0, "height": 0, "rotation": 0, "visible": true, "point": true, "properties": [{"name": "solido", "type": "bool", "value": true}]}, {"id": 57, "name": "roca-malpais", "type": "decor", "x": 1845, "y": 605, "width": 0, "height": 0, "rotation": 0, "visible": true, "point": true, "properties": [{"name": "solido", "type": "bool", "value": true}]}, {"id": 58, "name": "roca-malpais", "type": "decor", "x": 506, "y": 1284, "width": 0, "height": 0, "rotation": 0, "visible": true, "point": true, "properties": [{"name": "solido", "type": "bool", "value": true}]}, {"id": 59, "name": "roca-malpais", "type": "decor", "x": 1293, "y": 71, "width": 0, "height": 0, "rotation": 0, "visible": true, "point": true, "properties": [{"name": "solido", "type": "bool", "value": true}]}, {"id": 60, "name": "roca-malpais", "type": "decor", "x": 560, "y": 33, "width": 0, "height": 0, "rotation": 0, "visible": true, "point": true, "properties": [{"name": "solido", "type": "bool", "value": true}]}, {"id": 61, "name": "roca-malpais", "type": "decor", "x": 644, "y": 691, "width": 0, "height": 0, "rotation": 0, "visible": true, "point": true, "properties": [{"name": "solido", "type": "bool", "value": true}]}, {"id": 62, "name": "roca-malpais", "type": "decor", "x": 1221, "y": 610, "width": 0, "height": 0, "rotation": 0, "visible": true, "point": true, "properties": [{"name": "solido", "type": "bool", "value": true}]}, {"id": 63, "name": "roca-malpais", "type": "decor", "x": 1235, "y": 806, "width": 0, "height": 0, "rotation": 0, "visible": true, "point": true, "properties": [{"name": "solido", "type": "bool", "value": true}]}, {"id": 64, "name": "roca-malpais", "type": "decor", "x": 1042, "y": 674, "width": 0, "height": 0, "rotation": 0, "visible": true, "point": true, "properties": [{"name": "solido", "type": "bool", "value": true}]}, {"id": 65, "name": "roca-malpais", "type": "decor", "x": 2045, "y": 43, "width": 0, "height": 0, "rotation": 0, "visible": true, "point": true, "properties": [{"name": "solido", "type": "bool", "value": true}]}, {"id": 66, "name": "roca-malpais", "type": "decor", "x": 542, "y": 1244, "width": 0, "height": 0, "rotation": 0, "visible": true, "point": true, "properties": [{"name": "solido", "type": "bool", "value": true}]}, {"id": 67, "name": "roca-malpais", "type": "decor", "x": 1346, "y": 638, "width": 0, "height": 0, "rotation": 0, "visible": true, "point": true, "properties": [{"name": "solido", "type": "bool", "value": true}]}, {"id": 68, "name": "roca-malpais", "type": "decor", "x": 681, "y": 1403, "width": 0, "height": 0, "rotation": 0, "visible": true, "point": true, "properties": [{"name": "solido", "type": "bool", "value": true}]}, {"id": 69, "name": "roca-malpais", "type": "decor", "x": 36, "y": 1386, "width": 0, "height": 0, "rotation": 0, "visible": true, "point": true, "properties": [{"name": "solido", "type": "bool", "value": true}]}, {"id": 70, "name": "roca-malpais", "type": "decor", "x": 609, "y": 1359, "width": 0, "height": 0, "rotation": 0, "visible": true, "point": true, "properties": [{"name": "solido", "type": "bool", "value": true}]}, {"id": 71, "name": "roca-malpais", "type": "decor", "x": 1834, "y": 131, "width": 0, "height": 0, "rotation": 0, "visible": true, "point": true, "properties": [{"name": "solido", "type": "bool", "value": true}]}, {"id": 72, "name": "roca-malpais", "type": "decor", "x": 1948, "y": 1351, "width": 0, "height": 0, "rotation": 0, "visible": true, "point": true, "properties": [{"name": "solido", "type": "bool", "value": true}]}, {"id": 73, "name": "roca-malpais", "type": "decor", "x": 1221, "y": 738, "width": 0, "height": 0, "rotation": 0, "visible": true, "point": true, "properties": [{"name": "solido", "type": "bool", "value": true}]}, {"id": 74, "name": "roca-malpais", "type": "decor", "x": 2000, "y": 1312, "width": 0, "height": 0, "rotation": 0, "visible": true, "point": true, "properties": [{"name": "solido", "type": "bool", "value": true}]}, {"id": 75, "name": "roca-malpais", "type": "decor", "x": 1375, "y": 680, "width": 0, "height": 0, "rotation": 0, "visible": true, "point": true, "properties": [{"name": "solido", "type": "bool", "value": true}]}, {"id": 76, "name": "roca-malpais", "type": "decor", "x": 1715, "y": 1395, "width": 0, "height": 0, "rotation": 0, "visible": true, "point": true, "properties": [{"name": "solido", "type": "bool", "value": true}]}, {"id": 77, "name": "roca-malpais", "type": "decor", "x": 1352, "y": 1404, "width": 0, "height": 0, "rotation": 0, "visible": true, "point": true, "properties": [{"name": "solido", "type": "bool", "value": true}]}, {"id": 78, "name": "roca-malpais", "type": "decor", "x": 1273, "y": 504, "width": 0, "height": 0, "rotation": 0, "visible": true, "point": true, "properties": [{"name": "solido", "type": "bool", "value": true}]}, {"id": 79, "name": "roca-malpais", "type": "decor", "x": 1856, "y": 553, "width": 0, "height": 0, "rotation": 0, "visible": true, "point": true, "properties": [{"name": "solido", "type": "bool", "value": true}]}, {"id": 80, "name": "roca-malpais", "type": "decor", "x": 671, "y": 111, "width": 0, "height": 0, "rotation": 0, "visible": true, "point": true, "properties": [{"name": "solido", "type": "bool", "value": true}]}, {"id": 81, "name": "roca-malpais", "type": "decor", "x": 70, "y": 750, "width": 0, "height": 0, "rotation": 0, "visible": true, "point": true, "properties": [{"name": "solido", "type": "bool", "value": true}]}, {"id": 82, "name": "roca-malpais", "type": "decor", "x": 1273, "y": 580, "width": 0, "height": 0, "rotation": 0, "visible": true, "point": true, "properties": [{"name": "solido", "type": "bool", "value": true}]}, {"id": 83, "name": "roca-malpais", "type": "decor", "x": 1781, "y": 1304, "width": 0, "height": 0, "rotation": 0, "visible": true, "point": true, "properties": [{"name": "solido", "type": "bool", "value": true}]}, {"id": 84, "name": "roca-malpais", "type": "decor", "x": 1144, "y": 891, "width": 0, "height": 0, "rotation": 0, "visible": true, "point": true, "properties": [{"name": "solido", "type": "bool", "value": true}]}, {"id": 85, "name": "roca-malpais", "type": "decor", "x": 675, "y": 641, "width": 0, "height": 0, "rotation": 0, "visible": true, "point": true, "properties": [{"name": "solido", "type": "bool", "value": true}]}, {"id": 86, "name": "roca-malpais", "type": "decor", "x": 697, "y": 1275, "width": 0, "height": 0, "rotation": 0, "visible": true, "point": true, "properties": [{"name": "solido", "type": "bool", "value": true}]}, {"id": 87, "name": "roca-malpais", "type": "decor", "x": 647, "y": 1247, "width": 0, "height": 0, "rotation": 0, "visible": true, "point": true, "properties": [{"name": "solido", "type": "bool", "value": true}]}, {"id": 88, "name": "roca-malpais", "type": "decor", "x": 1247, "y": 48, "width": 0, "height": 0, "rotation": 0, "visible": true, "point": true, "properties": [{"name": "solido", "type": "bool", "value": true}]}, {"id": 89, "name": "roca-malpais", "type": "decor", "x": 1832, "y": 1336, "width": 0, "height": 0, "rotation": 0, "visible": true, "point": true, "properties": [{"name": "solido", "type": "bool", "value": true}]}, {"id": 90, "name": "roca-malpais", "type": "decor", "x": 537, "y": 845, "width": 0, "height": 0, "rotation": 0, "visible": true, "point": true, "properties": [{"name": "solido", "type": "bool", "value": true}]}, {"id": 91, "name": "aguja-ocre", "type": "decor", "x": 1658, "y": 498, "width": 0, "height": 0, "rotation": 0, "visible": true, "point": true, "properties": [{"name": "solido", "type": "bool", "value": true}]}, {"id": 92, "name": "aguja-ocre", "type": "decor", "x": 805, "y": 668, "width": 0, "height": 0, "rotation": 0, "visible": true, "point": true, "properties": [{"name": "solido", "type": "bool", "value": true}]}, {"id": 93, "name": "aguja-ocre", "type": "decor", "x": 743, "y": 571, "width": 0, "height": 0, "rotation": 0, "visible": true, "point": true, "properties": [{"name": "solido", "type": "bool", "value": true}]}, {"id": 94, "name": "aguja-ocre", "type": "decor", "x": 1549, "y": 550, "width": 0, "height": 0, "rotation": 0, "visible": true, "point": true, "properties": [{"name": "solido", "type": "bool", "value": true}]}, {"id": 95, "name": "aguja-ocre", "type": "decor", "x": 844, "y": 1273, "width": 0, "height": 0, "rotation": 0, "visible": true, "point": true, "properties": [{"name": "solido", "type": "bool", "value": true}]}, {"id": 96, "name": "aguja-ocre", "type": "decor", "x": 461, "y": 79, "width": 0, "height": 0, "rotation": 0, "visible": true, "point": true, "properties": [{"name": "solido", "type": "bool", "value": true}]}, {"id": 97, "name": "aguja-ocre", "type": "decor", "x": 418, "y": 1120, "width": 0, "height": 0, "rotation": 0, "visible": true, "point": true, "properties": [{"name": "solido", "type": "bool", "value": true}]}, {"id": 98, "name": "aguja-ocre", "type": "decor", "x": 1972, "y": 261, "width": 0, "height": 0, "rotation": 0, "visible": true, "point": true, "properties": [{"name": "solido", "type": "bool", "value": true}]}, {"id": 99, "name": "aguja-ocre", "type": "decor", "x": 2140, "y": 184, "width": 0, "height": 0, "rotation": 0, "visible": true, "point": true, "properties": [{"name": "solido", "type": "bool", "value": true}]}, {"id": 100, "name": "aguja-ocre", "type": "decor", "x": 749, "y": 836, "width": 0, "height": 0, "rotation": 0, "visible": true, "point": true, "properties": [{"name": "solido", "type": "bool", "value": true}]}, {"id": 101, "name": "aguja-ocre", "type": "decor", "x": 291, "y": 483, "width": 0, "height": 0, "rotation": 0, "visible": true, "point": true, "properties": [{"name": "solido", "type": "bool", "value": true}]}, {"id": 102, "name": "aguja-ocre", "type": "decor", "x": 92, "y": 1117, "width": 0, "height": 0, "rotation": 0, "visible": true, "point": true, "properties": [{"name": "solido", "type": "bool", "value": true}]}, {"id": 103, "name": "aguja-ocre", "type": "decor", "x": 2121, "y": 447, "width": 0, "height": 0, "rotation": 0, "visible": true, "point": true, "properties": [{"name": "solido", "type": "bool", "value": true}]}, {"id": 104, "name": "aguja-ocre", "type": "decor", "x": 1978, "y": 162, "width": 0, "height": 0, "rotation": 0, "visible": true, "point": true, "properties": [{"name": "solido", "type": "bool", "value": true}]}, {"id": 105, "name": "aguja-ocre", "type": "decor", "x": 1924, "y": 1158, "width": 0, "height": 0, "rotation": 0, "visible": true, "point": true, "properties": [{"name": "solido", "type": "bool", "value": true}]}, {"id": 106, "name": "aguja-ocre", "type": "decor", "x": 753, "y": 991, "width": 0, "height": 0, "rotation": 0, "visible": true, "point": true, "properties": [{"name": "solido", "type": "bool", "value": true}]}, {"id": 107, "name": "aguja-ocre", "type": "decor", "x": 2198, "y": 1028, "width": 0, "height": 0, "rotation": 0, "visible": true, "point": true, "properties": [{"name": "solido", "type": "bool", "value": true}]}, {"id": 108, "name": "aguja-ocre", "type": "decor", "x": 2028, "y": 526, "width": 0, "height": 0, "rotation": 0, "visible": true, "point": true, "properties": [{"name": "solido", "type": "bool", "value": true}]}, {"id": 109, "name": "aguja-ocre", "type": "decor", "x": 1121, "y": 605, "width": 0, "height": 0, "rotation": 0, "visible": true, "point": true, "properties": [{"name": "solido", "type": "bool", "value": true}]}, {"id": 110, "name": "aguja-ocre", "type": "decor", "x": 261, "y": 727, "width": 0, "height": 0, "rotation": 0, "visible": true, "point": true, "properties": [{"name": "solido", "type": "bool", "value": true}]}, {"id": 111, "name": "aguja-ocre", "type": "decor", "x": 724, "y": 454, "width": 0, "height": 0, "rotation": 0, "visible": true, "point": true, "properties": [{"name": "solido", "type": "bool", "value": true}]}, {"id": 112, "name": "aguja-ocre", "type": "decor", "x": 346, "y": 203, "width": 0, "height": 0, "rotation": 0, "visible": true, "point": true, "properties": [{"name": "solido", "type": "bool", "value": true}]}, {"id": 113, "name": "aguja-ocre", "type": "decor", "x": 1406, "y": 427, "width": 0, "height": 0, "rotation": 0, "visible": true, "point": true, "properties": [{"name": "solido", "type": "bool", "value": true}]}, {"id": 114, "name": "aguja-ocre", "type": "decor", "x": 128, "y": 42, "width": 0, "height": 0, "rotation": 0, "visible": true, "point": true, "properties": [{"name": "solido", "type": "bool", "value": true}]}, {"id": 115, "name": "aguja-ocre", "type": "decor", "x": 185, "y": 923, "width": 0, "height": 0, "rotation": 0, "visible": true, "point": true, "properties": [{"name": "solido", "type": "bool", "value": true}]}, {"id": 116, "name": "arbusto", "type": "decor", "x": 1457, "y": 880, "width": 0, "height": 0, "rotation": 0, "visible": true, "point": true}, {"id": 117, "name": "arbusto", "type": "decor", "x": 1395, "y": 1220, "width": 0, "height": 0, "rotation": 0, "visible": true, "point": true}, {"id": 118, "name": "arbusto", "type": "decor", "x": 391, "y": 944, "width": 0, "height": 0, "rotation": 0, "visible": true, "point": true}, {"id": 119, "name": "arbusto", "type": "decor", "x": 1945, "y": 487, "width": 0, "height": 0, "rotation": 0, "visible": true, "point": true}, {"id": 120, "name": "arbusto", "type": "decor", "x": 2084, "y": 1370, "width": 0, "height": 0, "rotation": 0, "visible": true, "point": true}, {"id": 121, "name": "arbusto", "type": "decor", "x": 1233, "y": 952, "width": 0, "height": 0, "rotation": 0, "visible": true, "point": true}, {"id": 122, "name": "arbusto", "type": "decor", "x": 430, "y": 204, "width": 0, "height": 0, "rotation": 0, "visible": true, "point": true}, {"id": 123, "name": "arbusto", "type": "decor", "x": 539, "y": 993, "width": 0, "height": 0, "rotation": 0, "visible": true, "point": true}, {"id": 124, "name": "arbusto", "type": "decor", "x": 1965, "y": 855, "width": 0, "height": 0, "rotation": 0, "visible": true, "point": true}, {"id": 125, "name": "arbusto", "type": "decor", "x": 1845, "y": 207, "width": 0, "height": 0, "rotation": 0, "visible": true, "point": true}, {"id": 126, "name": "arbusto", "type": "decor", "x": 1204, "y": 484, "width": 0, "height": 0, "rotation": 0, "visible": true, "point": true}, {"id": 127, "name": "arbusto", "type": "decor", "x": 611, "y": 115, "width": 0, "height": 0, "rotation": 0, "visible": true, "point": true}, {"id": 128, "name": "arbusto", "type": "decor", "x": 2068, "y": 282, "width": 0, "height": 0, "rotation": 0, "visible": true, "point": true}, {"id": 129, "name": "arbusto", "type": "decor", "x": 387, "y": 657, "width": 0, "height": 0, "rotation": 0, "visible": true, "point": true}, {"id": 130, "name": "arbusto", "type": "decor", "x": 735, "y": 1209, "width": 0, "height": 0, "rotation": 0, "visible": true, "point": true}, {"id": 131, "name": "arbusto", "type": "decor", "x": 1859, "y": 1151, "width": 0, "height": 0, "rotation": 0, "visible": true, "point": true}, {"id": 132, "name": "arbusto", "type": "decor", "x": 1614, "y": 630, "width": 0, "height": 0, "rotation": 0, "visible": true, "point": true}, {"id": 133, "name": "arbusto", "type": "decor", "x": 467, "y": 839, "width": 0, "height": 0, "rotation": 0, "visible": true, "point": true}, {"id": 134, "name": "arbusto", "type": "decor", "x": 297, "y": 969, "width": 0, "height": 0, "rotation": 0, "visible": true, "point": true}, {"id": 135, "name": "arbusto", "type": "decor", "x": 211, "y": 620, "width": 0, "height": 0, "rotation": 0, "visible": true, "point": true}]}]}