{"compressionlevel": -1, "type": "map", "version": "1.10", "tiledversion": "1.10.2", "orientation": "orthogonal", "renderorder": "right-down", "infinite": false, "width": 30, "height": 17, "tilewidth": 32, "tileheight": 32, "nextlayerid": 5, "nextobjectid": 4, "tilesets": [{"firstgid": 1, "name": "pixellab-casa-cueva", "image": "../tilesets/pixellab-casa-cueva-32.png", "imagewidth": 128, "imageheight": 128, "tilewidth": 32, "tileheight": 32, "tilecount": 16, "columns": 4, "margin": 0, "spacing": 0, "tiles": [{"id": 0, "properties": [{"name": "collides", "type": "bool", "value": true}]}, {"id": 1, "properties": [{"name": "collides", "type": "bool", "value": true}]}, {"id": 2, "properties": [{"name": "collides", "type": "bool", "value": true}]}, {"id": 3, "properties": [{"name": "collides", "type": "bool", "value": true}]}, {"id": 4, "properties": [{"name": "collides", "type": "bool", "value": true}]}, {"id": 5, "properties": [{"name": "collides", "type": "bool", "value": true}]}, {"id": 6, "properties": [{"name": "collides", "type": "bool", "value": false}]}, {"id": 7, "properties": [{"name": "collides", "type": "bool", "value": true}]}, {"id": 8, "properties": [{"name": "collides", "type": "bool", "value": true}]}, {"id": 9, "properties": [{"name": "collides", "type": "bool", "value": true}]}, {"id": 10, "properties": [{"name": "collides", "type": "bool", "value": true}]}, {"id": 11, "properties": [{"name": "collides", "type": "bool", "value": true}]}, {"id": 12, "properties": [{"name": "collides", "type": "bool", "value": true}]}, {"id": 13, "properties": [{"name": "collides", "type": "bool", "value": true}]}, {"id": 14, "properties": [{"name": "collides", "type": "bool", "value": true}]}, {"id": 15, "properties": [{"name": "collides", "type": "bool", "value": true}]}], "wangsets": [{"name": "casa-cueva", "type": "corner", "tile": -1, "colors": [{"name": "suelo", "color": "#3a9d23", "tile": -1, "probability": 1}, {"name": "pared", "color": "#8b5a2b", "tile": -1, "probability": 1}], "wangtiles": [{"tileid": 0, "wangid": [0, 2, 0, 2, 0, 1, 0, 2]}, {"tileid": 1, "wangid": [0, 1, 0, 1, 0, 2, 0, 2]}, {"tileid": 2, "wangid": [0, 2, 0, 1, 0, 1, 0, 1]}, {"tileid": 3, "wangid": [0, 2, 0, 1, 0, 1, 0, 2]}, {"tileid": 4, "wangid": [0, 2, 0, 1, 0, 2, 0, 1]}, {"tileid": 5, "wangid": [0, 1, 0, 1, 0, 1, 0, 2]}, {"tileid": 6, "wangid": [0, 1, 0, 1, 0, 1, 0, 1]}, {"tileid": 7, "wangid": [0, 1, 0, 2, 0, 1, 0, 1]}, {"tileid": 8, "wangid": [0, 1, 0, 2, 0, 2, 0, 2]}, {"tileid": 9, "wangid": [0, 1, 0, 2, 0, 2, 0, 1]}, {"tileid": 10, "wangid": [0, 1, 0, 1, 0, 2, 0, 1]}, {"tileid": 11, "wangid": [0, 2, 0, 2, 0, 1, 0, 1]}, {"tileid": 12, "wangid": [0, 2, 0, 2, 0, 2, 0, 2]}, {"tileid": 13, "wangid": [0, 2, 0, 1, 0, 2, 0, 2]}, {"tileid": 14, "wangid": [0, 1, 0, 2, 0, 1, 0, 2]}, {"tileid": 15, "wangid": [0, 2, 0, 2, 0, 2, 0, 1]}]}]}], "layers": [{"id": 1, "name": "Below Player", "type": "tilelayer", "x": 0, "y": 0, "width": 30, "height": 17, "opacity": 1, "visible": true, "data": [0, 0, 0, 0, 0, 0, 0, 0, 0, 0, 0, 0, 0, 0, 0, 0, 0, 0, 0, 0, 0, 0, 0, 0, 0, 0, 0, 0, 0, 0, 0, 0, 0, 0, 0, 0, 0, 0, 0, 0, 0, 0, 0, 0, 0, 0, 0, 0, 0, 0, 0, 0, 0, 0, 0, 0, 0, 0, 0, 0, 0, 0, 0, 0, 0, 0, 0, 0, 0, 0, 0, 0, 0, 0, 0, 0, 0, 0, 0, 0, 0, 0, 0, 0, 0, 0, 0, 0, 0, 0, 0, 0, 0, 0, 0, 0, 0, 0, 0, 0, 0, 0, 0, 0, 0, 0, 0, 0, 0, 0, 0, 0, 0, 0, 0, 0, 0, 0, 0, 0, 0, 0, 0, 0, 0, 0, 0, 0, 0, 0, 0, 0, 0, 0, 0, 0, 0, 0, 0, 0, 0, 0, 0, 0, 0, 0, 0, 0, 0, 0, 0, 0, 0, 0, 0, 0, 0, 0, 0, 0, 0, 0, 0, 0, 0, 0, 0, 0, 0, 0, 0, 0, 0, 0, 0, 0, 0, 0, 0, 0, 0, 0, 0, 0, 0, 0, 0, 0, 0, 0, 0, 0, 0, 0, 0, 0, 0, 0, 0, 0, 0, 0, 0, 0, 0, 0, 0, 0, 0, 0, 0, 0, 0, 0, 0, 0, 0, 0, 0, 0, 0, 0, 0, 0, 0, 0, 0, 0, 0, 0, 0, 0, 0, 0, 0, 0, 0, 0, 0, 0, 0, 0, 0, 0, 0, 0, 0, 0, 0, 0, 0, 0, 0, 0, 0, 0, 0, 0, 0, 0, 0, 0, 0, 0, 0, 0, 0, 0, 0, 0, 0, 0, 0, 0, 0, 0, 0, 0, 0, 0, 0, 0, 0, 0, 0, 0, 0, 0, 0, 0, 0, 0, 0, 0, 0, 0, 0, 0, 0, 0, 0, 0, 0, 0, 0, 0, 0, 0, 0, 0, 0, 0, 0, 0, 0, 0, 0, 0, 0, 0, 0, 0, 0, 0, 0, 0, 0, 0, 0, 0, 0, 0, 0, 0, 0, 0, 0, 0, 0, 0, 0, 0, 0, 0, 0, 0, 0, 0, 0, 0, 0, 0, 0, 0, 0, 0, 0, 0, 0, 0, 0, 0, 0, 0, 0, 0, 0, 0, 0, 0, 0, 0, 0, 0, 0, 0, 0, 0, 0, 0, 0, 0, 0, 0, 0, 0, 0, 0, 0, 0, 0, 0, 0, 0, 0, 0, 0, 0, 0, 0, 0, 0, 0, 0, 0, 0, 0, 0, 0, 0, 0, 0, 0, 0, 0, 0, 0, 0, 0, 0, 0, 0, 0, 0, 0, 0, 0, 0, 0, 0, 0, 0, 0, 0, 0, 0, 0, 0, 0, 0, 0, 0, 0, 0, 0, 0, 0, 0, 0, 0, 0, 0, 0, 0, 0, 0, 0, 0, 0, 0, 0, 0, 0, 0, 0, 0, 0, 0, 0, 0, 0, 0, 0, 0, 0, 0, 0, 0, 0, 0, 0, 0, 0, 0, 0, 0, 0, 0, 0, 0, 0, 0, 0, 0, 0, 0, 0, 0, 0, 0, 0, 0, 0, 0, 0, 0, 0, 0, 0, 0]}, {"id": 2, "name": "World", "type": "tilelayer", "x": 0, "y": 0, "width": 30, "height": 17, "opacity": 1, "visible": true, "data": [13, 13, 13, 13, 13, 13, 13, 13, 13, 13, 13, 13, 13, 13, 13, 13, 13, 13, 13, 13, 13, 13, 13, 13, 13, 13, 13, 13, 13, 13, 13, 13, 13, 13, 13, 13, 13, 13, 13, 13, 13, 13, 13, 13, 13, 13, 13, 13, 13, 13, 13, 13, 13, 13, 13, 13, 13, 13, 13, 13, 13, 13, 13, 13, 13, 13, 13, 13, 13, 13, 13, 13, 13, 13, 13, 13, 13, 13, 13, 13, 13, 13, 13, 13, 13, 13, 13, 13, 13, 13, 13, 13, 13, 13, 13, 13, 13, 14, 4, 4, 4, 4, 4, 4, 4, 4, 4, 4, 4, 4, 4, 4, 1, 13, 13, 13, 13, 13, 13, 13, 13, 13, 13, 13, 13, 13, 13, 2, 7, 7, 7, 7, 7, 7, 7, 7, 7, 7, 7, 7, 7, 7, 12, 13, 13, 13, 13, 13, 13, 13, 13, 13, 13, 14, 4, 4, 4, 6, 7, 7, 7, 7, 7, 7, 7, 7, 7, 7, 7, 7, 7, 7, 12, 13, 13, 13, 13, 13, 13, 13, 13, 13, 13, 2, 7, 7, 7, 7, 7, 7, 7, 7, 7, 7, 7, 7, 7, 7, 7, 7, 7, 7, 12, 13, 13, 13, 13, 13, 13, 13, 13, 13, 13, 2, 7, 7, 7, 7, 7, 7, 7, 7, 7, 7, 7, 7, 7, 7, 7, 7, 7, 7, 12, 13, 13, 13, 13, 13, 13, 13, 13, 13, 13, 2, 7, 7, 7, 7, 7, 7, 7, 7, 7, 7, 7, 7, 7, 7, 7, 7, 7, 7, 12, 13, 13, 13, 13, 13, 13, 13, 13, 13, 13, 2, 7, 7, 7, 7, 7, 7, 7, 7, 7, 7, 7, 7, 7, 7, 7, 7, 7, 7, 12, 13, 13, 13, 13, 13, 13, 13, 13, 13, 13, 9, 10, 10, 10, 11, 7, 7, 7, 7, 7, 7, 7, 7, 7, 7, 7, 7, 7, 7, 12, 13, 13, 13, 13, 13, 13, 13, 13, 13, 13, 13, 13, 13, 13, 2, 7, 7, 7, 7, 7, 7, 7, 7, 7, 7, 7, 7, 7, 7, 12, 13, 13, 13, 13, 13, 13, 13, 13, 13, 13, 13, 13, 13, 13, 9, 10, 10, 10, 10, 10, 11, 7, 7, 8, 10, 10, 10, 10, 10, 16, 13, 13, 13, 13, 13, 13, 13, 13, 13, 13, 13, 13, 13, 13, 13, 13, 13, 13, 13, 13, 2, 7, 7, 12, 13, 13, 13, 13, 13, 13, 13, 13, 13, 13, 13, 13, 13, 13, 13, 13, 13, 13, 13, 13, 13, 13, 13, 13, 13, 13, 2, 7, 7, 12, 13, 13, 13, 13, 13, 13, 13, 13, 13, 13, 13, 13, 13, 13, 13, 13, 13, 13, 13, 13, 13, 13, 13, 13, 13, 13, 2, 7, 7, 12, 13, 13, 13, 13, 13, 13, 13, 13, 13, 13, 13, 13, 13, 13, 13, 13, 13, 13, 13, 13, 13, 13, 13, 13, 13, 13, 2, 7, 7, 12, 13, 13, 13, 13, 13, 13, 13, 13, 13, 13, 13, 13, 13]}, {"id": 3, "name": "Above Player", "type": "tilelayer", "x": 0, "y": 0, "width": 30, "height": 17, "opacity": 1, "visible": true, "data": [0, 0, 0, 0, 0, 0, 0, 0, 0, 0, 0, 0, 0, 0, 0, 0, 0, 0, 0, 0, 0, 0, 0, 0, 0, 0, 0, 0, 0, 0, 0, 0, 0, 0, 0, 0, 0, 0, 0, 0, 0, 0, 0, 0, 0, 0, 0, 0, 0, 0, 0, 0, 0, 0, 0, 0, 0, 0, 0, 0, 0, 0, 0, 0, 0, 0, 0, 0, 0, 0, 0, 0, 0, 0, 0, 0, 0, 0, 0, 0, 0, 0, 0, 0, 0, 0, 0, 0, 0, 0, 0, 0, 0, 0, 0, 0, 0, 0, 0, 0, 0, 0, 0, 0, 0, 0, 0, 0, 0, 0, 0, 0, 0, 0, 0, 0, 0, 0, 0, 0, 0, 0, 0, 0, 0, 0, 0, 0, 0, 0, 0, 0, 0, 0, 0, 0, 0, 0, 0, 0, 0, 0, 0, 0, 0, 0, 0, 0, 0, 0, 0, 0, 0, 0, 0, 0, 0, 0, 0, 0, 0, 0, 0, 0, 0, 0, 0, 0, 0, 0, 0, 0, 0, 0, 0, 0, 0, 0, 0, 0, 0, 0, 0, 0, 0, 0, 0, 0, 0, 0, 0, 0, 0, 0, 0, 0, 0, 0, 0, 0, 0, 0, 0, 0, 0, 0, 0, 0, 0, 0, 0, 0, 0, 0, 0, 0, 0, 0, 0, 0, 0, 0, 0, 0, 0, 0, 0, 0, 0, 0, 0, 0, 0, 0, 0, 0, 0, 0, 0, 0, 0, 0, 0, 0, 0, 0, 0, 0, 0, 0, 0, 0, 0, 0, 0, 0, 0, 0, 0, 0, 0, 0, 0, 0, 0, 0, 0, 0, 0, 0, 0, 0, 0, 0, 0, 0, 0, 0, 0, 0, 0, 0, 0, 0, 0, 0, 0, 0, 0, 0, 0, 0, 0, 0, 0, 0, 0, 0, 0, 0, 0, 0, 0, 0, 0, 0, 0, 0, 0, 0, 0, 0, 0, 0, 0, 0, 0, 0, 0, 0, 0, 0, 0, 0, 0, 0, 0, 0, 0, 0, 0, 0, 0, 0, 0, 0, 0, 0, 0, 0, 0, 0, 0, 0, 0, 0, 0, 0, 0, 0, 0, 0, 0, 0, 0, 0, 0, 0, 0, 0, 0, 0, 0, 0, 0, 0, 0, 0, 0, 0, 0, 0, 0, 0, 0, 0, 0, 0, 0, 0, 0, 0, 0, 0, 0, 0, 0, 0, 0, 0, 0, 0, 0, 0, 0, 0, 0, 0, 0, 0, 0, 0, 0, 0, 0, 0, 0, 0, 0, 0, 0, 0, 0, 0, 0, 0, 0, 0, 0, 0, 0, 0, 0, 0, 0, 0, 0, 0, 0, 0, 0, 0, 0, 0, 0, 0, 0, 0, 0, 0, 0, 0, 0, 0, 0, 0, 0, 0, 0, 0, 0, 0, 0, 0, 0, 0, 0, 0, 0, 0, 0, 0, 0, 0, 0, 0, 0, 0, 0, 0, 0, 0, 0, 0, 0, 0, 0, 0, 0, 0, 0, 0, 0, 0, 0, 0, 0, 0, 0, 0, 0, 0, 0, 0, 0, 0, 0, 0, 0, 0, 0, 0, 0, 0, 0, 0, 0, 0, 0, 0]}, {"id": 4, "name": "Objects", "type": "objectgroup", "x": 0, "y": 0, "opacity": 1, "visible": true, "draworder": "topdown", "objects": [{"id": 1, "name": "Spawn Point", "type": "", "x": 496, "y": 448, "width": 0, "height": 0, "rotation": 0, "visible": true, "point": true}, {"id": 2, "name": "abuela", "type": "npc", "x": 384, "y": 224, "width": 0, "height": 0, "rotation": 0, "visible": true, "point": true, "properties": [{"name": "sprite", "type": "string", "value": "priest"}]}, {"id": 3, "name": "espada", "type": "cofre", "x": 608, "y": 192, "width": 0, "height": 0, "rotation": 0, "visible": true, "point": true, "properties": [{"name": "item", "type": "string", "value": "espada"}]}]}]}