{
  "compressionlevel": -1,
  "width": 20,
  "height": 16,
  "infinite": false,
  "nextlayerid": 5,
  "nextobjectid": 5,
  "orientation": "orthogonal",
  "renderorder": "right-down",
  "tiledversion": "1.10.2",
  "tileheight": 32,
  "tilewidth": 32,
  "type": "map",
  "version": "1.10",
  "tilesets": [
    {
      "columns": 4,
      "firstgid": 1,
      "image": "../tilesets/pixellab-chistera-32.png",
      "imageheight": 128,
      "imagewidth": 128,
      "margin": 0,
      "name": "pixellab-chistera",
      "spacing": 0,
      "tilecount": 16,
      "tileheight": 32,
      "tilewidth": 32,
      "tiles": [
        {
          "id": 0,
          "properties": [
            {
              "name": "collides",
              "type": "bool",
              "value": false
            }
          ]
        },
        {
          "id": 1,
          "properties": [
            {
              "name": "collides",
              "type": "bool",
              "value": false
            }
          ]
        },
        {
          "id": 2,
          "properties": [
            {
              "name": "collides",
              "type": "bool",
              "value": false
            }
          ]
        },
        {
          "id": 3,
          "properties": [
            {
              "name": "collides",
              "type": "bool",
              "value": false
            }
          ]
        },
        {
          "id": 4,
          "properties": [
            {
              "name": "collides",
              "type": "bool",
              "value": false
            }
          ]
        },
        {
          "id": 5,
          "properties": [
            {
              "name": "collides",
              "type": "bool",
              "value": false
            }
          ]
        },
        {
          "id": 6,
          "properties": [
            {
              "name": "collides",
              "type": "bool",
              "value": false
            }
          ]
        },
        {
          "id": 7,
          "properties": [
            {
              "name": "collides",
              "type": "bool",
              "value": false
            }
          ]
        },
        {
          "id": 8,
          "properties": [
            {
              "name": "collides",
              "type": "bool",
              "value": false
            }
          ]
        },
        {
          "id": 9,
          "properties": [
            {
              "name": "collides",
              "type": "bool",
              "value": false
            }
          ]
        },
        {
          "id": 10,
          "properties": [
            {
              "name": "collides",
              "type": "bool",
              "value": false
            }
          ]
        },
        {
          "id": 11,
          "properties": [
            {
              "name": "collides",
              "type": "bool",
              "value": false
            }
          ]
        },
        {
          "id": 12,
          "properties": [
            {
              "name": "collides",
              "type": "bool",
              "value": false
            }
          ]
        },
        {
          "id": 13,
          "properties": [
            {
              "name": "collides",
              "type": "bool",
              "value": false
            }
          ]
        },
        {
          "id": 14,
          "properties": [
            {
              "name": "collides",
              "type": "bool",
              "value": false
            }
          ]
        },
        {
          "id": 15,
          "properties": [
            {
              "name": "collides",
              "type": "bool",
              "value": false
            }
          ]
        }
      ]
    }
  ],
  "layers": [
    {
      "id": 1,
      "name": "Below Player",
      "type": "tilelayer",
      "visible": true,
      "opacity": 1,
      "width": 20,
      "height": 16,
      "x": 0,
      "y": 0,
      "data": [
        7,
        7,
        7,
        7,
        7,
        7,
        7,
        7,
        7,
        7,
        7,
        7,
        7,
        7,
        7,
        7,
        7,
        7,
        7,
        7,
        7,
        7,
        7,
        7,
        7,
        7,
        7,
        7,
        7,
        7,
        7,
        7,
        7,
        7,
        7,
        7,
        7,
        7,
        7,
        7,
        7,
        7,
        7,
        7,
        7,
        13,
        13,
        13,
        13,
        13,
        13,
        13,
        13,
        13,
        13,
        7,
        7,
        7,
        7,
        7,
        7,
        7,
        7,
        7,
        7,
        13,
        13,
        13,
        13,
        13,
        13,
        13,
        13,
        13,
        13,
        7,
        7,
        7,
        7,
        7,
        7,
        7,
        7,
        7,
        7,
        13,
        13,
        13,
        13,
        13,
        13,
        13,
        13,
        13,
        13,
        7,
        7,
        7,
        7,
        7,
        7,
        7,
        7,
        7,
        7,
        13,
        13,
        13,
        13,
        13,
        13,
        13,
        13,
        13,
        13,
        7,
        7,
        7,
        7,
        7,
        7,
        7,
        7,
        7,
        7,
        7,
        7,
        7,
        7,
        7,
        7,
        7,
        7,
        7,
        7,
        7,
        7,
        7,
        7,
        7,
        7,
        7,
        7,
        7,
        7,
        7,
        7,
        7,
        7,
        7,
        7,
        7,
        7,
        7,
        7,
        7,
        7,
        7,
        7,
        7,
        7,
        7,
        7,
        7,
        7,
        7,
        7,
        7,
        7,
        7,
        7,
        7,
        7,
        7,
        7,
        7,
        7,
        7,
        7,
        7,
        7,
        7,
        7,
        7,
        7,
        7,
        7,
        7,
        7,
        7,
        7,
        7,
        7,
        7,
        7,
        7,
        7,
        7,
        7,
        7,
        7,
        7,
        7,
        7,
        7,
        7,
        7,
        7,
        7,
        7,
        7,
        7,
        7,
        7,
        7,
        7,
        7,
        7,
        7,
        7,
        7,
        7,
        7,
        7,
        7,
        7,
        7,
        7,
        7,
        7,
        7,
        7,
        7,
        7,
        7,
        7,
        7,
        7,
        7,
        7,
        7,
        7,
        7,
        7,
        7,
        7,
        7,
        7,
        7,
        7,
        7,
        7,
        7,
        7,
        7,
        7,
        7,
        7,
        7,
        7,
        7,
        7,
        7,
        7,
        7,
        7,
        7,
        7,
        7,
        7,
        7,
        7,
        7,
        7,
        7,
        7,
        7,
        7,
        7,
        7,
        7,
        7,
        7,
        7,
        7,
        7,
        7,
        7,
        7,
        7,
        7,
        7,
        7,
        7,
        7,
        7,
        7,
        7,
        7,
        7,
        7,
        7,
        7,
        7,
        7,
        7,
        7,
        7,
        7,
        7,
        7,
        7,
        7,
        7,
        7,
        7,
        7,
        7,
        7,
        7
      ]
    },
    {
      "id": 2,
      "name": "World",
      "type": "tilelayer",
      "visible": true,
      "opacity": 1,
      "width": 20,
      "height": 16,
      "x": 0,
      "y": 0,
      "data": [
        0,
        0,
        0,
        0,
        0,
        0,
        0,
        0,
        0,
        0,
        0,
        0,
        0,
        0,
        0,
        0,
        0,
        0,
        0,
        0,
        0,
        0,
        0,
        0,
        0,
        0,
        0,
        0,
        0,
        0,
        0,
        0,
        0,
        0,
        0,
        0,
        0,
        0,
        0,
        0,
        0,
        0,
        0,
        0,
        0,
        0,
        0,
        0,
        0,
        0,
        0,
        0,
        0,
        0,
        0,
        0,
        0,
        0,
        0,
        0,
        0,
        0,
        0,
        0,
        0,
        0,
        0,
        0,
        0,
        0,
        0,
        0,
        0,
        0,
        0,
        0,
        0,
        0,
        0,
        0,
        0,
        0,
        0,
        0,
        0,
        0,
        0,
        0,
        0,
        0,
        0,
        0,
        0,
        0,
        0,
        0,
        0,
        0,
        0,
        0,
        0,
        0,
        0,
        0,
        0,
        0,
        0,
        0,
        0,
        0,
        0,
        0,
        0,
        0,
        0,
        0,
        0,
        0,
        0,
        0,
        0,
        0,
        0,
        0,
        0,
        0,
        0,
        0,
        0,
        0,
        0,
        0,
        0,
        0,
        0,
        0,
        0,
        0,
        0,
        0,
        0,
        0,
        0,
        0,
        0,
        0,
        0,
        0,
        0,
        0,
        0,
        0,
        0,
        0,
        0,
        0,
        0,
        0,
        0,
        0,
        0,
        0,
        0,
        0,
        0,
        0,
        0,
        0,
        0,
        0,
        0,
        0,
        0,
        0,
        0,
        0,
        0,
        0,
        0,
        0,
        0,
        0,
        0,
        0,
        0,
        0,
        0,
        0,
        0,
        0,
        0,
        0,
        0,
        0,
        0,
        0,
        0,
        0,
        0,
        0,
        0,
        0,
        0,
        0,
        0,
        0,
        0,
        0,
        0,
        0,
        0,
        0,
        0,
        0,
        0,
        0,
        0,
        0,
        0,
        0,
        0,
        0,
        0,
        0,
        0,
        0,
        0,
        0,
        0,
        0,
        0,
        0,
        0,
        0,
        0,
        0,
        0,
        0,
        0,
        0,
        0,
        0,
        0,
        0,
        0,
        0,
        0,
        0,
        0,
        0,
        0,
        0,
        0,
        0,
        0,
        0,
        0,
        0,
        0,
        0,
        0,
        0,
        0,
        0,
        0,
        0,
        0,
        0,
        0,
        0,
        0,
        0,
        0,
        0,
        0,
        0,
        0,
        0,
        0,
        0,
        0,
        0,
        0,
        0,
        0,
        0,
        0,
        0,
        0,
        0,
        0,
        0,
        0,
        0,
        0,
        0,
        0,
        0,
        0,
        0,
        0,
        0,
        0,
        0,
        0,
        0,
        0,
        0,
        0,
        0,
        0,
        0,
        0,
        0,
        0,
        0,
        0,
        0,
        0,
        0
      ]
    },
    {
      "id": 3,
      "name": "Above Player",
      "type": "tilelayer",
      "visible": true,
      "opacity": 1,
      "width": 20,
      "height": 16,
      "x": 0,
      "y": 0,
      "data": [
        0,
        0,
        0,
        0,
        0,
        0,
        0,
        0,
        0,
        0,
        0,
        0,
        0,
        0,
        0,
        0,
        0,
        0,
        0,
        0,
        0,
        0,
        0,
        0,
        0,
        0,
        0,
        0,
        0,
        0,
        0,
        0,
        0,
        0,
        0,
        0,
        0,
        0,
        0,
        0,
        0,
        0,
        0,
        0,
        0,
        0,
        0,
        0,
        0,
        0,
        0,
        0,
        0,
        0,
        0,
        0,
        0,
        0,
        0,
        0,
        0,
        0,
        0,
        0,
        0,
        0,
        0,
        0,
        0,
        0,
        0,
        0,
        0,
        0,
        0,
        0,
        0,
        0,
        0,
        0,
        0,
        0,
        0,
        0,
        0,
        0,
        0,
        0,
        0,
        0,
        0,
        0,
        0,
        0,
        0,
        0,
        0,
        0,
        0,
        0,
        0,
        0,
        0,
        0,
        0,
        0,
        0,
        0,
        0,
        0,
        0,
        0,
        0,
        0,
        0,
        0,
        0,
        0,
        0,
        0,
        0,
        0,
        0,
        0,
        0,
        0,
        0,
        0,
        0,
        0,
        0,
        0,
        0,
        0,
        0,
        0,
        0,
        0,
        0,
        0,
        0,
        0,
        0,
        0,
        0,
        0,
        0,
        0,
        0,
        0,
        0,
        0,
        0,
        0,
        0,
        0,
        0,
        0,
        0,
        0,
        0,
        0,
        0,
        0,
        0,
        0,
        0,
        0,
        0,
        0,
        0,
        0,
        0,
        0,
        0,
        0,
        0,
        0,
        0,
        0,
        0,
        0,
        0,
        0,
        0,
        0,
        0,
        0,
        0,
        0,
        0,
        0,
        0,
        0,
        0,
        0,
        0,
        0,
        0,
        0,
        0,
        0,
        0,
        0,
        0,
        0,
        0,
        0,
        0,
        0,
        0,
        0,
        0,
        0,
        0,
        0,
        0,
        0,
        0,
        0,
        0,
        0,
        0,
        0,
        0,
        0,
        0,
        0,
        0,
        0,
        0,
        0,
        0,
        0,
        0,
        0,
        0,
        0,
        0,
        0,
        0,
        0,
        0,
        0,
        0,
        0,
        0,
        0,
        0,
        0,
        0,
        0,
        0,
        0,
        0,
        0,
        0,
        0,
        0,
        0,
        0,
        0,
        0,
        0,
        0,
        0,
        0,
        0,
        0,
        0,
        0,
        0,
        0,
        0,
        0,
        0,
        0,
        0,
        0,
        0,
        0,
        0,
        0,
        0,
        0,
        0,
        0,
        0,
        0,
        0,
        0,
        0,
        0,
        0,
        0,
        0,
        0,
        0,
        0,
        0,
        0,
        0,
        0,
        0,
        0,
        0,
        0,
        0,
        0,
        0,
        0,
        0,
        0,
        0,
        0,
        0,
        0,
        0,
        0,
        0
      ]
    },
    {
      "id": 4,
      "name": "Objects",
      "type": "objectgroup",
      "visible": true,
      "opacity": 1,
      "x": 0,
      "y": 0,
      "objects": [
        {
          "id": 1,
          "name": "Spawn Point",
          "type": "",
          "point": true,
          "x": 336,
          "y": 464,
          "visible": true,
          "rotation": 0
        },
        {
          "id": 2,
          "name": "escenario-micro",
          "type": "decor",
          "point": true,
          "x": 320,
          "y": 128,
          "visible": true,
          "rotation": 0
        },
        {
          "id": 3,
          "name": "comico",
          "type": "npc",
          "point": true,
          "x": 320,
          "y": 116,
          "visible": true,
          "rotation": 0
        },
        {
          "id": 4,
          "name": "chistera",
          "type": "zona",
          "point": true,
          "x": 320,
          "y": 256,
          "visible": true,
          "rotation": 0
        }
      ]
    }
  ]
}