{
  "compressionlevel": -1,
  "height": 22,
  "width": 30,
  "infinite": false,
  "nextlayerid": 5,
  "nextobjectid": 10,
  "orientation": "orthogonal",
  "renderorder": "right-down",
  "tiledversion": "1.10.2",
  "tileheight": 32,
  "tilewidth": 32,
  "type": "map",
  "version": "1.10",
  "tilesets": [
    {
      "columns": 24,
      "firstgid": 1,
      "image": "../tilesets/tuxemon-32px-extruido.png",
      "imageheight": 1020,
      "imagewidth": 816,
      "margin": 1,
      "name": "tuxemon-sample-32px-extruded",
      "spacing": 2,
      "tilecount": 720,
      "tileheight": 32,
      "tilewidth": 32,
      "tiles": [
        {
          "id": 600,
          "properties": [
            {
              "name": "collides",
              "type": "bool",
              "value": true
            }
          ]
        },
        {
          "id": 601,
          "properties": [
            {
              "name": "collides",
              "type": "bool",
              "value": true
            }
          ]
        },
        {
          "id": 602,
          "properties": [
            {
              "name": "collides",
              "type": "bool",
              "value": true
            }
          ]
        },
        {
          "id": 125,
          "properties": [
            {
              "name": "collides",
              "type": "bool",
              "value": false
            }
          ]
        }
      ]
    }
  ],
  "layers": [
    {
      "id": 1,
      "name": "Below Player",
      "type": "tilelayer",
      "visible": true,
      "opacity": 1,
      "width": 30,
      "height": 22,
      "x": 0,
      "y": 0,
      "data": [
        126,
        126,
        126,
        126,
        126,
        126,
        126,
        126,
        126,
        126,
        126,
        126,
        126,
        126,
        126,
        126,
        126,
        126,
        126,
        126,
        126,
        126,
        126,
        126,
        126,
        126,
        126,
        126,
        126,
        126,
        126,
        126,
        126,
        126,
        126,
        126,
        126,
        126,
        126,
        126,
        126,
        126,
        126,
        126,
        126,
        126,
        126,
        126,
        126,
        126,
        126,
        126,
        126,
        126,
        126,
        126,
        126,
        126,
        126,
        126,
        126,
        126,
        126,
        126,
        126,
        126,
        126,
        126,
        126,
        126,
        126,
        126,
        126,
        126,
        126,
        126,
        126,
        126,
        126,
        126,
        126,
        126,
        126,
        126,
        126,
        126,
        126,
        126,
        126,
        126,
        126,
        126,
        126,
        126,
        126,
        126,
        126,
        126,
        126,
        126,
        126,
        126,
        126,
        126,
        126,
        126,
        126,
        126,
        126,
        126,
        126,
        126,
        126,
        126,
        126,
        126,
        126,
        126,
        126,
        126,
        126,
        126,
        126,
        126,
        126,
        126,
        126,
        126,
        126,
        126,
        126,
        126,
        126,
        126,
        126,
        126,
        126,
        126,
        126,
        126,
        126,
        126,
        126,
        126,
        126,
        126,
        126,
        126,
        126,
        126,
        126,
        126,
        126,
        126,
        126,
        126,
        126,
        126,
        126,
        126,
        126,
        126,
        126,
        126,
        126,
        126,
        126,
        126,
        126,
        126,
        126,
        126,
        126,
        126,
        126,
        126,
        126,
        126,
        126,
        126,
        126,
        126,
        126,
        126,
        126,
        126,
        126,
        126,
        126,
        126,
        126,
        126,
        126,
        126,
        126,
        126,
        126,
        126,
        126,
        126,
        126,
        126,
        126,
        126,
        126,
        126,
        126,
        126,
        126,
        126,
        126,
        126,
        126,
        126,
        126,
        126,
        126,
        126,
        126,
        126,
        126,
        126,
        126,
        126,
        126,
        126,
        126,
        126,
        126,
        126,
        126,
        126,
        126,
        126,
        126,
        126,
        126,
        126,
        126,
        126,
        126,
        126,
        126,
        126,
        126,
        126,
        126,
        126,
        126,
        126,
        126,
        126,
        126,
        126,
        126,
        126,
        126,
        126,
        126,
        126,
        126,
        126,
        126,
        126,
        126,
        126,
        126,
        126,
        126,
        126,
        126,
        126,
        126,
        126,
        126,
        126,
        126,
        126,
        126,
        126,
        126,
        126,
        126,
        126,
        126,
        126,
        126,
        126,
        126,
        126,
        126,
        126,
        126,
        126,
        126,
        126,
        126,
        126,
        126,
        126,
        126,
        126,
        126,
        126,
        126,
        126,
        126,
        126,
        126,
        126,
        126,
        126,
        126,
        126,
        126,
        126,
        126,
        126,
        126,
        126,
        126,
        126,
        126,
        126,
        126,
        126,
        126,
        126,
        126,
        126,
        126,
        126,
        126,
        126,
        126,
        126,
        126,
        126,
        126,
        126,
        126,
        126,
        126,
        126,
        126,
        126,
        126,
        126,
        126,
        126,
        126,
        126,
        126,
        126,
        126,
        126,
        126,
        126,
        126,
        126,
        126,
        126,
        126,
        126,
        126,
        126,
        126,
        126,
        126,
        126,
        126,
        126,
        126,
        126,
        126,
        126,
        126,
        126,
        126,
        126,
        126,
        126,
        126,
        126,
        126,
        126,
        126,
        126,
        126,
        126,
        126,
        126,
        126,
        126,
        126,
        126,
        126,
        126,
        126,
        126,
        126,
        126,
        126,
        126,
        126,
        126,
        126,
        126,
        126,
        126,
        126,
        126,
        126,
        126,
        126,
        126,
        126,
        126,
        126,
        126,
        126,
        126,
        126,
        126,
        126,
        126,
        126,
        126,
        126,
        126,
        126,
        126,
        126,
        126,
        126,
        126,
        126,
        126,
        126,
        126,
        126,
        126,
        126,
        126,
        126,
        126,
        126,
        126,
        126,
        126,
        126,
        126,
        126,
        126,
        126,
        126,
        126,
        126,
        126,
        126,
        126,
        126,
        126,
        126,
        126,
        126,
        126,
        126,
        126,
        126,
        126,
        126,
        126,
        126,
        126,
        126,
        126,
        126,
        126,
        126,
        126,
        126,
        126,
        126,
        126,
        126,
        126,
        126,
        126,
        126,
        126,
        126,
        126,
        126,
        126,
        126,
        126,
        126,
        126,
        126,
        126,
        126,
        126,
        126,
        126,
        126,
        126,
        126,
        126,
        126,
        126,
        126,
        126,
        126,
        126,
        126,
        126,
        126,
        126,
        126,
        126,
        126,
        126,
        126,
        126,
        126,
        126,
        126,
        126,
        126,
        126,
        126,
        126,
        126,
        126,
        126,
        126,
        126,
        126,
        126,
        126,
        126,
        126,
        126,
        126,
        126,
        126,
        126,
        126,
        126,
        126,
        126,
        126,
        126,
        126,
        126,
        126,
        126,
        126,
        126,
        126,
        126,
        126,
        126,
        126,
        126,
        126,
        126,
        126,
        126,
        126,
        126,
        126,
        126,
        126,
        126,
        126,
        126,
        126,
        126,
        126,
        126,
        126,
        126,
        126,
        126,
        126,
        126,
        126,
        126,
        126,
        126,
        126,
        126,
        126,
        126,
        126,
        126,
        126,
        126,
        126,
        126,
        126,
        126,
        126,
        126,
        126,
        126,
        126,
        126,
        126,
        126,
        126,
        126,
        126,
        126,
        126,
        126,
        126,
        126,
        126,
        126,
        126,
        126,
        126,
        126,
        126,
        126,
        126,
        126,
        126,
        126,
        126,
        126,
        126,
        126,
        126,
        126,
        126,
        126,
        126,
        126,
        126,
        126,
        126,
        126,
        126,
        126,
        126,
        126,
        126,
        126,
        126,
        126,
        126,
        126,
        126,
        126,
        126,
        126
      ]
    },
    {
      "id": 2,
      "name": "World",
      "type": "tilelayer",
      "visible": true,
      "opacity": 1,
      "width": 30,
      "height": 22,
      "x": 0,
      "y": 0,
      "data": [
        601,
        601,
        0,
        0,
        0,
        0,
        0,
        0,
        0,
        0,
        0,
        0,
        0,
        0,
        0,
        0,
        0,
        0,
        0,
        0,
        0,
        0,
        0,
        0,
        0,
        0,
        0,
        0,
        601,
        601,
        601,
        601,
        0,
        0,
        0,
        0,
        0,
        0,
        0,
        0,
        0,
        0,
        0,
        0,
        0,
        0,
        0,
        0,
        0,
        0,
        0,
        0,
        0,
        0,
        0,
        0,
        0,
        0,
        601,
        601,
        601,
        601,
        0,
        0,
        0,
        0,
        0,
        0,
        0,
        0,
        0,
        0,
        0,
        0,
        0,
        0,
        0,
        0,
        0,
        0,
        0,
        0,
        0,
        0,
        0,
        0,
        0,
        0,
        601,
        601,
        601,
        601,
        0,
        0,
        0,
        0,
        0,
        0,
        0,
        0,
        0,
        0,
        0,
        0,
        0,
        0,
        0,
        0,
        0,
        0,
        0,
        0,
        0,
        0,
        0,
        0,
        0,
        0,
        601,
        601,
        601,
        601,
        0,
        0,
        0,
        0,
        0,
        0,
        0,
        0,
        0,
        0,
        0,
        0,
        0,
        0,
        0,
        0,
        0,
        0,
        0,
        0,
        0,
        0,
        0,
        0,
        0,
        0,
        601,
        601,
        601,
        601,
        0,
        0,
        0,
        0,
        0,
        0,
        0,
        0,
        0,
        0,
        0,
        0,
        0,
        0,
        0,
        0,
        0,
        0,
        0,
        0,
        0,
        0,
        0,
        0,
        0,
        0,
        601,
        601,
        601,
        601,
        0,
        0,
        0,
        0,
        0,
        0,
        0,
        0,
        0,
        0,
        0,
        0,
        0,
        0,
        0,
        0,
        0,
        0,
        0,
        0,
        0,
        0,
        0,
        0,
        0,
        0,
        601,
        601,
        601,
        601,
        0,
        0,
        0,
        0,
        0,
        0,
        0,
        0,
        0,
        0,
        0,
        0,
        0,
        0,
        0,
        0,
        0,
        0,
        0,
        0,
        0,
        0,
        0,
        0,
        0,
        0,
        601,
        601,
        601,
        601,
        0,
        0,
        0,
        0,
        0,
        0,
        0,
        0,
        0,
        0,
        0,
        0,
        0,
        0,
        0,
        0,
        0,
        0,
        0,
        0,
        0,
        0,
        0,
        0,
        0,
        0,
        601,
        601,
        601,
        601,
        0,
        0,
        0,
        0,
        0,
        0,
        0,
        0,
        0,
        0,
        0,
        0,
        0,
        0,
        0,
        0,
        0,
        0,
        0,
        0,
        0,
        0,
        0,
        0,
        0,
        0,
        601,
        601,
        601,
        601,
        0,
        0,
        0,
        0,
        0,
        0,
        0,
        0,
        0,
        0,
        0,
        0,
        0,
        0,
        0,
        0,
        0,
        0,
        0,
        0,
        0,
        0,
        0,
        0,
        0,
        0,
        601,
        601,
        601,
        601,
        0,
        0,
        0,
        0,
        0,
        0,
        0,
        0,
        0,
        0,
        0,
        0,
        0,
        0,
        0,
        0,
        0,
        0,
        0,
        0,
        0,
        0,
        0,
        0,
        0,
        0,
        601,
        601,
        601,
        601,
        0,
        0,
        0,
        0,
        0,
        0,
        0,
        0,
        0,
        0,
        0,
        0,
        0,
        0,
        0,
        0,
        0,
        0,
        0,
        0,
        0,
        0,
        0,
        0,
        0,
        0,
        601,
        601,
        601,
        601,
        0,
        0,
        0,
        0,
        0,
        0,
        0,
        0,
        0,
        0,
        0,
        0,
        0,
        0,
        0,
        0,
        0,
        0,
        0,
        0,
        0,
        0,
        0,
        0,
        0,
        0,
        601,
        601,
        601,
        601,
        0,
        0,
        0,
        0,
        0,
        0,
        0,
        0,
        0,
        0,
        0,
        0,
        0,
        0,
        0,
        0,
        0,
        0,
        0,
        0,
        0,
        0,
        0,
        0,
        0,
        0,
        601,
        601,
        601,
        601,
        0,
        0,
        0,
        0,
        0,
        0,
        0,
        0,
        0,
        0,
        0,
        0,
        0,
        0,
        0,
        0,
        0,
        0,
        0,
        0,
        0,
        0,
        0,
        0,
        0,
        0,
        601,
        601,
        601,
        601,
        0,
        0,
        0,
        0,
        0,
        0,
        0,
        0,
        0,
        0,
        0,
        0,
        0,
        0,
        0,
        0,
        0,
        0,
        0,
        0,
        0,
        0,
        0,
        0,
        0,
        0,
        601,
        601,
        601,
        601,
        0,
        0,
        0,
        0,
        0,
        0,
        0,
        0,
        0,
        0,
        0,
        0,
        0,
        0,
        0,
        0,
        0,
        0,
        0,
        0,
        0,
        0,
        0,
        0,
        0,
        0,
        601,
        601,
        601,
        601,
        0,
        0,
        0,
        0,
        0,
        0,
        0,
        0,
        0,
        0,
        0,
        0,
        0,
        0,
        0,
        0,
        0,
        0,
        0,
        0,
        0,
        0,
        0,
        0,
        0,
        0,
        601,
        601,
        601,
        601,
        0,
        0,
        0,
        0,
        0,
        0,
        0,
        0,
        0,
        0,
        0,
        0,
        0,
        0,
        0,
        0,
        0,
        0,
        0,
        0,
        0,
        0,
        0,
        0,
        0,
        0,
        601,
        601,
        601,
        601,
        0,
        0,
        0,
        0,
        0,
        0,
        0,
        0,
        0,
        0,
        0,
        0,
        0,
        0,
        0,
        0,
        0,
        0,
        0,
        0,
        0,
        0,
        0,
        0,
        0,
        0,
        601,
        601,
        601,
        601,
        0,
        0,
        0,
        0,
        0,
        0,
        0,
        0,
        0,
        0,
        0,
        0,
        0,
        0,
        0,
        0,
        0,
        0,
        0,
        0,
        0,
        0,
        0,
        0,
        0,
        0,
        601,
        601
      ]
    },
    {
      "id": 3,
      "name": "Above Player",
      "type": "tilelayer",
      "visible": true,
      "opacity": 1,
      "width": 30,
      "height": 22,
      "x": 0,
      "y": 0,
      "data": [
        0,
        0,
        0,
        0,
        0,
        0,
        0,
        0,
        0,
        0,
        0,
        0,
        0,
        0,
        0,
        0,
        0,
        0,
        0,
        0,
        0,
        0,
        0,
        0,
        0,
        0,
        0,
        0,
        0,
        0,
        0,
        0,
        0,
        0,
        0,
        0,
        0,
        0,
        0,
        0,
        0,
        0,
        0,
        0,
        0,
        0,
        0,
        0,
        0,
        0,
        0,
        0,
        0,
        0,
        0,
        0,
        0,
        0,
        0,
        0,
        0,
        0,
        0,
        0,
        0,
        0,
        0,
        0,
        0,
        0,
        0,
        0,
        0,
        0,
        0,
        0,
        0,
        0,
        0,
        0,
        0,
        0,
        0,
        0,
        0,
        0,
        0,
        0,
        0,
        0,
        0,
        0,
        0,
        0,
        0,
        0,
        0,
        0,
        0,
        0,
        0,
        0,
        0,
        0,
        0,
        0,
        0,
        0,
        0,
        0,
        0,
        0,
        0,
        0,
        0,
        0,
        0,
        0,
        0,
        0,
        0,
        0,
        0,
        0,
        0,
        0,
        0,
        0,
        0,
        0,
        0,
        0,
        0,
        0,
        0,
        0,
        0,
        0,
        0,
        0,
        0,
        0,
        0,
        0,
        0,
        0,
        0,
        0,
        0,
        0,
        0,
        0,
        0,
        0,
        0,
        0,
        0,
        0,
        0,
        0,
        0,
        0,
        0,
        0,
        0,
        0,
        0,
        0,
        0,
        0,
        0,
        0,
        0,
        0,
        0,
        0,
        0,
        0,
        0,
        0,
        0,
        0,
        0,
        0,
        0,
        0,
        0,
        0,
        0,
        0,
        0,
        0,
        0,
        0,
        0,
        0,
        0,
        0,
        0,
        0,
        0,
        0,
        0,
        0,
        0,
        0,
        0,
        0,
        0,
        0,
        0,
        0,
        0,
        0,
        0,
        0,
        0,
        0,
        0,
        0,
        0,
        0,
        0,
        0,
        0,
        0,
        0,
        0,
        0,
        0,
        0,
        0,
        0,
        0,
        0,
        0,
        0,
        0,
        0,
        0,
        0,
        0,
        0,
        0,
        0,
        0,
        0,
        0,
        0,
        0,
        0,
        0,
        0,
        0,
        0,
        0,
        0,
        0,
        0,
        0,
        0,
        0,
        0,
        0,
        0,
        0,
        0,
        0,
        0,
        0,
        0,
        0,
        0,
        0,
        0,
        0,
        0,
        0,
        0,
        0,
        0,
        0,
        0,
        0,
        0,
        0,
        0,
        0,
        0,
        0,
        0,
        0,
        0,
        0,
        0,
        0,
        0,
        0,
        0,
        0,
        0,
        0,
        0,
        0,
        0,
        0,
        0,
        0,
        0,
        0,
        0,
        0,
        0,
        0,
        0,
        0,
        0,
        0,
        0,
        0,
        0,
        0,
        0,
        0,
        0,
        0,
        0,
        0,
        0,
        0,
        0,
        0,
        0,
        0,
        0,
        0,
        0,
        0,
        0,
        0,
        0,
        0,
        0,
        0,
        0,
        0,
        0,
        0,
        0,
        0,
        0,
        0,
        0,
        0,
        0,
        0,
        0,
        0,
        0,
        0,
        0,
        0,
        0,
        0,
        0,
        0,
        0,
        0,
        0,
        0,
        0,
        0,
        0,
        0,
        0,
        0,
        0,
        0,
        0,
        0,
        0,
        0,
        0,
        0,
        0,
        0,
        0,
        0,
        0,
        0,
        0,
        0,
        0,
        0,
        0,
        0,
        0,
        0,
        0,
        0,
        0,
        0,
        0,
        0,
        0,
        0,
        0,
        0,
        0,
        0,
        0,
        0,
        0,
        0,
        0,
        0,
        0,
        0,
        0,
        0,
        0,
        0,
        0,
        0,
        0,
        0,
        0,
        0,
        0,
        0,
        0,
        0,
        0,
        0,
        0,
        0,
        0,
        0,
        0,
        0,
        0,
        0,
        0,
        0,
        0,
        0,
        0,
        0,
        0,
        0,
        0,
        0,
        0,
        0,
        0,
        0,
        0,
        0,
        0,
        0,
        0,
        0,
        0,
        0,
        0,
        0,
        0,
        0,
        0,
        0,
        0,
        0,
        0,
        0,
        0,
        0,
        0,
        0,
        0,
        0,
        0,
        0,
        0,
        0,
        0,
        0,
        0,
        0,
        0,
        0,
        0,
        0,
        0,
        0,
        0,
        0,
        0,
        0,
        0,
        0,
        0,
        0,
        0,
        0,
        0,
        0,
        0,
        0,
        0,
        0,
        0,
        0,
        0,
        0,
        0,
        0,
        0,
        0,
        0,
        0,
        0,
        0,
        0,
        0,
        0,
        0,
        0,
        0,
        0,
        0,
        0,
        0,
        0,
        0,
        0,
        0,
        0,
        0,
        0,
        0,
        0,
        0,
        0,
        0,
        0,
        0,
        0,
        0,
        0,
        0,
        0,
        0,
        0,
        0,
        0,
        0,
        0,
        0,
        0,
        0,
        0,
        0,
        0,
        0,
        0,
        0,
        0,
        0,
        0,
        0,
        0,
        0,
        0,
        0,
        0,
        0,
        0,
        0,
        0,
        0,
        0,
        0,
        0,
        0,
        0,
        0,
        0,
        0,
        0,
        0,
        0,
        0,
        0,
        0,
        0,
        0,
        0,
        0,
        0,
        0,
        0,
        0,
        0,
        0,
        0,
        0,
        0,
        0,
        0,
        0,
        0,
        0,
        0,
        0,
        0,
        0,
        0,
        0,
        0,
        0,
        0,
        0,
        0,
        0,
        0,
        0,
        0,
        0,
        0,
        0,
        0,
        0,
        0,
        0,
        0,
        0,
        0,
        0,
        0,
        0,
        0,
        0,
        0,
        0,
        0,
        0,
        0,
        0,
        0,
        0,
        0,
        0,
        0,
        0,
        0,
        0,
        0,
        0,
        0,
        0
      ]
    },
    {
      "id": 4,
      "name": "Objects",
      "type": "objectgroup",
      "visible": true,
      "opacity": 1,
      "x": 0,
      "y": 0,
      "objects": [
        {
          "id": 1,
          "name": "Spawn Point",
          "type": "",
          "point": true,
          "x": 496,
          "y": 656,
          "visible": true,
          "rotation": 0
        },
        {
          "id": 2,
          "name": "cabra",
          "type": "fauna",
          "point": true,
          "x": 200,
          "y": 280,
          "visible": true,
          "rotation": 0
        },
        {
          "id": 3,
          "name": "cabra",
          "type": "fauna",
          "point": true,
          "x": 420,
          "y": 320,
          "visible": true,
          "rotation": 0
        },
        {
          "id": 4,
          "name": "cabra",
          "type": "fauna",
          "point": true,
          "x": 560,
          "y": 240,
          "visible": true,
          "rotation": 0
        },
        {
          "id": 5,
          "name": "alimana",
          "type": "enemigo",
          "point": true,
          "x": 480,
          "y": 400,
          "visible": true,
          "rotation": 0
        }
      ]
    }
  ]
}