{"compressionlevel": -1, "type": "map", "version": "1.10", "tiledversion": "1.10.2", "orientation": "orthogonal", "renderorder": "right-down", "infinite": false, "width": 70, "height": 45, "tilewidth": 32, "tileheight": 32, "nextlayerid": 7, "nextobjectid": 231, "tilesets": [{"firstgid": 1, "name": "lpc-musgo", "image": "../tilesets/lpc-musgo-32.png", "imagewidth": 128, "imageheight": 160, "tilewidth": 32, "tileheight": 32, "tilecount": 19, "columns": 4, "margin": 0, "spacing": 0, "tiles": [{"id": 0, "properties": [{"name": "collides", "type": "bool", "value": false}]}, {"id": 1, "properties": [{"name": "collides", "type": "bool", "value": false}]}, {"id": 2, "properties": [{"name": "collides", "type": "bool", "value": false}]}, {"id": 3, "properties": [{"name": "collides", "type": "bool", "value": false}]}, {"id": 4, "properties": [{"name": "collides", "type": "bool", "value": false}]}, {"id": 5, "properties": [{"name": "collides", "type": "bool", "value": false}]}, {"id": 6, "properties": [{"name": "collides", "type": "bool", "value": false}]}, {"id": 7, "properties": [{"name": "collides", "type": "bool", "value": false}]}, {"id": 8, "properties": [{"name": "collides", "type": "bool", "value": false}]}, {"id": 9, "properties": [{"name": "collides", "type": "bool", "value": false}]}, {"id": 10, "properties": [{"name": "collides", "type": "bool", "value": false}]}, {"id": 11, "properties": [{"name": "collides", "type": "bool", "value": false}]}, {"id": 12, "properties": [{"name": "collides", "type": "bool", "value": false}]}, {"id": 13, "properties": [{"name": "collides", "type": "bool", "value": false}]}, {"id": 14, "properties": [{"name": "collides", "type": "bool", "value": false}]}, {"id": 15, "properties": [{"name": "collides", "type": "bool", "value": false}]}, {"id": 16, "properties": [{"name": "collides", "type": "bool", "value": false}]}, {"id": 17, "properties": [{"name": "collides", "type": "bool", "value": false}]}, {"id": 18, "properties": [{"name": "collides", "type": "bool", "value": false}]}], "wangsets": [{"name": "lpc-musgo", "type": "corner", "tile": -1, "colors": [{"name": "vac\u00edo", "color": "#3a9d23", "tile": -1, "probability": 1}, {"name": "base", "color": "#8b5a2b", "tile": -1, "probability": 1}], "wangtiles": [{"tileid": 0, "wangid": [0, 1, 0, 1, 0, 1, 0, 1]}, {"tileid": 1, "wangid": [0, 1, 0, 2, 0, 1, 0, 1]}, {"tileid": 2, "wangid": [0, 1, 0, 1, 0, 2, 0, 1]}, {"tileid": 3, "wangid": [0, 1, 0, 2, 0, 2, 0, 1]}, {"tileid": 4, "wangid": [0, 2, 0, 1, 0, 1, 0, 1]}, {"tileid": 5, "wangid": [0, 2, 0, 2, 0, 1, 0, 1]}, {"tileid": 6, "wangid": [0, 2, 0, 1, 0, 2, 0, 1]}, {"tileid": 7, "wangid": [0, 2, 0, 2, 0, 2, 0, 1]}, {"tileid": 8, "wangid": [0, 1, 0, 1, 0, 1, 0, 2]}, {"tileid": 9, "wangid": [0, 1, 0, 2, 0, 1, 0, 2]}, {"tileid": 10, "wangid": [0, 1, 0, 1, 0, 2, 0, 2]}, {"tileid": 11, "wangid": [0, 1, 0, 2, 0, 2, 0, 2]}, {"tileid": 12, "wangid": [0, 2, 0, 1, 0, 1, 0, 2]}, {"tileid": 13, "wangid": [0, 2, 0, 2, 0, 1, 0, 2]}, {"tileid": 14, "wangid": [0, 2, 0, 1, 0, 2, 0, 2]}, {"tileid": 15, "wangid": [0, 2, 0, 2, 0, 2, 0, 2]}, {"tileid": 16, "wangid": [0, 2, 0, 2, 0, 2, 0, 2]}, {"tileid": 17, "wangid": [0, 2, 0, 2, 0, 2, 0, 2]}, {"tileid": 18, "wangid": [0, 2, 0, 2, 0, 2, 0, 2]}]}]}, {"firstgid": 20, "name": "lpc-hierba", "image": "../tilesets/lpc-hierba-32.png", "imagewidth": 128, "imageheight": 160, "tilewidth": 32, "tileheight": 32, "tilecount": 19, "columns": 4, "margin": 0, "spacing": 0, "tiles": [{"id": 0, "properties": [{"name": "collides", "type": "bool", "value": false}]}, {"id": 1, "properties": [{"name": "collides", "type": "bool", "value": false}]}, {"id": 2, "properties": [{"name": "collides", "type": "bool", "value": false}]}, {"id": 3, "properties": [{"name": "collides", "type": "bool", "value": false}]}, {"id": 4, "properties": [{"name": "collides", "type": "bool", "value": false}]}, {"id": 5, "properties": [{"name": "collides", "type": "bool", "value": false}]}, {"id": 6, "properties": [{"name": "collides", "type": "bool", "value": false}]}, {"id": 7, "properties": [{"name": "collides", "type": "bool", "value": false}]}, {"id": 8, "properties": [{"name": "collides", "type": "bool", "value": false}]}, {"id": 9, "properties": [{"name": "collides", "type": "bool", "value": false}]}, {"id": 10, "properties": [{"name": "collides", "type": "bool", "value": false}]}, {"id": 11, "properties": [{"name": "collides", "type": "bool", "value": false}]}, {"id": 12, "properties": [{"name": "collides", "type": "bool", "value": false}]}, {"id": 13, "properties": [{"name": "collides", "type": "bool", "value": false}]}, {"id": 14, "properties": [{"name": "collides", "type": "bool", "value": false}]}, {"id": 15, "properties": [{"name": "collides", "type": "bool", "value": false}]}, {"id": 16, "properties": [{"name": "collides", "type": "bool", "value": false}]}, {"id": 17, "properties": [{"name": "collides", "type": "bool", "value": false}]}, {"id": 18, "properties": [{"name": "collides", "type": "bool", "value": false}]}], "wangsets": [{"name": "lpc-hierba", "type": "corner", "tile": -1, "colors": [{"name": "vac\u00edo", "color": "#3a9d23", "tile": -1, "probability": 1}, {"name": "claros", "color": "#8b5a2b", "tile": -1, "probability": 1}], "wangtiles": [{"tileid": 0, "wangid": [0, 1, 0, 1, 0, 1, 0, 1]}, {"tileid": 1, "wangid": [0, 1, 0, 2, 0, 1, 0, 1]}, {"tileid": 2, "wangid": [0, 1, 0, 1, 0, 2, 0, 1]}, {"tileid": 3, "wangid": [0, 1, 0, 2, 0, 2, 0, 1]}, {"tileid": 4, "wangid": [0, 2, 0, 1, 0, 1, 0, 1]}, {"tileid": 5, "wangid": [0, 2, 0, 2, 0, 1, 0, 1]}, {"tileid": 6, "wangid": [0, 2, 0, 1, 0, 2, 0, 1]}, {"tileid": 7, "wangid": [0, 2, 0, 2, 0, 2, 0, 1]}, {"tileid": 8, "wangid": [0, 1, 0, 1, 0, 1, 0, 2]}, {"tileid": 9, "wangid": [0, 1, 0, 2, 0, 1, 0, 2]}, {"tileid": 10, "wangid": [0, 1, 0, 1, 0, 2, 0, 2]}, {"tileid": 11, "wangid": [0, 1, 0, 2, 0, 2, 0, 2]}, {"tileid": 12, "wangid": [0, 2, 0, 1, 0, 1, 0, 2]}, {"tileid": 13, "wangid": [0, 2, 0, 2, 0, 1, 0, 2]}, {"tileid": 14, "wangid": [0, 2, 0, 1, 0, 2, 0, 2]}, {"tileid": 15, "wangid": [0, 2, 0, 2, 0, 2, 0, 2]}, {"tileid": 16, "wangid": [0, 2, 0, 2, 0, 2, 0, 2]}, {"tileid": 17, "wangid": [0, 2, 0, 2, 0, 2, 0, 2]}, {"tileid": 18, "wangid": [0, 2, 0, 2, 0, 2, 0, 2]}]}]}, {"firstgid": 39, "name": "lpc-camino", "image": "../tilesets/lpc-camino-32.png", "imagewidth": 128, "imageheight": 160, "tilewidth": 32, "tileheight": 32, "tilecount": 19, "columns": 4, "margin": 0, "spacing": 0, "tiles": [{"id": 0, "properties": [{"name": "collides", "type": "bool", "value": false}]}, {"id": 1, "properties": [{"name": "collides", "type": "bool", "value": false}]}, {"id": 2, "properties": [{"name": "collides", "type": "bool", "value": false}]}, {"id": 3, "properties": [{"name": "collides", "type": "bool", "value": false}]}, {"id": 4, "properties": [{"name": "collides", "type": "bool", "value": false}]}, {"id": 5, "properties": [{"name": "collides", "type": "bool", "value": false}]}, {"id": 6, "properties": [{"name": "collides", "type": "bool", "value": false}]}, {"id": 7, "properties": [{"name": "collides", "type": "bool", "value": false}]}, {"id": 8, "properties": [{"name": "collides", "type": "bool", "value": false}]}, {"id": 9, "properties": [{"name": "collides", "type": "bool", "value": false}]}, {"id": 10, "properties": [{"name": "collides", "type": "bool", "value": false}]}, {"id": 11, "properties": [{"name": "collides", "type": "bool", "value": false}]}, {"id": 12, "properties": [{"name": "collides", "type": "bool", "value": false}]}, {"id": 13, "properties": [{"name": "collides", "type": "bool", "value": false}]}, {"id": 14, "properties": [{"name": "collides", "type": "bool", "value": false}]}, {"id": 15, "properties": [{"name": "collides", "type": "bool", "value": false}]}, {"id": 16, "properties": [{"name": "collides", "type": "bool", "value": false}]}, {"id": 17, "properties": [{"name": "collides", "type": "bool", "value": false}]}, {"id": 18, "properties": [{"name": "collides", "type": "bool", "value": false}]}], "wangsets": [{"name": "lpc-camino", "type": "corner", "tile": -1, "colors": [{"name": "vac\u00edo", "color": "#3a9d23", "tile": -1, "probability": 1}, {"name": "sendero", "color": "#8b5a2b", "tile": -1, "probability": 1}], "wangtiles": [{"tileid": 0, "wangid": [0, 1, 0, 1, 0, 1, 0, 1]}, {"tileid": 1, "wangid": [0, 1, 0, 2, 0, 1, 0, 1]}, {"tileid": 2, "wangid": [0, 1, 0, 1, 0, 2, 0, 1]}, {"tileid": 3, "wangid": [0, 1, 0, 2, 0, 2, 0, 1]}, {"tileid": 4, "wangid": [0, 2, 0, 1, 0, 1, 0, 1]}, {"tileid": 5, "wangid": [0, 2, 0, 2, 0, 1, 0, 1]}, {"tileid": 6, "wangid": [0, 2, 0, 1, 0, 2, 0, 1]}, {"tileid": 7, "wangid": [0, 2, 0, 2, 0, 2, 0, 1]}, {"tileid": 8, "wangid": [0, 1, 0, 1, 0, 1, 0, 2]}, {"tileid": 9, "wangid": [0, 1, 0, 2, 0, 1, 0, 2]}, {"tileid": 10, "wangid": [0, 1, 0, 1, 0, 2, 0, 2]}, {"tileid": 11, "wangid": [0, 1, 0, 2, 0, 2, 0, 2]}, {"tileid": 12, "wangid": [0, 2, 0, 1, 0, 1, 0, 2]}, {"tileid": 13, "wangid": [0, 2, 0, 2, 0, 1, 0, 2]}, {"tileid": 14, "wangid": [0, 2, 0, 1, 0, 2, 0, 2]}, {"tileid": 15, "wangid": [0, 2, 0, 2, 0, 2, 0, 2]}, {"tileid": 16, "wangid": [0, 2, 0, 2, 0, 2, 0, 2]}, {"tileid": 17, "wangid": [0, 2, 0, 2, 0, 2, 0, 2]}, {"tileid": 18, "wangid": [0, 2, 0, 2, 0, 2, 0, 2]}]}]}, {"firstgid": 58, "name": "lpc-agua", "image": "../tilesets/lpc-agua-32.png", "imagewidth": 128, "imageheight": 160, "tilewidth": 32, "tileheight": 32, "tilecount": 19, "columns": 4, "margin": 0, "spacing": 0, "tiles": [{"id": 0, "properties": [{"name": "collides", "type": "bool", "value": false}]}, {"id": 1, "properties": [{"name": "collides", "type": "bool", "value": false}]}, {"id": 2, "properties": [{"name": "collides", "type": "bool", "value": false}]}, {"id": 3, "properties": [{"name": "collides", "type": "bool", "value": true}]}, {"id": 4, "properties": [{"name": "collides", "type": "bool", "value": false}]}, {"id": 5, "properties": [{"name": "collides", "type": "bool", "value": true}]}, {"id": 6, "properties": [{"name": "collides", "type": "bool", "value": true}]}, {"id": 7, "properties": [{"name": "collides", "type": "bool", "value": true}]}, {"id": 8, "properties": [{"name": "collides", "type": "bool", "value": false}]}, {"id": 9, "properties": [{"name": "collides", "type": "bool", "value": true}]}, {"id": 10, "properties": [{"name": "collides", "type": "bool", "value": true}]}, {"id": 11, "properties": [{"name": "collides", "type": "bool", "value": true}]}, {"id": 12, "properties": [{"name": "collides", "type": "bool", "value": true}]}, {"id": 13, "properties": [{"name": "collides", "type": "bool", "value": true}]}, {"id": 14, "properties": [{"name": "collides", "type": "bool", "value": true}]}, {"id": 15, "properties": [{"name": "collides", "type": "bool", "value": true}]}, {"id": 16, "properties": [{"name": "collides", "type": "bool", "value": true}]}, {"id": 17, "properties": [{"name": "collides", "type": "bool", "value": true}]}, {"id": 18, "properties": [{"name": "collides", "type": "bool", "value": true}]}], "wangsets": [{"name": "lpc-agua", "type": "corner", "tile": -1, "colors": [{"name": "vac\u00edo", "color": "#3a9d23", "tile": -1, "probability": 1}, {"name": "barranco", "color": "#8b5a2b", "tile": -1, "probability": 1}], "wangtiles": [{"tileid": 0, "wangid": [0, 1, 0, 1, 0, 1, 0, 1]}, {"tileid": 1, "wangid": [0, 1, 0, 2, 0, 1, 0, 1]}, {"tileid": 2, "wangid": [0, 1, 0, 1, 0, 2, 0, 1]}, {"tileid": 3, "wangid": [0, 1, 0, 2, 0, 2, 0, 1]}, {"tileid": 4, "wangid": [0, 2, 0, 1, 0, 1, 0, 1]}, {"tileid": 5, "wangid": [0, 2, 0, 2, 0, 1, 0, 1]}, {"tileid": 6, "wangid": [0, 2, 0, 1, 0, 2, 0, 1]}, {"tileid": 7, "wangid": [0, 2, 0, 2, 0, 2, 0, 1]}, {"tileid": 8, "wangid": [0, 1, 0, 1, 0, 1, 0, 2]}, {"tileid": 9, "wangid": [0, 1, 0, 2, 0, 1, 0, 2]}, {"tileid": 10, "wangid": [0, 1, 0, 1, 0, 2, 0, 2]}, {"tileid": 11, "wangid": [0, 1, 0, 2, 0, 2, 0, 2]}, {"tileid": 12, "wangid": [0, 2, 0, 1, 0, 1, 0, 2]}, {"tileid": 13, "wangid": [0, 2, 0, 2, 0, 1, 0, 2]}, {"tileid": 14, "wangid": [0, 2, 0, 1, 0, 2, 0, 2]}, {"tileid": 15, "wangid": [0, 2, 0, 2, 0, 2, 0, 2]}, {"tileid": 16, "wangid": [0, 2, 0, 2, 0, 2, 0, 2]}, {"tileid": 17, "wangid": [0, 2, 0, 2, 0, 2, 0, 2]}, {"tileid": 18, "wangid": [0, 2, 0, 2, 0, 2, 0, 2]}]}]}], "layers": [{"id": 1, "name": "Below Player", "type": "tilelayer", "x": 0, "y": 0, "width": 70, "height": 45, "opacity": 1, "visible": true, "data": [16, 16, 18, 19, 16, 19, 16, 16, 16, 16, 16, 16, 16, 16, 16, 16, 16, 16, 16, 17, 16, 16, 19, 19, 16, 18, 18, 16, 16, 16, 18, 16, 18, 18, 16, 19, 16, 19, 16, 18, 16, 16, 19, 16, 16, 16, 16, 17, 16, 19, 16, 16, 16, 18, 16, 16, 16, 18, 16, 16, 17, 16, 18, 16, 16, 19, 17, 17, 16, 16, 16, 18, 16, 17, 16, 16, 17, 18, 16, 16, 16, 19, 16, 16, 16, 16, 18, 16, 16, 16, 16, 16, 16, 16, 16, 16, 16, 16, 16, 16, 16, 16, 17, 16, 19, 16, 16, 17, 16, 16, 16, 16, 16, 16, 16, 16, 17, 16, 16, 16, 16, 16, 18, 17, 16, 16, 16, 19, 16, 16, 16, 16, 17, 16, 18, 16, 18, 16, 16, 16, 17, 17, 18, 16, 17, 16, 19, 16, 16, 16, 16, 18, 19, 18, 16, 17, 16, 17, 18, 16, 17, 17, 16, 16, 16, 16, 17, 18, 18, 16, 17, 19, 16, 19, 18, 16, 17, 16, 16, 16, 16, 17, 16, 16, 18, 16, 16, 19, 16, 16, 18, 16, 16, 16, 16, 16, 16, 16, 17, 18, 17, 16, 16, 16, 19, 16, 19, 16, 19, 16, 16, 18, 16, 16, 16, 16, 17, 18, 16, 17, 16, 18, 16, 19, 19, 16, 19, 19, 16, 16, 16, 17, 17, 18, 16, 16, 16, 16, 19, 17, 16, 19, 16, 18, 16, 17, 17, 18, 16, 16, 16, 16, 17, 16, 16, 16, 17, 16, 16, 16, 16, 17, 16, 17, 16, 16, 16, 16, 16, 17, 16, 17, 17, 18, 16, 18, 16, 19, 16, 16, 16, 16, 16, 18, 19, 19, 17, 19, 16, 18, 19, 19, 16, 16, 16, 16, 16, 18, 18, 18, 16, 16, 16, 16, 16, 16, 17, 19, 16, 16, 16, 16, 19, 18, 17, 16, 16, 16, 16, 17, 19, 16, 16, 16, 16, 16, 16, 16, 16, 16, 16, 16, 16, 16, 19, 16, 16, 16, 16, 16, 19, 16, 17, 16, 19, 16, 16, 16, 16, 19, 18, 16, 16, 16, 16, 19, 18, 16, 17, 16, 16, 19, 19, 19, 18, 16, 16, 16, 19, 19, 19, 16, 16, 18, 16, 19, 18, 16, 16, 19, 16, 18, 16, 18, 16, 16, 16, 16, 16, 16, 16, 16, 18, 16, 16, 16, 16, 18, 16, 16, 16, 16, 16, 16, 18, 18, 16, 16, 17, 16, 16, 16, 17, 17, 17, 18, 19, 18, 16, 16, 16, 16, 18, 19, 19, 16, 16, 17, 16, 16, 18, 16, 18, 16, 16, 16, 19, 16, 17, 16, 16, 16, 16, 18, 16, 16, 16, 16, 16, 16, 19, 16, 18, 16, 16, 16, 17, 16, 16, 19, 16, 19, 16, 16, 16, 16, 16, 18, 16, 16, 17, 16, 16, 18, 16, 18, 16, 16, 16, 18, 16, 16, 16, 16, 16, 16, 19, 16, 16, 16, 16, 16, 16, 16, 16, 18, 17, 19, 19, 16, 17, 16, 18, 16, 16, 16, 16, 16, 16, 16, 19, 16, 16, 19, 19, 16, 16, 16, 18, 16, 16, 17, 16, 18, 18, 16, 18, 16, 16, 18, 16, 16, 16, 16, 16, 16, 16, 16, 16, 16, 19, 17, 16, 16, 16, 16, 19, 16, 16, 17, 16, 17, 18, 16, 18, 18, 16, 16, 16, 18, 16, 16, 16, 16, 18, 16, 16, 16, 16, 16, 16, 18, 17, 17, 16, 16, 16, 19, 16, 16, 17, 16, 16, 19, 16, 18, 16, 16, 17, 16, 16, 16, 16, 16, 16, 18, 19, 17, 16, 19, 16, 18, 16, 16, 16, 16, 16, 18, 16, 16, 16, 16, 18, 17, 16, 16, 16, 17, 16, 16, 18, 16, 16, 16, 16, 17, 18, 16, 16, 16, 19, 16, 17, 18, 16, 17, 16, 16, 16, 16, 16, 16, 16, 19, 16, 19, 16, 16, 16, 16, 16, 17, 19, 16, 17, 17, 18, 16, 17, 16, 17, 16, 16, 16, 18, 16, 16, 16, 19, 16, 16, 16, 17, 16, 16, 16, 17, 18, 16, 16, 17, 16, 19, 16, 16, 16, 16, 16, 16, 16, 19, 17, 19, 16, 18, 16, 16, 19, 16, 18, 16, 18, 16, 16, 16, 16, 16, 16, 16, 16, 16, 16, 16, 16, 16, 16, 19, 18, 16, 16, 16, 16, 17, 18, 16, 17, 17, 16, 17, 16, 16, 18, 16, 17, 16, 16, 17, 19, 18, 19, 17, 16, 16, 17, 16, 18, 16, 19, 16, 19, 16, 17, 16, 16, 19, 16, 16, 16, 16, 16, 16, 16, 16, 16, 17, 17, 16, 16, 16, 16, 16, 19, 16, 17, 16, 18, 16, 16, 17, 16, 16, 19, 19, 17, 16, 16, 16, 16, 16, 17, 16, 16, 16, 16, 16, 19, 17, 16, 16, 16, 16, 16, 16, 16, 17, 18, 19, 16, 16, 16, 17, 16, 17, 17, 18, 16, 16, 19, 16, 16, 19, 16, 19, 19, 16, 18, 18, 16, 18, 19, 16, 16, 16, 16, 19, 16, 16, 16, 16, 19, 18, 18, 18, 19, 17, 16, 16, 16, 16, 16, 16, 16, 16, 18, 16, 16, 16, 16, 16, 16, 18, 16, 16, 18, 16, 16, 19, 16, 16, 16, 16, 16, 16, 18, 17, 19, 19, 18, 18, 18, 16, 17, 19, 16, 16, 19, 19, 19, 16, 19, 16, 16, 16, 18, 18, 16, 19, 18, 17, 16, 18, 16, 19, 16, 16, 19, 16, 17, 16, 19, 17, 16, 16, 16, 16, 16, 16, 16, 16, 16, 16, 16, 17, 16, 19, 16, 16, 17, 16, 17, 16, 17, 18, 19, 19, 16, 16, 17, 18, 16, 17, 16, 17, 16, 16, 18, 16, 16, 18, 16, 16, 16, 16, 16, 16, 16, 16, 18, 17, 16, 16, 16, 17, 17, 16, 16, 18, 17, 16, 16, 19, 19, 16, 16, 16, 16, 16, 16, 19, 19, 19, 16, 16, 16, 16, 16, 17, 16, 16, 16, 16, 16, 16, 16, 16, 16, 16, 16, 18, 16, 19, 16, 16, 19, 16, 18, 16, 16, 16, 16, 16, 16, 16, 17, 18, 16, 18, 16, 16, 16, 19, 19, 19, 16, 16, 16, 16, 18, 16, 16, 16, 17, 16, 16, 17, 16, 16, 16, 18, 17, 17, 16, 16, 16, 16, 16, 16, 18, 17, 16, 16, 18, 16, 16, 16, 17, 16, 16, 16, 17, 16, 17, 16, 19, 18, 17, 16, 16, 16, 17, 16, 19, 16, 16, 16, 16, 16, 16, 16, 16, 16, 16, 16, 16, 18, 18, 16, 16, 19, 16, 17, 16, 16, 17, 17, 16, 19, 17, 18, 16, 16, 16, 18, 17, 16, 16, 16, 18, 18, 19, 18, 16, 16, 18, 16, 16, 17, 16, 17, 16, 16, 17, 16, 16, 16, 17, 18, 19, 16, 19, 16, 19, 16, 16, 19, 16, 16, 16, 16, 16, 16, 19, 18, 16, 17, 19, 16, 16, 16, 19, 18, 16, 18, 16, 18, 16, 16, 16, 16, 16, 16, 16, 16, 19, 18, 17, 16, 16, 18, 19, 18, 16, 16, 18, 18, 16, 17, 19, 16, 16, 16, 16, 16, 16, 18, 18, 16, 16, 16, 19, 16, 16, 18, 19, 17, 18, 16, 16, 16, 16, 19, 18, 16, 16, 19, 17, 19, 16, 17, 19, 16, 19, 16, 16, 19, 16, 16, 17, 18, 16, 16, 16, 17, 17, 16, 16, 16, 16, 16, 17, 18, 18, 16, 16, 18, 16, 16, 16, 16, 16, 16, 16, 19, 16, 16, 16, 16, 16, 18, 16, 16, 16, 19, 19, 16, 16, 16, 16, 16, 17, 16, 16, 18, 18, 16, 16, 16, 16, 16, 16, 16, 18, 16, 16, 18, 16, 16, 16, 16, 19, 16, 16, 17, 16, 19, 16, 16, 16, 17, 19, 16, 16, 19, 18, 16, 17, 16, 16, 16, 18, 18, 16, 16, 17, 16, 16, 16, 19, 18, 18, 19, 18, 19, 16, 16, 19, 16, 19, 19, 19, 16, 19, 17, 16, 16, 16, 17, 16, 19, 18, 16, 19, 16, 19, 16, 18, 16, 18, 19, 16, 18, 18, 18, 16, 16, 17, 16, 16, 16, 16, 18, 16, 16, 16, 16, 19, 17, 16, 16, 16, 16, 16, 19, 17, 16, 16, 16, 16, 16, 16, 18, 16, 16, 17, 16, 16, 18, 18, 17, 16, 16, 16, 16, 16, 16, 18, 16, 18, 16, 16, 16, 16, 16, 18, 16, 16, 16, 18, 16, 16, 16, 16, 16, 16, 19, 17, 16, 16, 16, 17, 16, 16, 16, 19, 16, 16, 17, 18, 16, 16, 16, 16, 18, 16, 16, 16, 16, 17, 16, 16, 18, 16, 16, 18, 16, 18, 16, 16, 16, 16, 16, 16, 16, 16, 18, 18, 16, 16, 18, 16, 19, 18, 19, 16, 17, 16, 17, 16, 19, 18, 19, 16, 16, 16, 16, 16, 17, 16, 19, 16, 16, 19, 16, 16, 16, 17, 16, 18, 16, 17, 16, 16, 16, 16, 16, 17, 16, 18, 19, 17, 16, 17, 18, 18, 16, 16, 19, 19, 16, 19, 16, 16, 16, 16, 17, 16, 16, 17, 16, 19, 16, 16, 16, 16, 16, 16, 16, 16, 16, 19, 16, 17, 16, 17, 16, 16, 16, 16, 16, 17, 16, 16, 16, 16, 16, 19, 19, 17, 16, 16, 16, 16, 17, 16, 18, 16, 18, 16, 16, 16, 18, 17, 16, 16, 19, 17, 17, 16, 18, 16, 19, 16, 16, 18, 16, 16, 17, 16, 16, 18, 19, 18, 16, 16, 16, 17, 16, 16, 16, 19, 16, 18, 17, 16, 16, 17, 16, 16, 17, 16, 16, 18, 16, 17, 16, 17, 16, 17, 16, 16, 18, 17, 16, 16, 16, 18, 16, 16, 18, 16, 16, 16, 19, 19, 18, 19, 16, 16, 16, 16, 16, 16, 19, 16, 16, 16, 19, 17, 16, 17, 17, 16, 16, 16, 16, 16, 19, 16, 18, 16, 16, 16, 16, 16, 18, 19, 16, 17, 16, 16, 16, 16, 16, 16, 17, 16, 16, 17, 17, 16, 16, 19, 16, 17, 17, 16, 16, 16, 16, 16, 16, 18, 16, 16, 17, 16, 16, 16, 19, 17, 16, 16, 19, 19, 16, 18, 16, 16, 16, 18, 18, 16, 18, 16, 17, 16, 19, 16, 18, 16, 16, 16, 16, 19, 16, 19, 17, 16, 16, 16, 16, 19, 17, 18, 17, 16, 16, 16, 16, 16, 16, 16, 16, 17, 19, 19, 19, 16, 16, 17, 19, 16, 16, 18, 16, 16, 16, 16, 17, 16, 19, 16, 16, 17, 19, 17, 16, 18, 16, 16, 18, 16, 17, 16, 16, 19, 18, 16, 16, 16, 19, 16, 19, 17, 18, 16, 16, 16, 16, 19, 16, 16, 16, 17, 18, 19, 16, 17, 17, 19, 16, 16, 18, 18, 16, 16, 16, 19, 16, 16, 16, 17, 19, 16, 16, 16, 16, 16, 16, 16, 18, 17, 17, 16, 18, 17, 16, 16, 16, 16, 18, 17, 18, 16, 16, 16, 16, 19, 16, 16, 16, 16, 16, 16, 19, 17, 16, 16, 18, 16, 19, 16, 17, 16, 16, 16, 16, 16, 18, 16, 16, 18, 16, 17, 18, 16, 16, 16, 16, 16, 17, 16, 16, 16, 16, 16, 16, 16, 16, 16, 16, 16, 16, 16, 17, 16, 19, 16, 18, 16, 19, 19, 17, 16, 19, 16, 18, 16, 16, 17, 18, 16, 16, 16, 18, 16, 16, 16, 19, 16, 16, 16, 16, 19, 17, 16, 19, 16, 16, 18, 16, 18, 16, 16, 18, 19, 16, 16, 16, 18, 16, 16, 16, 18, 19, 18, 16, 16, 18, 16, 16, 16, 16, 16, 17, 16, 18, 19, 19, 16, 16, 17, 16, 19, 16, 16, 17, 19, 16, 18, 18, 16, 16, 16, 16, 16, 16, 16, 16, 18, 16, 16, 16, 16, 16, 16, 16, 16, 16, 19, 16, 17, 16, 16, 16, 16, 16, 18, 16, 16, 16, 19, 17, 18, 17, 16, 16, 19, 16, 16, 17, 16, 19, 16, 16, 16, 16, 19, 16, 16, 16, 16, 16, 16, 16, 16, 19, 16, 18, 16, 16, 16, 16, 18, 16, 16, 16, 16, 19, 16, 19, 16, 16, 16, 16, 16, 16, 18, 18, 16, 16, 19, 19, 16, 16, 19, 16, 16, 16, 17, 17, 18, 16, 16, 16, 16, 16, 16, 16, 16, 16, 19, 16, 18, 16, 19, 16, 19, 19, 19, 19, 16, 17, 16, 16, 17, 16, 16, 16, 16, 16, 16, 19, 16, 17, 16, 19, 16, 16, 19, 16, 16, 16, 16, 16, 16, 17, 16, 17, 16, 16, 16, 16, 16, 16, 16, 16, 18, 16, 16, 16, 17, 19, 17, 16, 16, 16, 16, 16, 16, 16, 17, 16, 17, 16, 17, 17, 18, 16, 17, 16, 16, 17, 16, 16, 16, 19, 16, 16, 17, 16, 19, 16, 16, 17, 19, 18, 18, 16, 16, 16, 16, 16, 16, 16, 19, 19, 16, 16, 16, 16, 16, 19, 19, 16, 18, 16, 16, 16, 16, 16, 19, 19, 16, 16, 16, 16, 16, 16, 17, 16, 16, 19, 18, 16, 19, 17, 19, 18, 16, 16, 16, 16, 19, 16, 16, 16, 16, 16, 16, 16, 16, 16, 16, 19, 19, 16, 17, 16, 17, 16, 16, 19, 16, 16, 17, 16, 19, 17, 19, 16, 16, 16, 16, 19, 18, 19, 19, 16, 17, 17, 19, 16, 16, 17, 19, 16, 17, 16, 19, 19, 16, 19, 16, 16, 16, 16, 16, 17, 16, 16, 17, 16, 16, 16, 16, 16, 18, 16, 16, 17, 16, 16, 16, 19, 19, 16, 18, 18, 17, 16, 17, 17, 16, 16, 17, 19, 18, 18, 16, 18, 18, 16, 16, 16, 16, 16, 16, 17, 16, 16, 19, 16, 16, 17, 19, 18, 16, 16, 16, 16, 17, 16, 17, 16, 16, 17, 16, 16, 16, 16, 16, 16, 16, 16, 17, 16, 18, 16, 17, 16, 16, 17, 16, 16, 16, 16, 19, 19, 16, 17, 18, 19, 19, 16, 16, 19, 16, 17, 16, 19, 16, 16, 19, 16, 16, 16, 16, 18, 16, 16, 16, 17, 16, 19, 16, 16, 19, 16, 16, 16, 17, 16, 16, 16, 16, 16, 19, 16, 16, 16, 19, 16, 16, 16, 19, 16, 16, 17, 17, 16, 16, 16, 16, 19, 19, 17, 16, 16, 16, 19, 17, 19, 16, 16, 19, 16, 16, 16, 16, 16, 19, 16, 16, 18, 16, 18, 16, 16, 19, 18, 16, 16, 16, 16, 16, 18, 18, 16, 18, 17, 16, 17, 16, 16, 18, 17, 16, 16, 18, 16, 16, 16, 16, 19, 16, 16, 16, 19, 17, 19, 16, 16, 17, 16, 16, 19, 17, 16, 17, 16, 16, 16, 17, 18, 17, 16, 16, 16, 17, 17, 16, 18, 16, 16, 16, 19, 16, 16, 16, 16, 16, 19, 16, 18, 19, 16, 16, 16, 16, 16, 16, 19, 18, 16, 16, 17, 16, 17, 17, 16, 16, 19, 16, 19, 16, 16, 18, 17, 16, 16, 16, 16, 16, 16, 16, 16, 19, 19, 16, 18, 16, 17, 18, 16, 16, 16, 16, 17, 19, 16, 17, 16, 16, 19, 16, 16, 18, 16, 16, 18, 16, 16, 16, 16, 17, 18, 16, 16, 16, 18, 16, 19, 16, 16, 16, 16, 16, 19, 16, 16, 16, 16, 16, 16, 18, 16, 16, 16, 17, 16, 19, 16, 16, 18, 16, 18, 18, 17, 16, 17, 17, 19, 18, 19, 17, 16, 16, 16, 16, 16, 16, 16, 16, 17, 17, 16, 16, 16, 16, 16, 19, 16, 16, 18, 16, 19, 16, 18, 16, 19, 16, 16, 16, 18, 18, 16, 18, 16, 17, 16, 18, 16, 16, 16, 16, 16, 16, 16, 16, 16, 16, 16, 16, 16, 16, 16, 19, 16, 16, 16, 16, 19, 18, 16, 16, 16, 16, 16, 16, 16, 16, 16, 16, 16, 18, 16, 16, 17, 19, 16, 16, 16, 16, 16, 16, 16, 16, 16, 18, 18, 16, 17, 19, 16, 18, 16, 17, 16, 19, 18, 16, 16, 17, 16, 16, 17, 16, 19, 19, 18, 18, 16, 16, 16, 16, 16, 19, 16, 16, 16, 16, 16, 16, 16, 16, 16, 16, 16, 16, 16, 16, 16, 16, 16, 16, 16, 17, 16, 16, 16, 16, 16, 16, 16, 16, 16, 16, 16, 16, 16, 16, 16, 16, 16, 17, 16, 16, 17, 19, 18, 16, 19, 16, 18, 16, 16, 16, 16, 16, 19, 16, 16, 16, 19, 16, 16, 17, 16, 19, 16, 19, 17, 16, 19, 16, 16, 18, 16, 16, 16, 19, 17, 16, 16, 19, 16, 19, 16, 17, 16, 16, 16, 16, 17, 17, 19, 18, 16, 16, 16, 16, 19, 16, 16, 19, 16, 19, 17, 16, 16, 16, 16, 16, 17, 16, 16, 16, 18, 16, 16, 16, 16, 19, 17, 16, 16, 16, 16, 16, 16, 16, 17, 18, 16, 16, 19, 17, 18, 16, 19, 16, 16, 18, 17, 16, 16, 16, 18, 19, 16, 17, 16, 18, 16, 16, 17, 16, 16, 16, 16, 17, 16, 16, 18, 16, 16, 16, 16, 16, 16, 16, 16, 16, 18, 16, 19, 18, 16, 16, 16, 16, 16, 16, 16, 16, 18, 16, 19, 16, 16, 16, 17, 16, 17, 16, 17, 18, 16, 19, 18, 16, 19, 16, 16, 16, 16, 16, 16, 19, 16, 16, 16, 16, 16, 16, 16, 16, 16, 16, 18, 16, 18, 16, 17, 16, 16, 16, 16, 16, 16, 17, 16, 16, 16, 17, 16, 16, 16, 19, 16, 16, 16, 16, 16, 16, 16, 16, 16, 16, 17, 16, 16, 17, 16, 16, 16, 16, 16, 16, 16, 18, 18, 18, 19, 16, 16, 16, 16, 16, 19, 16, 18, 17, 16, 18, 17, 16, 16, 16, 16, 18, 16, 19, 18, 16, 16, 19, 16, 16, 17, 17, 16, 16, 16, 17, 16, 16, 16, 16, 17, 16, 19, 17, 18, 16, 19, 16, 16, 16, 17, 16, 17, 19, 16, 16, 16, 18, 16, 16, 16, 16, 18, 16, 17, 16, 18, 16, 19, 19, 18, 17, 16, 16, 16, 17, 18, 16, 16, 18, 16, 16, 16, 17, 18, 16, 16, 16, 19, 17, 16, 16, 16, 16, 16, 19, 16, 16, 19, 16, 16, 16, 16, 16, 16, 16, 17, 16, 16, 16, 18, 16, 18, 18, 16, 16, 19, 17, 16, 19, 18, 16, 16, 18, 16, 16, 19, 18, 18, 16, 16, 19, 16, 16, 16, 16, 17, 16, 16, 18, 19, 16, 17, 16, 16, 17, 16, 16, 19, 19, 16, 16, 17, 18, 17, 16, 16, 16, 16, 16, 17, 19, 16, 16, 18, 16, 16, 16, 18, 16, 16, 16, 18, 16, 16, 16, 16, 17, 17, 16, 16, 16, 16, 19, 16, 16, 16, 16, 16, 19, 16, 16, 18, 18, 16, 16, 16, 16, 16, 16, 16, 16, 16, 19, 19, 16, 16, 18, 16, 19, 16, 17, 16, 18, 16, 19, 16, 16, 19, 19, 16, 19, 16, 19, 19, 16, 17, 16, 16, 16]}, {"id": 2, "name": "claros", "type": "tilelayer", "x": 0, "y": 0, "width": 70, "height": 45, "opacity": 1, "visible": true, "data": [0, 0, 0, 0, 0, 0, 0, 0, 0, 0, 0, 0, 0, 0, 0, 0, 0, 0, 0, 0, 0, 0, 0, 0, 0, 0, 0, 0, 0, 0, 0, 0, 0, 0, 0, 0, 0, 0, 0, 0, 0, 0, 0, 0, 0, 0, 0, 0, 24, 32, 32, 32, 28, 0, 0, 0, 0, 0, 0, 0, 0, 0, 0, 0, 0, 0, 0, 0, 0, 0, 0, 0, 0, 0, 0, 0, 0, 0, 0, 0, 0, 0, 0, 0, 0, 0, 0, 0, 0, 0, 0, 0, 0, 0, 0, 0, 0, 0, 0, 0, 0, 0, 0, 0, 0, 0, 0, 0, 0, 0, 0, 0, 0, 0, 0, 0, 0, 0, 0, 0, 0, 0, 0, 0, 0, 0, 0, 0, 0, 0, 0, 0, 0, 0, 0, 0, 0, 0, 0, 0, 0, 0, 0, 0, 0, 0, 0, 0, 0, 0, 0, 0, 0, 0, 0, 0, 0, 0, 0, 0, 0, 0, 0, 0, 0, 0, 0, 0, 0, 0, 0, 0, 21, 23, 23, 23, 23, 22, 0, 0, 0, 0, 0, 0, 0, 0, 0, 0, 0, 0, 0, 0, 0, 0, 0, 0, 0, 0, 0, 0, 0, 0, 0, 0, 0, 0, 0, 0, 0, 0, 0, 0, 0, 0, 0, 0, 0, 0, 0, 0, 0, 0, 0, 0, 0, 0, 0, 0, 0, 0, 0, 0, 0, 0, 0, 0, 0, 0, 0, 0, 0, 21, 27, 35, 36, 35, 35, 31, 22, 0, 0, 0, 0, 0, 0, 0, 0, 0, 0, 0, 0, 0, 0, 0, 0, 0, 0, 0, 0, 0, 0, 0, 0, 0, 0, 0, 0, 0, 0, 0, 0, 0, 0, 0, 0, 0, 0, 0, 0, 0, 0, 0, 0, 0, 0, 0, 0, 0, 0, 0, 0, 0, 0, 0, 0, 0, 0, 0, 0, 0, 21, 27, 35, 36, 35, 36, 38, 36, 31, 22, 0, 0, 0, 0, 0, 0, 0, 0, 0, 0, 0, 0, 0, 0, 0, 0, 0, 0, 0, 0, 0, 0, 0, 0, 0, 0, 0, 0, 0, 0, 0, 0, 0, 0, 0, 0, 0, 0, 0, 0, 0, 0, 0, 0, 0, 0, 0, 0, 0, 0, 0, 0, 0, 0, 0, 0, 0, 0, 0, 0, 25, 35, 35, 37, 37, 37, 35, 38, 37, 30, 0, 0, 0, 0, 0, 0, 0, 0, 0, 0, 0, 0, 0, 0, 0, 0, 0, 0, 0, 0, 0, 0, 0, 0, 0, 0, 0, 0, 0, 0, 0, 0, 0, 0, 0, 0, 0, 0, 0, 0, 0, 0, 0, 0, 0, 0, 0, 0, 0, 0, 0, 0, 0, 0, 0, 0, 0, 0, 0, 0, 25, 35, 35, 35, 36, 38, 35, 35, 37, 30, 0, 0, 0, 0, 0, 0, 0, 0, 0, 0, 0, 0, 0, 0, 0, 0, 0, 0, 0, 0, 0, 0, 0, 0, 0, 0, 0, 0, 0, 0, 0, 0, 0, 0, 0, 0, 0, 0, 0, 0, 0, 0, 0, 0, 0, 0, 0, 0, 0, 0, 0, 0, 0, 0, 0, 0, 0, 0, 0, 0, 25, 35, 35, 37, 35, 35, 35, 35, 35, 30, 0, 0, 0, 0, 0, 0, 0, 0, 0, 0, 0, 0, 0, 0, 0, 0, 0, 0, 0, 0, 0, 0, 0, 0, 0, 0, 0, 0, 0, 0, 0, 0, 0, 0, 0, 0, 0, 0, 0, 0, 0, 0, 0, 0, 0, 0, 0, 0, 0, 0, 0, 0, 0, 0, 0, 0, 0, 0, 0, 0, 25, 35, 36, 35, 36, 38, 35, 35, 35, 30, 0, 0, 0, 0, 0, 0, 0, 0, 0, 0, 0, 0, 0, 0, 0, 0, 0, 0, 0, 0, 0, 0, 0, 0, 0, 0, 0, 0, 0, 0, 0, 0, 0, 0, 0, 0, 0, 0, 0, 0, 0, 0, 0, 0, 0, 0, 0, 0, 0, 0, 0, 0, 0, 0, 0, 0, 0, 0, 0, 0, 24, 33, 37, 35, 35, 35, 35, 35, 34, 28, 0, 0, 0, 0, 0, 0, 0, 0, 0, 0, 0, 0, 0, 0, 0, 0, 0, 0, 0, 0, 0, 0, 0, 0, 0, 0, 0, 0, 0, 0, 0, 0, 0, 0, 0, 0, 0, 0, 0, 0, 0, 0, 0, 0, 0, 0, 0, 0, 0, 0, 0, 0, 0, 0, 0, 0, 0, 0, 0, 0, 0, 24, 33, 35, 37, 35, 36, 34, 28, 0, 0, 0, 0, 0, 0, 0, 0, 0, 0, 0, 0, 0, 0, 0, 0, 0, 0, 0, 0, 0, 0, 0, 0, 0, 0, 0, 0, 0, 0, 0, 0, 0, 0, 0, 0, 0, 0, 0, 0, 0, 0, 0, 0, 0, 0, 0, 0, 0, 0, 0, 0, 0, 0, 0, 0, 0, 0, 0, 21, 23, 23, 23, 26, 32, 32, 32, 32, 28, 0, 0, 0, 0, 0, 0, 0, 0, 0, 0, 0, 0, 0, 0, 0, 0, 0, 0, 0, 0, 0, 0, 0, 0, 0, 0, 0, 0, 0, 0, 0, 0, 0, 0, 0, 0, 0, 0, 0, 0, 0, 0, 0, 0, 0, 0, 0, 0, 0, 0, 0, 0, 0, 0, 0, 0, 0, 0, 0, 21, 27, 36, 35, 35, 31, 22, 0, 0, 0, 0, 0, 0, 0, 0, 0, 0, 0, 0, 0, 0, 0, 0, 0, 0, 0, 0, 0, 0, 0, 0, 0, 0, 0, 0, 0, 0, 0, 0, 0, 0, 0, 0, 0, 0, 0, 0, 0, 0, 0, 0, 0, 0, 0, 0, 0, 0, 0, 0, 0, 0, 0, 0, 0, 0, 0, 0, 0, 0, 21, 27, 35, 35, 35, 35, 35, 31, 22, 0, 0, 0, 0, 0, 0, 0, 0, 0, 0, 0, 0, 0, 21, 23, 23, 22, 0, 0, 0, 0, 0, 0, 0, 0, 0, 0, 0, 0, 0, 0, 0, 0, 21, 23, 0, 0, 0, 0, 0, 0, 0, 0, 0, 21, 23, 22, 0, 0, 0, 0, 0, 0, 0, 0, 0, 0, 0, 0, 0, 0, 25, 35, 35, 35, 35, 35, 35, 38, 30, 0, 0, 0, 0, 0, 0, 0, 0, 0, 0, 0, 0, 0, 25, 36, 35, 31, 22, 0, 0, 0, 0, 0, 0, 0, 0, 0, 0, 0, 0, 0, 0, 0, 25, 35, 0, 0, 0, 0, 0, 0, 0, 0, 21, 27, 35, 31, 22, 0, 0, 0, 0, 0, 0, 0, 0, 0, 0, 0, 0, 21, 27, 35, 38, 35, 35, 35, 35, 35, 31, 22, 0, 0, 0, 0, 0, 0, 0, 0, 0, 0, 0, 21, 27, 36, 35, 35, 30, 0, 0, 0, 0, 0, 0, 0, 0, 0, 0, 0, 0, 0, 0, 21, 27, 35, 0, 0, 0, 0, 0, 0, 0, 0, 25, 35, 35, 35, 30, 0, 0, 0, 0, 0, 0, 0, 0, 0, 0, 0, 0, 25, 35, 35, 35, 35, 35, 35, 37, 38, 35, 30, 0, 0, 0, 0, 0, 0, 0, 0, 0, 0, 0, 25, 35, 35, 35, 37, 30, 0, 0, 0, 0, 0, 0, 0, 0, 0, 0, 0, 0, 0, 0, 25, 35, 35, 0, 0, 0, 0, 0, 0, 0, 0, 25, 35, 38, 35, 30, 0, 0, 0, 0, 0, 0, 0, 0, 0, 0, 0, 0, 25, 35, 38, 37, 35, 36, 36, 35, 36, 36, 30, 0, 0, 0, 0, 0, 0, 0, 0, 0, 0, 0, 25, 35, 35, 35, 35, 30, 0, 0, 0, 0, 0, 0, 0, 0, 0, 0, 0, 0, 0, 0, 25, 37, 37, 0, 0, 0, 0, 0, 0, 0, 0, 25, 35, 37, 35, 30, 0, 0, 0, 0, 0, 0, 0, 0, 0, 0, 0, 0, 25, 35, 38, 37, 35, 37, 35, 37, 35, 34, 28, 0, 0, 0, 0, 0, 0, 0, 0, 0, 0, 0, 24, 33, 35, 37, 35, 30, 0, 0, 0, 0, 0, 0, 0, 0, 0, 0, 0, 0, 0, 0, 25, 35, 35, 0, 0, 0, 0, 0, 0, 0, 0, 25, 35, 35, 37, 30, 0, 0, 0, 0, 0, 0, 0, 0, 0, 0, 0, 0, 25, 38, 35, 38, 35, 36, 35, 35, 37, 30, 0, 0, 0, 0, 0, 0, 0, 0, 0, 0, 0, 0, 0, 24, 33, 35, 34, 28, 0, 0, 0, 0, 0, 0, 0, 0, 0, 0, 0, 0, 0, 0, 25, 35, 35, 0, 0, 0, 0, 0, 0, 0, 0, 24, 33, 36, 34, 28, 0, 0, 0, 0, 0, 0, 0, 0, 0, 0, 0, 0, 24, 33, 37, 38, 35, 35, 35, 35, 34, 28, 0, 0, 0, 0, 0, 0, 0, 0, 0, 0, 0, 0, 0, 0, 24, 32, 28, 0, 0, 0, 0, 0, 0, 0, 0, 0, 0, 0, 0, 0, 0, 0, 25, 35, 35, 0, 0, 0, 0, 0, 0, 0, 0, 0, 24, 32, 28, 0, 0, 0, 0, 0, 0, 0, 0, 0, 0, 0, 0, 0, 0, 24, 33, 35, 37, 35, 35, 35, 30, 0, 0, 0, 0, 0, 0, 0, 0, 0, 0, 0, 0, 0, 0, 0, 0, 0, 0, 0, 0, 0, 0, 0, 0, 0, 0, 0, 0, 0, 0, 0, 0, 0, 24, 33, 36, 0, 0, 0, 0, 0, 0, 0, 0, 0, 0, 0, 0, 0, 0, 0, 0, 0, 0, 0, 0, 0, 0, 0, 0, 0, 0, 0, 24, 33, 35, 35, 34, 32, 28, 0, 0, 0, 0, 0, 0, 0, 0, 0, 0, 0, 0, 0, 0, 0, 0, 0, 0, 0, 0, 0, 0, 0, 0, 0, 0, 0, 0, 0, 0, 0, 0, 0, 0, 25, 35, 0, 0, 0, 0, 0, 0, 0, 0, 0, 0, 0, 0, 0, 0, 0, 0, 0, 0, 0, 0, 0, 0, 0, 0, 0, 0, 0, 0, 24, 32, 32, 28, 0, 0, 0, 0, 0, 0, 0, 0, 0, 0, 0, 0, 0, 0, 0, 0, 0, 0, 0, 0, 0, 0, 0, 0, 0, 0, 0, 0, 0, 0, 0, 0, 0, 0, 0, 0, 24, 32, 0, 0, 0, 0, 0, 0, 0, 0, 0, 0, 0, 0, 0, 0, 0, 0, 0, 0, 0, 0, 0, 0, 0, 0, 0, 0, 0, 0, 0, 0, 0, 0, 0, 0, 0, 0, 0, 0, 0, 0, 0, 0, 0, 0, 0, 0, 0, 0, 0, 0, 0, 0, 0, 0, 0, 0, 0, 0, 0, 0, 0, 0, 0, 0, 0, 0, 0, 0, 0, 0, 0, 0, 0, 0, 0, 0, 0, 0, 0, 0, 0, 0, 0, 0, 0, 0, 0, 0, 0, 0, 0, 0, 0, 0, 0, 0, 0, 0, 0, 0, 0, 0, 0, 0, 0, 0, 0, 0, 0, 0, 0, 0, 0, 0, 0, 0, 0, 0, 0, 0, 0, 0, 0, 0, 0, 0, 0, 0, 0, 0, 0, 0, 0, 0, 0, 0, 0, 0, 0, 0, 0, 0, 0, 0, 0, 0, 0, 0, 0, 0, 0, 0, 0, 0, 0, 0, 0, 0, 0, 0, 0, 0, 0, 0, 0, 0, 0, 0, 0, 0, 0, 0, 0, 0, 0, 0, 0, 0, 0, 0, 0, 0, 0, 0, 0, 0, 0, 0, 0, 0, 0, 0, 0, 0, 0, 0, 0, 0, 0, 0, 0, 0, 0, 0, 0, 0, 0, 0, 0, 0, 0, 0, 0, 0, 0, 0, 0, 0, 0, 0, 0, 0, 0, 0, 0, 0, 0, 0, 0, 0, 0, 0, 0, 0, 0, 0, 0, 0, 0, 0, 0, 0, 0, 0, 0, 0, 0, 0, 0, 0, 0, 0, 0, 0, 0, 0, 0, 0, 0, 0, 0, 0, 0, 0, 0, 0, 0, 0, 0, 0, 0, 0, 0, 0, 0, 0, 0, 0, 0, 0, 0, 0, 0, 0, 0, 0, 0, 0, 0, 0, 0, 0, 0, 0, 0, 0, 0, 0, 0, 0, 0, 0, 0, 0, 0, 0, 0, 0, 0, 0, 0, 0, 0, 0, 0, 0, 0, 0, 0, 0, 0, 0, 0, 0, 0, 0, 0, 0, 0, 0, 0, 0, 0, 0, 0, 0, 0, 0, 0, 0, 0, 0, 0, 0, 0, 0, 0, 0, 0, 0, 0, 0, 0, 0, 0, 0, 0, 0, 0, 0, 0, 0, 0, 0, 0, 0, 0, 0, 0, 0, 0, 0, 0, 0, 0, 0, 0, 0, 0, 0, 0, 0, 0, 0, 0, 0, 0, 0, 0, 0, 0, 0, 0, 0, 0, 0, 0, 0, 0, 0, 0, 0, 0, 0, 0, 0, 0, 0, 0, 0, 0, 0, 0, 0, 0, 0, 0, 0, 0, 0, 0, 0, 0, 0, 0, 0, 0, 0, 0, 0, 0, 0, 0, 0, 0, 0, 0, 0, 0, 0, 0, 0, 0, 0, 0, 0, 0, 0, 0, 0, 0, 0, 0, 0, 0, 0, 0, 0, 0, 0, 0, 0, 0, 0, 0, 0, 0, 0, 0, 0, 0, 0, 0, 0, 0, 0, 0, 0, 0, 0, 0, 0, 0, 0, 0, 0, 0, 0, 0, 0, 0, 0, 0, 0, 0, 0, 0, 0, 0, 0, 0, 0, 0, 0, 0, 0, 0, 0, 0, 0, 0, 0, 0, 0, 0, 0, 0, 0, 0, 0, 0, 0, 0, 0, 0, 0, 0, 0, 0, 0, 0, 0, 0, 0, 0, 0, 0, 0, 0, 0, 0, 0, 0, 0, 0, 0, 0, 0, 0, 0, 0, 0, 0, 0, 0, 0, 0, 0, 0, 0, 0, 0, 0, 0, 0, 0, 0, 0, 0, 0, 0, 0, 0, 0, 0, 0, 0, 0, 0, 0, 0, 0, 0, 0, 0, 0, 0, 0, 0, 0, 0, 0, 0, 0, 0, 0, 0, 0, 0, 0, 0, 0, 0, 0, 0, 0, 0, 0, 0, 0, 0, 0, 0, 0, 0, 0, 0, 0, 0, 0, 0, 0, 0, 0, 0, 0, 0, 0, 0, 0, 0, 0, 0, 0, 0, 0, 0, 0, 0, 0, 0, 0, 0, 0, 0, 0, 0, 0, 0, 0, 0, 0, 0, 0, 0, 0, 0, 0, 0, 0, 0, 0, 0, 0, 0, 0, 0, 0, 0, 0, 0, 0, 0, 0, 0, 0, 0, 0, 0, 0, 0, 0, 0, 0, 0, 0, 0, 0, 0, 0, 0, 0, 0, 0, 0, 0, 0, 0, 0, 0, 0, 0, 0, 0, 0, 0, 0, 0, 21, 23, 23, 23, 22, 0, 0, 0, 0, 0, 0, 0, 0, 0, 0, 0, 0, 0, 0, 0, 0, 0, 0, 0, 0, 0, 0, 0, 0, 0, 0, 0, 0, 0, 0, 0, 0, 0, 0, 0, 0, 0, 0, 0, 0, 0, 0, 0, 0, 0, 0, 0, 0, 0, 0, 0, 0, 0, 0, 0, 0, 0, 0, 0, 0, 0, 0, 0, 0, 21, 27, 35, 38, 35, 31, 22, 0, 0, 0, 0, 0, 0, 0, 0, 0, 0, 0, 0, 0, 0, 0, 0, 0, 0, 0, 0, 0, 0, 0, 0, 0, 0, 0, 0, 0, 0, 0, 0, 0, 0, 0, 21, 23, 23, 22, 0, 0, 0, 0, 0, 0, 0, 0, 0, 0, 0, 0, 0, 0, 0, 21, 23, 0, 0, 0, 0, 0, 0, 21, 27, 35, 35, 35, 35, 38, 30, 0, 0, 0, 0, 0, 0, 0, 0, 0, 0, 0, 0, 0, 0, 0, 0, 0, 0, 0, 0, 0, 0, 0, 0, 0, 0, 0, 0, 0, 0, 0, 0, 0, 0, 21, 27, 38, 37, 31, 23, 22, 0, 0, 0, 0, 0, 0, 0, 0, 0, 0, 0, 0, 21, 27, 37, 0, 0, 0, 0, 0, 21, 27, 35, 35, 35, 35, 35, 35, 31, 22, 0, 0, 0, 0, 0, 0, 0, 0, 0, 0, 0, 0, 0, 0, 21, 23, 22, 0, 0, 0, 0, 0, 0, 0, 0, 0, 0, 0, 0, 0, 0, 0, 21, 27, 35, 35, 35, 38, 38, 30, 0, 0, 0, 0, 0, 0, 0, 0, 0, 0, 0, 0, 25, 35, 38, 0, 0, 0, 0, 0, 25, 38, 35, 38, 35, 36, 37, 35, 35, 30, 0, 0, 0, 0, 0, 0, 0, 0, 0, 0, 0, 0, 0, 21, 27, 37, 30, 0, 0, 0, 0, 0, 0, 0, 0, 0, 0, 0, 0, 0, 0, 21, 27, 35, 38, 35, 36, 35, 35, 31, 22, 0, 0, 0, 0, 0, 0, 0, 0, 0, 0, 0, 25, 35, 35, 0, 0, 0, 0, 0, 25, 35, 35, 38, 35, 35, 35, 38, 35, 30, 0, 0, 0, 0, 0, 0, 0, 0, 0, 0, 0, 0, 0, 25, 35, 35, 31, 22, 0, 0, 0, 0, 0, 0, 0, 0, 0, 0, 0, 0, 0, 25, 36, 35, 35, 35, 35, 35, 35, 35, 30, 0, 0, 0, 0, 0, 0, 0, 0, 0, 0, 21, 27, 37, 38, 0, 0, 0, 0, 0, 25, 35, 35, 35, 35, 38, 38, 36, 38, 30, 0, 0, 0, 0, 0, 0, 0, 0, 0, 0, 0, 0, 0, 25, 35, 35, 35, 30, 0, 0, 0, 0, 0, 0, 0, 0, 0, 0, 0, 0, 0, 25, 38, 37, 36, 35, 36, 36, 38, 37, 30, 0, 0, 0, 0, 0, 0, 0, 0, 0, 0, 24, 33, 35, 35, 0, 0, 0, 0, 0, 25, 38, 35, 35, 35, 38, 35, 35, 35, 30, 0, 0, 0, 0, 0, 0, 0, 0, 0, 0, 0, 0, 0, 25, 36, 38, 35, 30, 0, 0, 0, 0, 0, 0, 0, 0, 0, 0, 0, 0, 0, 25, 35, 35, 37, 35, 35, 35, 35, 36, 30, 0, 0, 0, 0, 0, 0, 0, 0, 0, 0, 0, 25, 35, 35, 0, 0, 0, 0, 0, 25, 35, 35, 35, 35, 35, 35, 36, 34, 28, 0, 0, 0, 0, 0, 0, 0, 0, 0, 0, 0, 0, 0, 24, 33, 38, 34, 28, 0, 0, 0, 0, 0, 0, 0, 0, 0, 0, 0, 0, 0, 25, 36, 38, 35, 36, 35, 35, 35, 35, 30, 0, 0, 0, 0, 0, 0, 0, 0, 0, 0, 0, 24, 33, 38, 0, 0, 0, 0, 0, 24, 33, 36, 35, 35, 37, 35, 35, 30, 0, 0, 0, 0, 0, 0, 0, 0, 0, 0, 0, 0, 0, 0, 0, 24, 32, 28, 0, 0, 0, 0, 0, 0, 0, 0, 0, 0, 0, 0, 0, 0, 25, 35, 35, 35, 35, 35, 37, 35, 34, 28, 0, 0, 0, 0, 0, 0, 0, 0, 0, 0, 0, 0, 24, 33, 0, 0, 0, 0, 0, 0, 25, 35, 35, 37, 35, 37, 34, 28, 0, 0, 0, 0, 0, 0, 0, 0, 0, 0, 0, 0, 0, 0, 0, 0, 0, 0, 0, 0, 0, 0, 0, 0, 0, 0, 0, 0, 0, 0, 0, 0, 24, 33, 38, 36, 35, 36, 36, 35, 30, 0, 0, 0, 0, 0, 0, 0, 0, 0, 0, 0, 0, 0, 0, 24]}, {"id": 3, "name": "sendero", "type": "tilelayer", "x": 0, "y": 0, "width": 70, "height": 45, "opacity": 1, "visible": true, "data": [0, 0, 0, 0, 0, 0, 0, 0, 0, 0, 0, 0, 0, 0, 0, 0, 0, 0, 0, 0, 0, 0, 0, 0, 0, 0, 0, 0, 0, 0, 0, 0, 0, 0, 0, 0, 0, 0, 0, 0, 0, 0, 0, 0, 0, 0, 0, 0, 0, 0, 0, 0, 0, 0, 0, 0, 0, 0, 0, 0, 0, 0, 0, 0, 0, 0, 0, 0, 0, 0, 0, 0, 0, 0, 0, 0, 0, 0, 0, 0, 0, 0, 0, 0, 0, 0, 0, 0, 0, 0, 0, 0, 0, 0, 0, 0, 0, 0, 0, 0, 0, 0, 0, 0, 0, 0, 0, 0, 0, 0, 0, 0, 0, 0, 0, 0, 0, 0, 0, 0, 0, 0, 0, 0, 0, 0, 0, 0, 0, 0, 0, 0, 0, 0, 0, 0, 0, 0, 0, 0, 0, 0, 0, 0, 0, 0, 0, 0, 0, 0, 0, 0, 0, 0, 0, 0, 0, 0, 0, 0, 0, 0, 0, 0, 0, 0, 0, 0, 0, 0, 0, 0, 0, 0, 0, 0, 0, 0, 0, 0, 0, 0, 0, 0, 0, 0, 0, 0, 0, 0, 0, 0, 0, 0, 0, 0, 0, 0, 0, 0, 0, 0, 0, 0, 0, 0, 0, 0, 0, 0, 0, 0, 0, 0, 0, 0, 0, 0, 0, 0, 0, 0, 0, 0, 0, 0, 0, 0, 0, 0, 0, 0, 0, 0, 0, 0, 0, 0, 0, 0, 0, 0, 0, 0, 0, 0, 0, 0, 0, 0, 0, 0, 0, 0, 0, 0, 0, 0, 0, 0, 0, 0, 0, 0, 0, 0, 0, 0, 0, 0, 0, 0, 0, 0, 0, 0, 0, 0, 0, 0, 0, 0, 0, 0, 0, 0, 0, 0, 0, 0, 0, 0, 0, 0, 0, 0, 0, 0, 0, 0, 0, 0, 0, 0, 0, 0, 0, 0, 0, 0, 0, 0, 0, 0, 0, 0, 0, 0, 0, 0, 0, 0, 0, 0, 0, 0, 0, 0, 0, 0, 0, 0, 0, 0, 0, 0, 0, 0, 0, 0, 0, 0, 0, 0, 0, 0, 0, 0, 0, 0, 0, 0, 0, 0, 0, 0, 0, 0, 0, 0, 0, 0, 0, 0, 0, 0, 0, 0, 0, 0, 0, 0, 0, 0, 0, 0, 0, 0, 0, 0, 0, 0, 0, 0, 40, 41, 0, 0, 0, 0, 0, 0, 0, 0, 0, 0, 0, 0, 0, 0, 0, 0, 0, 0, 0, 0, 0, 0, 0, 0, 0, 0, 0, 0, 0, 0, 0, 0, 0, 0, 0, 0, 0, 0, 0, 0, 0, 0, 0, 0, 0, 0, 0, 0, 0, 0, 0, 0, 0, 0, 0, 0, 0, 0, 0, 0, 0, 0, 0, 0, 0, 0, 40, 42, 46, 50, 42, 41, 0, 0, 0, 0, 0, 0, 0, 0, 0, 0, 0, 0, 0, 0, 0, 0, 0, 0, 0, 0, 0, 0, 0, 0, 0, 0, 0, 0, 0, 0, 0, 0, 0, 0, 0, 0, 0, 0, 0, 0, 0, 0, 0, 0, 0, 0, 0, 0, 0, 0, 0, 0, 0, 0, 0, 0, 0, 0, 0, 0, 0, 0, 40, 42, 46, 54, 54, 54, 54, 50, 42, 42, 41, 0, 0, 0, 0, 0, 0, 0, 0, 0, 0, 0, 0, 0, 0, 0, 0, 0, 0, 0, 0, 0, 0, 0, 0, 0, 0, 0, 0, 0, 0, 0, 0, 0, 0, 0, 0, 0, 0, 0, 0, 0, 0, 0, 0, 0, 0, 0, 0, 0, 0, 0, 0, 0, 0, 0, 0, 0, 0, 40, 46, 54, 56, 53, 51, 51, 52, 54, 56, 55, 50, 42, 41, 0, 0, 0, 0, 0, 0, 0, 0, 0, 0, 0, 0, 0, 0, 0, 0, 0, 0, 0, 0, 0, 0, 0, 0, 0, 0, 0, 0, 0, 0, 0, 0, 0, 0, 0, 0, 0, 0, 0, 0, 0, 0, 0, 0, 0, 0, 0, 0, 0, 0, 0, 0, 0, 0, 40, 42, 46, 54, 53, 51, 47, 0, 0, 43, 51, 51, 52, 54, 54, 50, 42, 42, 41, 0, 0, 0, 0, 0, 0, 0, 0, 0, 0, 0, 0, 0, 0, 0, 0, 0, 0, 0, 0, 0, 0, 0, 0, 0, 0, 0, 0, 0, 0, 0, 0, 0, 0, 0, 0, 0, 0, 0, 0, 0, 0, 0, 0, 0, 0, 0, 0, 0, 40, 42, 46, 54, 57, 53, 47, 0, 0, 0, 0, 0, 0, 0, 43, 51, 52, 54, 54, 55, 50, 42, 41, 0, 0, 0, 0, 0, 0, 0, 0, 0, 0, 0, 0, 0, 0, 0, 0, 0, 0, 0, 0, 0, 0, 0, 0, 0, 0, 0, 0, 0, 0, 0, 0, 0, 0, 0, 0, 0, 0, 0, 0, 0, 0, 0, 0, 0, 0, 40, 46, 54, 54, 53, 51, 47, 0, 0, 0, 0, 0, 0, 0, 0, 0, 0, 43, 51, 51, 52, 54, 54, 50, 41, 0, 0, 0, 0, 0, 0, 0, 0, 0, 0, 0, 0, 0, 0, 0, 0, 0, 0, 0, 0, 0, 0, 0, 0, 0, 0, 0, 0, 0, 0, 0, 0, 0, 0, 0, 0, 0, 0, 0, 0, 0, 0, 0, 0, 40, 46, 54, 53, 51, 47, 0, 0, 0, 0, 0, 0, 0, 0, 0, 0, 0, 0, 0, 0, 0, 43, 51, 52, 54, 50, 41, 0, 0, 0, 0, 0, 0, 0, 0, 0, 0, 0, 0, 0, 0, 0, 0, 0, 0, 0, 0, 0, 0, 0, 0, 0, 0, 0, 0, 0, 0, 0, 0, 0, 0, 0, 0, 0, 0, 0, 0, 0, 0, 40, 46, 54, 53, 47, 0, 0, 0, 0, 0, 0, 0, 0, 0, 0, 0, 0, 0, 0, 0, 0, 0, 0, 0, 43, 52, 56, 49, 0, 0, 0, 0, 0, 0, 0, 0, 0, 0, 0, 0, 0, 0, 0, 0, 0, 0, 0, 0, 0, 0, 0, 0, 0, 0, 0, 0, 0, 0, 0, 0, 0, 0, 0, 0, 0, 0, 0, 0, 0, 40, 46, 54, 53, 47, 0, 0, 0, 0, 0, 0, 0, 0, 0, 0, 0, 0, 0, 0, 0, 0, 0, 0, 0, 0, 0, 44, 54, 50, 41, 0, 0, 0, 0, 0, 0, 0, 0, 0, 0, 0, 0, 0, 0, 0, 0, 0, 0, 0, 0, 0, 0, 0, 0, 0, 0, 0, 0, 0, 0, 0, 0, 0, 0, 0, 0, 0, 0, 0, 40, 46, 57, 53, 47, 0, 0, 0, 0, 0, 0, 0, 0, 0, 0, 0, 0, 0, 0, 0, 0, 0, 0, 0, 0, 0, 0, 43, 52, 54, 50, 41, 0, 0, 0, 0, 0, 0, 0, 0, 0, 0, 0, 0, 0, 0, 0, 0, 0, 0, 0, 0, 0, 0, 0, 0, 0, 0, 0, 0, 0, 0, 0, 0, 0, 0, 0, 0, 0, 40, 46, 54, 53, 47, 0, 0, 0, 0, 0, 0, 0, 0, 0, 0, 0, 0, 0, 0, 0, 0, 0, 0, 0, 0, 0, 0, 0, 0, 43, 52, 54, 49, 0, 0, 0, 0, 0, 0, 0, 0, 0, 0, 0, 0, 0, 0, 0, 0, 0, 0, 0, 0, 0, 0, 0, 0, 0, 0, 0, 0, 0, 0, 0, 0, 0, 0, 0, 0, 40, 46, 56, 53, 47, 0, 0, 0, 0, 0, 0, 0, 0, 0, 0, 0, 0, 0, 0, 0, 0, 0, 0, 0, 0, 0, 0, 0, 0, 0, 0, 44, 55, 50, 41, 0, 0, 0, 0, 0, 0, 0, 0, 0, 0, 0, 0, 0, 0, 0, 0, 0, 0, 0, 0, 0, 0, 0, 0, 0, 0, 0, 0, 0, 0, 0, 0, 0, 0, 40, 46, 56, 53, 47, 0, 0, 0, 0, 0, 0, 0, 0, 0, 0, 0, 0, 0, 0, 0, 0, 0, 0, 0, 0, 0, 0, 0, 0, 0, 0, 0, 43, 52, 56, 50, 41, 0, 0, 0, 0, 0, 0, 0, 0, 0, 0, 0, 0, 0, 0, 0, 0, 0, 0, 0, 0, 0, 0, 0, 0, 0, 0, 0, 0, 0, 0, 0, 0, 40, 46, 54, 53, 47, 0, 0, 0, 0, 0, 0, 0, 0, 0, 0, 0, 0, 0, 0, 0, 0, 0, 0, 0, 0, 0, 0, 0, 0, 0, 0, 0, 0, 0, 43, 52, 54, 49, 0, 0, 0, 0, 0, 0, 0, 0, 0, 0, 0, 0, 0, 0, 0, 0, 0, 0, 0, 0, 0, 0, 0, 0, 0, 0, 0, 0, 0, 0, 0, 0, 43, 52, 54, 49, 0, 0, 0, 0, 0, 0, 0, 0, 0, 0, 0, 0, 0, 0, 0, 0, 0, 0, 0, 0, 0, 0, 0, 0, 0, 0, 0, 0, 0, 0, 0, 44, 54, 50, 41, 0, 0, 0, 0, 0, 0, 0, 0, 0, 0, 0, 0, 0, 0, 0, 0, 0, 0, 0, 0, 0, 0, 0, 0, 0, 0, 0, 0, 0, 0, 0, 0, 44, 56, 49, 0, 0, 0, 0, 0, 0, 0, 0, 0, 0, 0, 0, 0, 0, 0, 0, 0, 0, 0, 0, 0, 0, 0, 0, 0, 0, 0, 0, 0, 0, 0, 43, 52, 54, 50, 41, 0, 0, 0, 0, 0, 0, 0, 0, 0, 0, 0, 0, 0, 0, 0, 0, 0, 0, 0, 0, 0, 0, 0, 0, 0, 0, 0, 0, 0, 0, 0, 43, 52, 50, 41, 0, 0, 0, 0, 0, 0, 0, 0, 0, 0, 0, 0, 0, 0, 0, 0, 0, 0, 0, 0, 0, 0, 0, 0, 0, 0, 0, 0, 0, 0, 40, 46, 57, 53, 47, 0, 0, 0, 0, 0, 0, 0, 0, 0, 0, 0, 0, 0, 0, 0, 0, 0, 0, 0, 0, 0, 0, 0, 0, 0, 0, 0, 0, 0, 0, 0, 0, 44, 54, 49, 0, 0, 0, 0, 0, 0, 0, 0, 0, 0, 0, 0, 0, 0, 0, 0, 0, 0, 0, 0, 0, 0, 0, 0, 0, 0, 0, 0, 0, 40, 46, 54, 53, 47, 0, 0, 0, 0, 0, 0, 0, 0, 0, 0, 0, 0, 0, 0, 0, 0, 0, 0, 0, 0, 0, 0, 0, 0, 0, 0, 0, 0, 0, 0, 0, 0, 0, 44, 54, 50, 41, 0, 0, 0, 0, 0, 0, 0, 0, 0, 0, 0, 0, 0, 0, 0, 0, 0, 0, 0, 0, 0, 0, 0, 0, 0, 0, 0, 0, 44, 54, 56, 49, 0, 0, 0, 0, 0, 0, 0, 0, 0, 0, 0, 0, 0, 0, 0, 0, 0, 0, 0, 0, 0, 0, 0, 0, 0, 0, 0, 0, 0, 0, 0, 0, 0, 0, 43, 52, 54, 49, 0, 0, 0, 0, 0, 0, 0, 0, 0, 0, 0, 0, 0, 0, 0, 0, 0, 0, 0, 0, 0, 0, 0, 0, 0, 0, 0, 40, 46, 57, 53, 47, 0, 0, 0, 0, 0, 0, 0, 0, 0, 0, 0, 0, 0, 0, 0, 0, 0, 0, 0, 0, 0, 0, 0, 0, 0, 0, 0, 0, 0, 0, 0, 0, 0, 0, 0, 44, 54, 49, 0, 0, 0, 0, 0, 0, 0, 0, 0, 0, 0, 0, 0, 0, 0, 0, 0, 0, 0, 0, 0, 0, 0, 0, 0, 0, 40, 46, 56, 53, 47, 0, 0, 0, 0, 0, 0, 0, 0, 0, 0, 0, 0, 0, 0, 0, 0, 0, 0, 0, 0, 0, 0, 0, 0, 0, 0, 0, 0, 0, 0, 0, 0, 0, 0, 0, 0, 43, 52, 50, 41, 0, 0, 0, 0, 0, 0, 0, 0, 0, 0, 0, 0, 0, 0, 0, 0, 0, 0, 0, 0, 0, 0, 0, 0, 40, 46, 54, 53, 47, 0, 0, 0, 0, 0, 0, 0, 0, 0, 0, 0, 0, 0, 0, 0, 0, 0, 0, 0, 0, 0, 0, 0, 0, 0, 0, 0, 0, 0, 0, 0, 0, 0, 0, 0, 0, 0, 0, 44, 54, 49, 0, 0, 0, 0, 0, 0, 0, 0, 0, 0, 0, 0, 0, 0, 0, 0, 0, 0, 0, 0, 0, 0, 0, 40, 46, 56, 53, 47, 0, 0, 0, 0, 0, 0, 0, 0, 0, 0, 0, 0, 0, 0, 0, 0, 0, 0, 0, 0, 0, 0, 0, 0, 0, 0, 0, 0, 0, 0, 0, 0, 0, 0, 0, 0, 0, 0, 0, 44, 54, 50, 42, 41, 0, 0, 0, 0, 0, 0, 0, 0, 0, 0, 0, 0, 0, 0, 0, 0, 0, 0, 0, 0, 0, 44, 54, 54, 49, 0, 0, 0, 0, 0, 0, 0, 0, 0, 0, 0, 0, 0, 0, 0, 0, 0, 0, 0, 0, 0, 0, 0, 0, 0, 0, 0, 0, 0, 0, 0, 0, 0, 0, 0, 0, 0, 0, 0, 0, 43, 52, 54, 56, 50, 42, 41, 0, 0, 0, 0, 0, 0, 0, 0, 0, 0, 0, 0, 0, 0, 0, 0, 0, 0, 40, 46, 54, 53, 47, 0, 0, 0, 0, 0, 0, 0, 0, 0, 0, 0, 0, 0, 0, 0, 0, 0, 0, 0, 0, 0, 0, 0, 0, 0, 0, 0, 0, 0, 0, 0, 0, 0, 0, 0, 0, 0, 0, 0, 0, 0, 43, 51, 52, 57, 56, 50, 41, 0, 0, 0, 0, 0, 0, 0, 0, 0, 0, 0, 0, 0, 0, 40, 42, 42, 46, 54, 53, 47, 0, 0, 0, 0, 0, 0, 0, 0, 0, 0, 0, 0, 0, 0, 0, 0, 0, 0, 0, 0, 0, 0, 0, 0, 0, 0, 0, 0, 0, 0, 0, 0, 0, 0, 0, 0, 0, 0, 0, 0, 0, 0, 0, 0, 43, 51, 52, 54, 50, 42, 41, 0, 0, 0, 0, 0, 0, 0, 0, 0, 40, 42, 42, 46, 57, 54, 54, 53, 47, 0, 0, 0, 0, 0, 0, 0, 0, 0, 0, 0, 0, 0, 0, 0, 0, 0, 0, 0, 0, 0, 0, 0, 0, 0, 0, 0, 0, 0, 0, 0, 0, 0, 0, 0, 0, 0, 0, 0, 0, 0, 0, 0, 0, 0, 0, 0, 43, 51, 52, 54, 50, 42, 41, 0, 0, 0, 40, 42, 42, 42, 46, 54, 54, 57, 53, 51, 51, 47, 0, 0, 0, 0, 0, 0, 0, 0, 0, 0, 0, 0, 0, 0, 0, 0, 0, 0, 0, 0, 0, 0, 0, 0, 0, 0, 0, 0, 0, 0, 0, 0, 0, 0, 0, 0, 0, 0, 0, 0, 0, 0, 0, 0, 0, 0, 0, 0, 0, 0, 43, 52, 54, 54, 50, 42, 42, 42, 46, 54, 54, 54, 53, 51, 51, 51, 47, 0, 0, 0, 0, 0, 0, 0, 0, 0, 0, 0, 0, 0, 0, 0, 0, 0, 0, 0, 0, 0, 0, 0, 0, 0, 0, 0, 0, 0, 0, 0, 0, 0, 0, 0, 0, 0, 0, 0, 0, 0, 0, 0, 0, 0, 0, 0, 0, 0, 0, 0, 0, 0, 0, 43, 51, 52, 54, 56, 57, 55, 54, 53, 51, 51, 47, 0, 0, 0, 0, 0, 0, 0, 0, 0, 0, 0, 0, 0, 0, 0, 0, 0, 0, 0, 0, 0, 0, 0, 0, 0, 0, 0, 0, 0, 0, 0, 0, 0, 0, 0, 0, 0, 0, 0, 0, 0, 0, 0, 0, 0, 0, 0, 0, 0, 0, 0, 0, 0, 0, 0, 0, 0, 0, 0, 0, 43, 51, 52, 56, 53, 51, 47, 0, 0, 0, 0, 0, 0, 0, 0, 0, 0, 0, 0, 0, 0, 0, 0, 0, 0, 0, 0, 0, 0, 0, 0, 0, 0, 0, 0, 0, 0, 0, 0, 0, 0, 0, 0, 0, 0, 0, 0, 0, 0, 0, 0, 0, 0, 0, 0, 0, 0, 0, 0, 0, 0, 0, 0, 0, 0, 0, 0, 0, 0, 0, 0, 0, 44, 57, 49, 0, 0, 0, 0, 0, 0, 0, 0, 0, 0, 0, 0, 0, 0, 0, 0, 0, 0, 0, 0, 0, 0, 0, 0, 0, 0, 0, 0, 0, 0, 0, 0, 0, 0, 0, 0, 0, 0, 0, 0, 0, 0, 0, 0, 0, 0, 0, 0, 0, 0, 0, 0, 0, 0, 0, 0, 0, 0, 0, 0, 0, 0, 0, 0, 0, 0, 0, 44, 54, 49, 0, 0, 0, 0, 0, 0, 0, 0, 0, 0, 0, 0, 0, 0, 0, 0, 0, 0, 0, 0, 0, 0, 0, 0, 0, 0, 0, 0, 0, 0, 0, 0, 0, 0, 0, 0, 0, 0, 0, 0, 0, 0, 0, 0, 0, 0, 0, 0, 0, 0, 0, 0, 0, 0, 0, 0, 0, 0, 0, 0, 0, 0, 0, 0, 0, 0, 0, 44, 54, 50, 41, 0, 0, 0, 0, 0, 0, 0, 0, 0, 0, 0, 0, 0, 0, 0, 0, 0, 0, 0, 0, 0, 0, 0, 0, 0, 0, 0, 0, 0, 0, 0, 0, 0, 0, 0, 0, 0, 0, 0, 0, 0, 0, 0, 0, 0, 0, 0, 0, 0, 0, 0, 0, 0, 0, 0, 0, 0, 0, 0, 0, 0, 0, 0, 0, 0, 0, 44, 56, 55, 49, 0, 0, 0, 0, 0, 0, 0, 0, 0, 0, 0, 0, 0, 0, 0, 0, 0, 0, 0, 0, 0, 0, 0, 0, 0, 0, 0, 0, 0, 0, 0, 0, 0, 0, 0, 0, 0, 0, 0, 0, 0, 0, 0, 0, 0, 0, 0, 0, 0, 0, 0, 0, 0, 0, 0, 0, 0, 0, 0, 0, 0, 0, 0, 0, 0, 0, 43, 52, 54, 49, 0, 0, 0, 0, 0, 0, 0, 0, 0, 0, 0, 0, 0, 0, 0, 0, 0, 0, 0, 0, 0, 0, 0, 0, 0, 0, 0, 0, 0, 0, 0, 0, 0, 0, 0, 0, 0, 0, 0, 0, 0, 0, 0, 0, 0, 0, 0, 0, 0, 0, 0, 0, 0, 0, 0, 0, 0, 0, 0, 0, 0, 0, 0, 0, 0, 0, 0, 44, 54, 49, 0, 0, 0, 0, 0, 0, 0, 0, 0, 0, 0, 0, 0, 0, 0, 0, 0, 0, 0, 0, 0, 0, 0, 0, 0, 0, 0, 0, 0, 0, 0, 0, 0, 0, 0, 0, 0, 0, 0, 0, 0, 0, 0, 0, 0, 0, 0, 0, 0, 0, 0, 0, 0, 0, 0, 0, 0, 0, 0, 0, 0, 0, 0, 0, 0, 0, 0, 44, 54, 49, 0, 0, 0, 0, 0, 0, 0, 0, 0, 0, 0, 0, 0, 0, 0, 0, 0, 0, 0, 0, 0, 0, 0, 0, 0, 0, 0, 0, 0, 0, 0, 0, 0, 0, 0, 0, 0, 0, 0, 0, 0, 0, 0, 0, 0, 0, 0, 0, 0, 0, 0, 0, 0, 0, 0, 0, 0, 0, 0, 0, 0, 0, 0, 0, 0, 0, 0, 44, 56, 50, 41, 0, 0, 0, 0, 0, 0, 0, 0, 0, 0, 0, 0, 0, 0, 0, 0, 0, 0, 0, 0, 0, 0, 0, 0, 0, 0, 0, 0, 0, 0, 0, 0, 0]}, {"id": 4, "name": "barranco", "type": "tilelayer", "x": 0, "y": 0, "width": 70, "height": 45, "opacity": 1, "visible": true, "data": [0, 0, 0, 0, 0, 0, 0, 0, 62, 70, 71, 69, 61, 60, 0, 0, 0, 0, 0, 0, 0, 0, 0, 0, 0, 0, 0, 0, 0, 0, 0, 0, 0, 0, 0, 0, 0, 0, 0, 0, 0, 0, 0, 0, 0, 0, 0, 0, 0, 0, 0, 0, 0, 0, 0, 0, 0, 0, 0, 0, 0, 0, 0, 0, 0, 0, 0, 0, 0, 0, 0, 0, 0, 0, 0, 0, 0, 0, 0, 0, 62, 70, 71, 69, 61, 60, 0, 0, 0, 0, 0, 0, 0, 0, 0, 0, 0, 0, 0, 0, 0, 0, 0, 0, 0, 0, 0, 0, 0, 0, 0, 0, 0, 0, 0, 0, 0, 0, 0, 0, 0, 0, 0, 0, 0, 0, 0, 0, 0, 0, 0, 0, 0, 0, 0, 0, 0, 0, 0, 0, 0, 0, 0, 0, 0, 0, 0, 0, 0, 0, 0, 0, 62, 70, 71, 69, 60, 0, 0, 0, 0, 0, 0, 0, 0, 0, 0, 0, 0, 0, 0, 0, 0, 0, 0, 0, 0, 0, 0, 0, 0, 0, 0, 0, 0, 0, 0, 0, 0, 0, 0, 0, 0, 0, 0, 0, 0, 0, 0, 0, 0, 0, 0, 0, 0, 0, 0, 0, 0, 0, 0, 0, 0, 0, 0, 0, 0, 0, 0, 0, 0, 0, 0, 0, 62, 70, 67, 61, 60, 0, 0, 0, 0, 0, 0, 0, 0, 0, 0, 0, 0, 0, 0, 0, 0, 0, 0, 0, 0, 0, 0, 0, 0, 0, 0, 0, 0, 0, 0, 0, 0, 0, 0, 0, 0, 0, 0, 0, 0, 0, 0, 0, 0, 0, 0, 0, 0, 0, 0, 0, 0, 0, 0, 0, 0, 0, 0, 0, 0, 0, 0, 0, 0, 0, 0, 0, 62, 71, 69, 60, 0, 0, 0, 0, 0, 0, 0, 0, 0, 0, 0, 0, 0, 0, 0, 0, 0, 0, 0, 0, 0, 0, 0, 0, 0, 0, 0, 0, 0, 0, 0, 0, 0, 0, 0, 0, 0, 0, 0, 0, 0, 0, 0, 0, 0, 0, 0, 0, 0, 0, 0, 0, 0, 0, 0, 0, 0, 0, 0, 0, 0, 0, 0, 0, 0, 0, 0, 62, 71, 69, 60, 0, 0, 0, 0, 0, 0, 0, 0, 0, 0, 0, 0, 0, 0, 0, 0, 0, 0, 0, 0, 0, 0, 0, 0, 0, 0, 0, 0, 0, 0, 0, 0, 0, 0, 0, 0, 0, 0, 0, 0, 0, 0, 0, 0, 0, 0, 0, 0, 0, 0, 0, 0, 0, 0, 0, 0, 0, 0, 0, 0, 0, 0, 0, 0, 0, 0, 0, 62, 71, 69, 60, 0, 0, 0, 0, 0, 0, 0, 0, 0, 0, 0, 0, 0, 0, 0, 0, 0, 0, 0, 0, 0, 0, 0, 0, 0, 0, 0, 0, 0, 0, 0, 0, 0, 0, 0, 0, 0, 0, 0, 0, 0, 0, 0, 0, 0, 0, 0, 0, 0, 0, 0, 0, 0, 0, 0, 0, 0, 0, 0, 0, 0, 0, 0, 0, 0, 0, 0, 63, 73, 68, 0, 0, 0, 0, 0, 0, 0, 0, 0, 0, 0, 0, 0, 0, 0, 0, 0, 0, 0, 0, 0, 0, 0, 0, 0, 0, 0, 0, 0, 0, 0, 0, 0, 0, 0, 0, 0, 0, 0, 0, 0, 0, 0, 0, 0, 0, 0, 0, 0, 0, 0, 0, 0, 0, 0, 0, 0, 0, 0, 0, 0, 0, 0, 0, 0, 0, 0, 62, 71, 69, 60, 0, 0, 0, 0, 0, 0, 0, 0, 0, 0, 0, 0, 0, 0, 0, 0, 0, 0, 0, 0, 0, 0, 0, 0, 0, 0, 0, 0, 0, 0, 0, 0, 0, 0, 0, 0, 0, 0, 0, 0, 0, 0, 0, 0, 0, 0, 0, 0, 0, 0, 0, 0, 0, 0, 0, 0, 0, 0, 0, 0, 0, 0, 0, 0, 0, 0, 0, 63, 73, 68, 0, 0, 0, 0, 0, 0, 0, 0, 0, 0, 0, 0, 0, 0, 0, 0, 0, 0, 0, 0, 0, 0, 0, 0, 0, 0, 0, 0, 0, 0, 0, 0, 0, 0, 0, 0, 0, 0, 0, 0, 0, 0, 0, 0, 0, 0, 0, 0, 0, 0, 0, 0, 0, 0, 0, 0, 0, 0, 0, 0, 0, 0, 0, 0, 0, 0, 0, 63, 73, 68, 0, 0, 0, 0, 0, 0, 0, 0, 0, 0, 0, 0, 0, 0, 0, 0, 0, 0, 0, 0, 0, 0, 0, 0, 0, 0, 0, 0, 0, 0, 0, 0, 0, 0, 0, 0, 0, 0, 0, 0, 0, 0, 0, 0, 0, 0, 0, 0, 0, 0, 0, 0, 0, 0, 0, 0, 0, 0, 0, 0, 0, 0, 0, 0, 0, 0, 0, 63, 75, 68, 0, 0, 0, 0, 0, 0, 0, 0, 0, 0, 0, 0, 0, 0, 0, 0, 0, 0, 0, 0, 0, 0, 0, 0, 0, 0, 0, 0, 0, 0, 0, 0, 0, 0, 0, 0, 0, 0, 0, 0, 0, 0, 0, 0, 0, 0, 0, 0, 0, 0, 0, 0, 0, 0, 0, 0, 0, 0, 0, 0, 0, 0, 0, 0, 0, 0, 0, 62, 70, 66, 0, 0, 0, 0, 0, 0, 0, 0, 0, 0, 0, 0, 0, 0, 0, 0, 0, 0, 0, 0, 0, 0, 0, 0, 0, 0, 0, 0, 0, 0, 0, 0, 0, 0, 0, 0, 0, 0, 0, 0, 0, 0, 0, 0, 0, 0, 0, 0, 0, 0, 0, 0, 0, 0, 0, 0, 0, 0, 0, 0, 0, 0, 0, 0, 0, 0, 0, 0, 0, 0, 0, 0, 0, 0, 0, 0, 0, 0, 0, 0, 0, 0, 0, 0, 0, 0, 0, 0, 0, 0, 0, 0, 0, 0, 0, 0, 0, 0, 0, 0, 0, 0, 0, 0, 0, 0, 0, 0, 0, 0, 0, 0, 0, 0, 0, 0, 0, 0, 0, 0, 0, 0, 0, 0, 0, 0, 0, 0, 0, 0, 0, 0, 0, 0, 0, 0, 0, 0, 0, 0, 0, 0, 0, 0, 0, 0, 0, 0, 0, 0, 0, 0, 0, 0, 0, 0, 0, 0, 0, 0, 0, 0, 0, 0, 0, 0, 0, 0, 0, 0, 0, 0, 0, 0, 0, 0, 0, 0, 0, 0, 0, 0, 0, 0, 0, 0, 0, 0, 0, 0, 0, 0, 0, 0, 0, 0, 0, 0, 0, 0, 0, 0, 0, 0, 0, 0, 0, 0, 0, 0, 0, 0, 59, 60, 0, 0, 0, 0, 0, 0, 0, 0, 0, 0, 0, 0, 0, 0, 0, 0, 0, 0, 0, 0, 0, 0, 0, 0, 0, 0, 0, 0, 0, 0, 0, 0, 0, 0, 0, 0, 0, 0, 0, 0, 0, 0, 0, 0, 0, 0, 0, 0, 0, 0, 0, 0, 0, 0, 0, 0, 0, 0, 0, 0, 0, 0, 0, 0, 0, 0, 0, 59, 65, 69, 60, 0, 0, 0, 0, 0, 0, 0, 0, 0, 0, 0, 0, 0, 0, 0, 0, 0, 0, 0, 0, 0, 0, 0, 0, 0, 0, 0, 0, 0, 0, 0, 0, 0, 0, 0, 0, 0, 0, 0, 0, 0, 0, 0, 0, 0, 0, 0, 0, 0, 0, 0, 0, 0, 0, 0, 0, 0, 0, 0, 0, 0, 0, 0, 0, 0, 0, 62, 71, 73, 69, 61, 60, 0, 0, 0, 0, 0, 0, 0, 0, 0, 0, 0, 0, 0, 0, 0, 0, 0, 0, 0, 0, 0, 0, 0, 0, 0, 0, 0, 0, 0, 0, 0, 0, 0, 0, 0, 0, 0, 0, 0, 0, 0, 0, 0, 0, 0, 0, 0, 0, 0, 0, 0, 0, 0, 0, 0, 0, 0, 0, 0, 0, 0, 0, 0, 0, 0, 62, 70, 71, 73, 69, 60, 0, 0, 0, 0, 0, 0, 0, 0, 0, 0, 0, 0, 0, 0, 0, 0, 0, 0, 0, 0, 0, 0, 0, 0, 0, 0, 0, 0, 0, 0, 0, 0, 0, 0, 0, 0, 0, 0, 0, 0, 0, 0, 0, 0, 0, 0, 0, 0, 0, 0, 0, 0, 0, 0, 0, 0, 0, 0, 0, 0, 0, 0, 0, 0, 0, 0, 62, 70, 71, 69, 61, 60, 0, 0, 0, 0, 0, 0, 0, 0, 0, 0, 0, 0, 0, 0, 0, 0, 0, 0, 0, 0, 0, 0, 0, 0, 0, 0, 0, 0, 0, 0, 0, 0, 0, 0, 0, 0, 0, 0, 0, 0, 0, 0, 0, 0, 0, 0, 0, 0, 0, 0, 0, 0, 0, 0, 0, 0, 0, 0, 0, 0, 0, 0, 0, 0, 0, 0, 62, 70, 71, 69, 61, 60, 0, 0, 0, 0, 0, 0, 0, 0, 0, 0, 0, 0, 0, 0, 0, 0, 0, 0, 0, 0, 0, 0, 0, 0, 0, 0, 0, 0, 0, 0, 0, 0, 0, 0, 0, 0, 0, 0, 0, 0, 0, 0, 0, 0, 0, 0, 0, 0, 0, 0, 0, 0, 0, 0, 0, 0, 0, 0, 0, 0, 0, 0, 0, 0, 0, 0, 62, 70, 71, 69, 61, 60, 0, 0, 0, 0, 0, 0, 0, 0, 0, 0, 0, 0, 0, 0, 0, 0, 0, 0, 0, 0, 0, 0, 0, 0, 0, 0, 0, 0, 0, 0, 0, 0, 0, 0, 0, 0, 0, 0, 0, 0, 0, 0, 0, 0, 0, 0, 0, 0, 0, 0, 0, 0, 0, 0, 0, 0, 0, 0, 0, 0, 0, 0, 0, 0, 0, 0, 62, 70, 71, 69, 61, 60, 0, 0, 0, 0, 0, 0, 0, 0, 0, 0, 0, 0, 0, 0, 0, 0, 0, 0, 0, 0, 0, 0, 0, 0, 0, 0, 0, 0, 0, 0, 0, 0, 0, 0, 0, 0, 0, 0, 0, 0, 0, 0, 0, 0, 0, 0, 0, 0, 0, 0, 0, 0, 0, 0, 0, 0, 0, 0, 0, 0, 0, 0, 0, 0, 0, 0, 62, 70, 71, 69, 60, 0, 0, 0, 0, 0, 0, 0, 0, 0, 0, 0, 0, 0, 0, 0, 0, 0, 0, 0, 0, 0, 0, 0, 0, 0, 0, 0, 0, 0, 0, 0, 0, 0, 0, 0, 0, 0, 0, 0, 0, 0, 0, 0, 0, 0, 0, 0, 0, 0, 0, 0, 0, 0, 0, 0, 0, 0, 0, 0, 0, 0, 0, 0, 0, 0, 0, 0, 62, 70, 67, 61, 60, 0, 0, 0, 0, 0, 0, 0, 0, 0, 0, 0, 0, 0, 0, 0, 0, 0, 0, 0, 0, 0, 0, 0, 0, 0, 0, 0, 0, 0, 0, 0, 0, 0, 0, 0, 0, 0, 0, 0, 0, 0, 0, 0, 0, 0, 0, 0, 0, 0, 0, 0, 0, 0, 0, 0, 0, 0, 0, 0, 0, 0, 0, 0, 0, 0, 0, 0, 62, 71, 69, 60, 0, 0, 0, 0, 0, 0, 0, 0, 0, 0, 0, 0, 0, 0, 0, 0, 0, 0, 0, 0, 0, 0, 0, 0, 0, 0, 0, 0, 0, 0, 0, 0, 0, 0, 0, 0, 0, 0, 0, 0, 0, 0, 0, 0, 0, 0, 0, 0, 0, 0, 0, 0, 0, 0, 0, 0, 0, 0, 0, 0, 0, 0, 0, 0, 0, 0, 0, 62, 71, 69, 60, 0, 0, 0, 0, 0, 0, 0, 0, 0, 0, 0, 0, 0, 0, 0, 0, 0, 0, 0, 0, 0, 0, 0, 0, 0, 0, 0, 0, 0, 0, 0, 0, 0, 0, 0, 0, 0, 0, 0, 0, 0, 0, 0, 0, 0, 0, 0, 0, 0, 0, 0, 0, 0, 0, 0, 0, 0, 0, 0, 0, 0, 0, 0, 0, 0, 0, 0, 62, 71, 69, 60, 0, 0, 0, 0, 0, 0, 0, 0, 0, 0, 0, 0, 0, 0, 0, 0, 0, 0, 0, 0, 0, 0, 0, 0, 0, 0, 0, 0, 0, 0, 0, 0, 0, 0, 0, 0, 0, 0, 0, 0, 0, 0, 0, 0, 0, 0, 0, 0, 0, 0, 0, 0, 0, 0, 0, 0, 0, 0, 0, 0, 0, 0, 0, 0, 0, 0, 0, 63, 75, 69, 60, 0, 0, 0, 0, 0, 0, 0, 0, 0, 0, 0, 0, 0, 0, 0, 0, 0, 0, 0, 0, 0, 0, 0, 0, 0, 0, 0, 0, 0, 0, 0, 0, 0, 0, 0, 0, 0, 0, 0, 0, 0, 0, 0, 0, 0, 0, 0, 0, 0, 0, 0, 0, 0, 0, 0, 0, 0, 0, 0, 0, 0, 0, 0, 0, 0, 0, 62, 71, 72, 66, 0, 0, 0, 0, 0, 0, 0, 0, 0, 0, 0, 0, 0, 0, 0, 0, 0, 0, 0, 0, 0, 0, 0, 0, 0, 0, 0, 0, 0, 0, 0, 0, 0, 0, 0, 0, 0, 0, 0, 0, 0, 0, 0, 0, 0, 0, 0, 0, 0, 0, 0, 0, 0, 0, 0, 0, 0, 0, 0, 0, 0, 0, 0, 0, 0, 0, 0, 62, 66, 0, 0, 0, 0, 0, 0, 0, 0, 0, 0, 0, 0, 0, 0, 0, 0, 0, 0, 0, 0, 0, 0, 0, 0, 0, 0, 0, 0, 0, 0, 0, 0, 0, 0, 0, 0, 0, 0, 0, 0, 0, 0, 0, 0, 0, 0, 0, 0, 0, 0, 0, 0, 0, 0, 0, 0, 0, 0, 0, 0, 0, 0, 0, 0, 0, 0, 0, 0, 0, 0, 0, 0, 0, 0, 0, 0, 0, 0, 0, 0, 0, 0, 0, 0, 0, 0, 0, 0, 0, 0, 0, 0, 0, 0, 0, 0, 0, 0, 0, 0, 0, 0, 0, 0, 0, 0, 0, 0, 0, 0, 0, 0, 0, 0, 0, 0, 0, 0, 0, 0, 0, 0, 0, 0, 0, 0, 0, 0, 0, 0, 0, 0, 0, 0, 0, 0, 0, 0, 0, 0, 0, 0, 0, 0, 0, 0, 0, 0, 0, 0, 0, 0, 0, 0, 0, 0, 0, 0, 0, 0, 0, 0, 0, 0, 0, 0, 0, 0, 0, 0, 0, 0, 0, 0, 0, 0, 0, 0, 0, 0, 0, 0, 0, 0, 0, 0, 0, 0, 0, 0, 0, 0, 0, 0, 0, 0, 0, 0, 0, 0, 0, 0, 0, 0, 0, 0, 0, 0, 0, 0, 0, 0, 0, 0, 0, 0, 0, 0, 0, 0, 0, 0, 0, 0, 0, 0, 0, 0, 0, 0, 0, 0, 0, 0, 0, 0, 0, 0, 0, 0, 0, 0, 0, 0, 0, 0, 0, 0, 0, 0, 0, 0, 0, 0, 0, 0, 0, 0, 0, 0, 0, 0, 0, 0, 0, 0, 0, 0, 0, 0, 0, 0, 0, 0, 0, 0, 0, 0, 0, 59, 61, 61, 60, 0, 0, 0, 0, 0, 0, 0, 0, 0, 0, 0, 0, 0, 0, 0, 0, 0, 0, 0, 0, 0, 0, 0, 0, 0, 0, 0, 0, 0, 0, 0, 0, 0, 0, 0, 0, 0, 0, 0, 0, 0, 0, 0, 0, 0, 0, 0, 0, 0, 0, 0, 0, 0, 0, 0, 0, 0, 0, 0, 0, 0, 0, 0, 0, 0, 0, 62, 71, 73, 69, 60, 0, 0, 0, 0, 0, 0, 0, 0, 0, 0, 0, 0, 0, 0, 0, 0, 0, 0, 0, 0, 0, 0, 0, 0, 0, 0, 0, 0, 0, 0, 0, 0, 0, 0, 0, 0, 0, 0, 0, 0, 0, 0, 0, 0, 0, 0, 0, 0, 0, 0, 0, 0, 0, 0, 0, 0, 0, 0, 0, 0, 0, 0, 0, 0, 0, 0, 62, 71, 74, 69, 60, 0, 0, 0, 0, 0, 0, 0, 0, 0, 0, 0, 0, 0, 0, 0, 0, 0, 0, 0, 0, 0, 0, 0, 0, 0, 0, 0, 0, 0, 0, 0, 0, 0, 0, 0, 0, 0, 0, 0, 0, 0, 0, 0, 0, 0, 0, 0, 0, 0, 0, 0, 0, 0, 0, 0, 0, 0, 0, 0, 0, 0, 0, 0, 0, 0, 0, 62, 71, 76, 69, 60, 0, 0, 0, 0, 0, 0, 0, 0, 0, 0, 0, 0, 0, 0, 0, 0, 0, 0, 0, 0, 0, 0, 0, 0, 0, 0, 0, 0, 0, 0, 0, 0, 0, 0, 0, 0, 0, 0, 0, 0, 0, 0, 0, 0, 0, 0, 0, 0, 0, 0, 0, 0, 0, 0, 0, 0, 0, 0, 0, 0, 0, 0, 0, 0, 0, 0, 62, 71, 73, 69, 61, 60, 0, 0, 0, 0, 0, 0, 0, 0, 0, 0, 0, 0, 0, 0, 0, 0, 0, 0, 0, 0, 0, 0, 0, 0, 0, 0, 0, 0, 0, 0, 0, 0, 0, 0, 0, 0, 0, 0, 0, 0, 0, 0, 0, 0, 0, 0, 0, 0, 0, 0, 0, 0, 0, 0, 0, 0, 0, 0, 0, 0, 0, 0, 0, 0, 0, 62, 70, 71, 73, 69, 60, 0, 0, 0, 0, 0, 0, 0, 0, 0, 0, 0, 0, 0, 0, 0, 0, 0, 0, 0, 0, 0, 0, 0, 0, 0, 0, 0, 0, 0, 0, 0, 0, 0, 0, 0, 0, 0, 0, 0, 0, 0, 0, 0, 0, 0, 0, 0, 0, 0, 0, 0, 0, 0, 0, 0, 0, 0, 0, 0, 0, 0, 0, 0, 0, 0, 0, 62, 70, 71, 69, 61, 60, 0, 0, 0, 0, 0, 0, 0, 0, 0, 0, 0, 0, 0, 0, 0, 0, 0, 0, 0, 0, 0, 0, 0, 0, 0, 0, 0, 0, 0, 0, 0, 0, 0, 0, 0, 0, 0, 0, 0, 0, 0, 0, 0, 0, 0, 0, 0, 0, 0, 0, 0, 0, 0, 0, 0, 0, 0, 0, 0, 0, 0, 0, 0, 0, 0, 0, 62, 70, 71, 69, 61, 60, 0, 0, 0, 0, 0, 0, 0, 0, 0, 0, 0, 0, 0, 0, 0, 0, 0, 0, 0, 0, 0, 0, 0, 0, 0, 0, 0, 0, 0, 0, 0, 0, 0, 0, 0, 0, 0, 0, 0, 0, 0, 0, 0, 0, 0, 0, 0, 0, 0, 0, 0, 0, 0, 0, 0, 0, 0, 0, 0, 0, 0, 0, 0, 0, 0, 0, 62, 70, 71, 69, 61, 60, 0, 0, 0, 0, 0, 0, 0, 0, 0, 0, 0, 0, 0, 0, 0, 0, 0, 0, 0, 0, 0, 0, 0, 0, 0, 0, 0, 0, 0, 0, 0, 0, 0, 0, 0, 0, 0, 0, 0, 0, 0, 0, 0, 0, 0, 0, 0, 0, 0, 0, 0, 0, 0, 0, 0, 0, 0, 0, 0, 0, 0, 0, 0, 0, 0, 0, 62, 70, 71, 69, 61, 60, 0, 0, 0, 0, 0, 0, 0, 0, 0, 0, 0, 0, 0, 0, 0, 0, 0, 0, 0, 0, 0, 0, 0, 0, 0, 0, 0, 0, 0, 0, 0, 0, 0, 0, 0, 0, 0, 0, 0, 0, 0, 0, 0, 0, 0, 0, 0, 0, 0, 0, 0, 0, 0, 0, 0, 0, 0, 0, 0, 0, 0, 0, 0, 0, 0, 0, 62, 70, 71, 69, 61, 60, 0, 0, 0, 0, 0, 0]}, {"id": 5, "name": "Above Player", "type": "tilelayer", "x": 0, "y": 0, "width": 70, "height": 45, "opacity": 1, "visible": true, "data": [0, 0, 0, 0, 0, 0, 0, 0, 0, 0, 0, 0, 0, 0, 0, 0, 0, 0, 0, 0, 0, 0, 0, 0, 0, 0, 0, 0, 0, 0, 0, 0, 0, 0, 0, 0, 0, 0, 0, 0, 0, 0, 0, 0, 0, 0, 0, 0, 0, 0, 0, 0, 0, 0, 0, 0, 0, 0, 0, 0, 0, 0, 0, 0, 0, 0, 0, 0, 0, 0, 0, 0, 0, 0, 0, 0, 0, 0, 0, 0, 0, 0, 0, 0, 0, 0, 0, 0, 0, 0, 0, 0, 0, 0, 0, 0, 0, 0, 0, 0, 0, 0, 0, 0, 0, 0, 0, 0, 0, 0, 0, 0, 0, 0, 0, 0, 0, 0, 0, 0, 0, 0, 0, 0, 0, 0, 0, 0, 0, 0, 0, 0, 0, 0, 0, 0, 0, 0, 0, 0, 0, 0, 0, 0, 0, 0, 0, 0, 0, 0, 0, 0, 0, 0, 0, 0, 0, 0, 0, 0, 0, 0, 0, 0, 0, 0, 0, 0, 0, 0, 0, 0, 0, 0, 0, 0, 0, 0, 0, 0, 0, 0, 0, 0, 0, 0, 0, 0, 0, 0, 0, 0, 0, 0, 0, 0, 0, 0, 0, 0, 0, 0, 0, 0, 0, 0, 0, 0, 0, 0, 0, 0, 0, 0, 0, 0, 0, 0, 0, 0, 0, 0, 0, 0, 0, 0, 0, 0, 0, 0, 0, 0, 0, 0, 0, 0, 0, 0, 0, 0, 0, 0, 0, 0, 0, 0, 0, 0, 0, 0, 0, 0, 0, 0, 0, 0, 0, 0, 0, 0, 0, 0, 0, 0, 0, 0, 0, 0, 0, 0, 0, 0, 0, 0, 0, 0, 0, 0, 0, 0, 0, 0, 0, 0, 0, 0, 0, 0, 0, 0, 0, 0, 0, 0, 0, 0, 0, 0, 0, 0, 0, 0, 0, 0, 0, 0, 0, 0, 0, 0, 0, 0, 0, 0, 0, 0, 0, 0, 0, 0, 0, 0, 0, 0, 0, 0, 0, 0, 0, 0, 0, 0, 0, 0, 0, 0, 0, 0, 0, 0, 0, 0, 0, 0, 0, 0, 0, 0, 0, 0, 0, 0, 0, 0, 0, 0, 0, 0, 0, 0, 0, 0, 0, 0, 0, 0, 0, 0, 0, 0, 0, 0, 0, 0, 0, 0, 0, 0, 0, 0, 0, 0, 0, 0, 0, 0, 0, 0, 0, 0, 0, 0, 0, 0, 0, 0, 0, 0, 0, 0, 0, 0, 0, 0, 0, 0, 0, 0, 0, 0, 0, 0, 0, 0, 0, 0, 0, 0, 0, 0, 0, 0, 0, 0, 0, 0, 0, 0, 0, 0, 0, 0, 0, 0, 0, 0, 0, 0, 0, 0, 0, 0, 0, 0, 0, 0, 0, 0, 0, 0, 0, 0, 0, 0, 0, 0, 0, 0, 0, 0, 0, 0, 0, 0, 0, 0, 0, 0, 0, 0, 0, 0, 0, 0, 0, 0, 0, 0, 0, 0, 0, 0, 0, 0, 0, 0, 0, 0, 0, 0, 0, 0, 0, 0, 0, 0, 0, 0, 0, 0, 0, 0, 0, 0, 0, 0, 0, 0, 0, 0, 0, 0, 0, 0, 0, 0, 0, 0, 0, 0, 0, 0, 0, 0, 0, 0, 0, 0, 0, 0, 0, 0, 0, 0, 0, 0, 0, 0, 0, 0, 0, 0, 0, 0, 0, 0, 0, 0, 0, 0, 0, 0, 0, 0, 0, 0, 0, 0, 0, 0, 0, 0, 0, 0, 0, 0, 0, 0, 0, 0, 0, 0, 0, 0, 0, 0, 0, 0, 0, 0, 0, 0, 0, 0, 0, 0, 0, 0, 0, 0, 0, 0, 0, 0, 0, 0, 0, 0, 0, 0, 0, 0, 0, 0, 0, 0, 0, 0, 0, 0, 0, 0, 0, 0, 0, 0, 0, 0, 0, 0, 0, 0, 0, 0, 0, 0, 0, 0, 0, 0, 0, 0, 0, 0, 0, 0, 0, 0, 0, 0, 0, 0, 0, 0, 0, 0, 0, 0, 0, 0, 0, 0, 0, 0, 0, 0, 0, 0, 0, 0, 0, 0, 0, 0, 0, 0, 0, 0, 0, 0, 0, 0, 0, 0, 0, 0, 0, 0, 0, 0, 0, 0, 0, 0, 0, 0, 0, 0, 0, 0, 0, 0, 0, 0, 0, 0, 0, 0, 0, 0, 0, 0, 0, 0, 0, 0, 0, 0, 0, 0, 0, 0, 0, 0, 0, 0, 0, 0, 0, 0, 0, 0, 0, 0, 0, 0, 0, 0, 0, 0, 0, 0, 0, 0, 0, 0, 0, 0, 0, 0, 0, 0, 0, 0, 0, 0, 0, 0, 0, 0, 0, 0, 0, 0, 0, 0, 0, 0, 0, 0, 0, 0, 0, 0, 0, 0, 0, 0, 0, 0, 0, 0, 0, 0, 0, 0, 0, 0, 0, 0, 0, 0, 0, 0, 0, 0, 0, 0, 0, 0, 0, 0, 0, 0, 0, 0, 0, 0, 0, 0, 0, 0, 0, 0, 0, 0, 0, 0, 0, 0, 0, 0, 0, 0, 0, 0, 0, 0, 0, 0, 0, 0, 0, 0, 0, 0, 0, 0, 0, 0, 0, 0, 0, 0, 0, 0, 0, 0, 0, 0, 0, 0, 0, 0, 0, 0, 0, 0, 0, 0, 0, 0, 0, 0, 0, 0, 0, 0, 0, 0, 0, 0, 0, 0, 0, 0, 0, 0, 0, 0, 0, 0, 0, 0, 0, 0, 0, 0, 0, 0, 0, 0, 0, 0, 0, 0, 0, 0, 0, 0, 0, 0, 0, 0, 0, 0, 0, 0, 0, 0, 0, 0, 0, 0, 0, 0, 0, 0, 0, 0, 0, 0, 0, 0, 0, 0, 0, 0, 0, 0, 0, 0, 0, 0, 0, 0, 0, 0, 0, 0, 0, 0, 0, 0, 0, 0, 0, 0, 0, 0, 0, 0, 0, 0, 0, 0, 0, 0, 0, 0, 0, 0, 0, 0, 0, 0, 0, 0, 0, 0, 0, 0, 0, 0, 0, 0, 0, 0, 0, 0, 0, 0, 0, 0, 0, 0, 0, 0, 0, 0, 0, 0, 0, 0, 0, 0, 0, 0, 0, 0, 0, 0, 0, 0, 0, 0, 0, 0, 0, 0, 0, 0, 0, 0, 0, 0, 0, 0, 0, 0, 0, 0, 0, 0, 0, 0, 0, 0, 0, 0, 0, 0, 0, 0, 0, 0, 0, 0, 0, 0, 0, 0, 0, 0, 0, 0, 0, 0, 0, 0, 0, 0, 0, 0, 0, 0, 0, 0, 0, 0, 0, 0, 0, 0, 0, 0, 0, 0, 0, 0, 0, 0, 0, 0, 0, 0, 0, 0, 0, 0, 0, 0, 0, 0, 0, 0, 0, 0, 0, 0, 0, 0, 0, 0, 0, 0, 0, 0, 0, 0, 0, 0, 0, 0, 0, 0, 0, 0, 0, 0, 0, 0, 0, 0, 0, 0, 0, 0, 0, 0, 0, 0, 0, 0, 0, 0, 0, 0, 0, 0, 0, 0, 0, 0, 0, 0, 0, 0, 0, 0, 0, 0, 0, 0, 0, 0, 0, 0, 0, 0, 0, 0, 0, 0, 0, 0, 0, 0, 0, 0, 0, 0, 0, 0, 0, 0, 0, 0, 0, 0, 0, 0, 0, 0, 0, 0, 0, 0, 0, 0, 0, 0, 0, 0, 0, 0, 0, 0, 0, 0, 0, 0, 0, 0, 0, 0, 0, 0, 0, 0, 0, 0, 0, 0, 0, 0, 0, 0, 0, 0, 0, 0, 0, 0, 0, 0, 0, 0, 0, 0, 0, 0, 0, 0, 0, 0, 0, 0, 0, 0, 0, 0, 0, 0, 0, 0, 0, 0, 0, 0, 0, 0, 0, 0, 0, 0, 0, 0, 0, 0, 0, 0, 0, 0, 0, 0, 0, 0, 0, 0, 0, 0, 0, 0, 0, 0, 0, 0, 0, 0, 0, 0, 0, 0, 0, 0, 0, 0, 0, 0, 0, 0, 0, 0, 0, 0, 0, 0, 0, 0, 0, 0, 0, 0, 0, 0, 0, 0, 0, 0, 0, 0, 0, 0, 0, 0, 0, 0, 0, 0, 0, 0, 0, 0, 0, 0, 0, 0, 0, 0, 0, 0, 0, 0, 0, 0, 0, 0, 0, 0, 0, 0, 0, 0, 0, 0, 0, 0, 0, 0, 0, 0, 0, 0, 0, 0, 0, 0, 0, 0, 0, 0, 0, 0, 0, 0, 0, 0, 0, 0, 0, 0, 0, 0, 0, 0, 0, 0, 0, 0, 0, 0, 0, 0, 0, 0, 0, 0, 0, 0, 0, 0, 0, 0, 0, 0, 0, 0, 0, 0, 0, 0, 0, 0, 0, 0, 0, 0, 0, 0, 0, 0, 0, 0, 0, 0, 0, 0, 0, 0, 0, 0, 0, 0, 0, 0, 0, 0, 0, 0, 0, 0, 0, 0, 0, 0, 0, 0, 0, 0, 0, 0, 0, 0, 0, 0, 0, 0, 0, 0, 0, 0, 0, 0, 0, 0, 0, 0, 0, 0, 0, 0, 0, 0, 0, 0, 0, 0, 0, 0, 0, 0, 0, 0, 0, 0, 0, 0, 0, 0, 0, 0, 0, 0, 0, 0, 0, 0, 0, 0, 0, 0, 0, 0, 0, 0, 0, 0, 0, 0, 0, 0, 0, 0, 0, 0, 0, 0, 0, 0, 0, 0, 0, 0, 0, 0, 0, 0, 0, 0, 0, 0, 0, 0, 0, 0, 0, 0, 0, 0, 0, 0, 0, 0, 0, 0, 0, 0, 0, 0, 0, 0, 0, 0, 0, 0, 0, 0, 0, 0, 0, 0, 0, 0, 0, 0, 0, 0, 0, 0, 0, 0, 0, 0, 0, 0, 0, 0, 0, 0, 0, 0, 0, 0, 0, 0, 0, 0, 0, 0, 0, 0, 0, 0, 0, 0, 0, 0, 0, 0, 0, 0, 0, 0, 0, 0, 0, 0, 0, 0, 0, 0, 0, 0, 0, 0, 0, 0, 0, 0, 0, 0, 0, 0, 0, 0, 0, 0, 0, 0, 0, 0, 0, 0, 0, 0, 0, 0, 0, 0, 0, 0, 0, 0, 0, 0, 0, 0, 0, 0, 0, 0, 0, 0, 0, 0, 0, 0, 0, 0, 0, 0, 0, 0, 0, 0, 0, 0, 0, 0, 0, 0, 0, 0, 0, 0, 0, 0, 0, 0, 0, 0, 0, 0, 0, 0, 0, 0, 0, 0, 0, 0, 0, 0, 0, 0, 0, 0, 0, 0, 0, 0, 0, 0, 0, 0, 0, 0, 0, 0, 0, 0, 0, 0, 0, 0, 0, 0, 0, 0, 0, 0, 0, 0, 0, 0, 0, 0, 0, 0, 0, 0, 0, 0, 0, 0, 0, 0, 0, 0, 0, 0, 0, 0, 0, 0, 0, 0, 0, 0, 0, 0, 0, 0, 0, 0, 0, 0, 0, 0, 0, 0, 0, 0, 0, 0, 0, 0, 0, 0, 0, 0, 0, 0, 0, 0, 0, 0, 0, 0, 0, 0, 0, 0, 0, 0, 0, 0, 0, 0, 0, 0, 0, 0, 0, 0, 0, 0, 0, 0, 0, 0, 0, 0, 0, 0, 0, 0, 0, 0, 0, 0, 0, 0, 0, 0, 0, 0, 0, 0, 0, 0, 0, 0, 0, 0, 0, 0, 0, 0, 0, 0, 0, 0, 0, 0, 0, 0, 0, 0, 0, 0, 0, 0, 0, 0, 0, 0, 0, 0, 0, 0, 0, 0, 0, 0, 0, 0, 0, 0, 0, 0, 0, 0, 0, 0, 0, 0, 0, 0, 0, 0, 0, 0, 0, 0, 0, 0, 0, 0, 0, 0, 0, 0, 0, 0, 0, 0, 0, 0, 0, 0, 0, 0, 0, 0, 0, 0, 0, 0, 0, 0, 0, 0, 0, 0, 0, 0, 0, 0, 0, 0, 0, 0, 0, 0, 0, 0, 0, 0, 0, 0, 0, 0, 0, 0, 0, 0, 0, 0, 0, 0, 0, 0, 0, 0, 0, 0, 0, 0, 0, 0, 0, 0, 0, 0, 0, 0, 0, 0, 0, 0, 0, 0, 0, 0, 0, 0, 0, 0, 0, 0, 0, 0, 0, 0, 0, 0, 0, 0, 0, 0, 0, 0, 0, 0, 0, 0, 0, 0, 0, 0, 0, 0, 0, 0, 0, 0, 0, 0, 0, 0, 0, 0, 0, 0, 0, 0, 0, 0, 0, 0, 0, 0, 0, 0, 0, 0, 0, 0, 0, 0, 0, 0, 0, 0, 0, 0, 0, 0, 0, 0, 0, 0, 0, 0, 0, 0, 0, 0, 0, 0, 0, 0, 0, 0, 0, 0, 0, 0, 0, 0, 0, 0, 0, 0, 0, 0, 0, 0, 0, 0, 0, 0, 0, 0, 0, 0, 0, 0, 0, 0, 0, 0, 0, 0, 0, 0, 0, 0, 0, 0, 0, 0, 0, 0, 0, 0, 0, 0, 0, 0, 0, 0, 0, 0, 0, 0, 0, 0, 0, 0, 0, 0, 0, 0, 0, 0, 0, 0, 0, 0, 0, 0, 0, 0, 0, 0, 0, 0, 0, 0, 0, 0, 0, 0, 0, 0, 0, 0, 0, 0, 0, 0, 0, 0, 0, 0, 0, 0, 0, 0, 0, 0, 0, 0, 0, 0, 0, 0, 0, 0, 0, 0, 0, 0, 0, 0, 0, 0, 0, 0, 0, 0, 0, 0, 0, 0, 0, 0, 0, 0, 0, 0, 0, 0, 0, 0, 0, 0, 0, 0, 0, 0, 0, 0, 0, 0, 0, 0, 0, 0, 0, 0, 0, 0, 0, 0, 0, 0, 0, 0, 0, 0, 0, 0, 0, 0, 0, 0, 0, 0, 0, 0, 0, 0, 0, 0, 0, 0, 0, 0, 0, 0, 0, 0, 0, 0, 0, 0, 0, 0, 0, 0, 0, 0, 0, 0, 0, 0, 0, 0, 0, 0, 0, 0, 0, 0, 0, 0, 0, 0, 0, 0, 0, 0, 0, 0, 0, 0, 0, 0, 0, 0, 0, 0, 0, 0, 0, 0, 0, 0, 0, 0, 0, 0, 0, 0, 0, 0, 0, 0, 0, 0, 0, 0, 0, 0, 0, 0, 0, 0, 0, 0, 0, 0, 0, 0, 0, 0, 0, 0, 0, 0, 0, 0, 0, 0, 0, 0, 0, 0, 0, 0, 0, 0, 0, 0, 0, 0, 0, 0, 0, 0, 0, 0, 0, 0, 0, 0, 0, 0, 0, 0, 0, 0, 0, 0, 0, 0, 0, 0, 0, 0, 0, 0, 0, 0, 0, 0, 0, 0, 0, 0, 0, 0, 0, 0, 0, 0, 0, 0, 0, 0, 0, 0, 0, 0, 0, 0, 0, 0, 0, 0, 0, 0, 0, 0, 0, 0, 0, 0, 0, 0, 0, 0, 0, 0, 0, 0, 0, 0, 0, 0, 0, 0, 0, 0, 0, 0, 0, 0, 0, 0, 0, 0, 0, 0, 0, 0, 0, 0, 0, 0, 0, 0, 0, 0, 0, 0, 0, 0, 0, 0, 0, 0, 0, 0, 0, 0, 0, 0, 0, 0, 0, 0, 0, 0, 0, 0, 0, 0, 0, 0, 0, 0, 0, 0, 0, 0, 0, 0, 0, 0, 0, 0, 0, 0, 0, 0, 0, 0, 0, 0, 0, 0, 0, 0, 0, 0, 0, 0, 0, 0, 0, 0, 0, 0, 0, 0, 0, 0, 0, 0, 0, 0, 0, 0, 0, 0, 0, 0, 0, 0, 0, 0, 0, 0, 0, 0, 0, 0, 0, 0, 0, 0, 0, 0, 0, 0, 0, 0, 0, 0, 0, 0, 0, 0, 0, 0, 0, 0, 0, 0, 0, 0, 0, 0, 0, 0, 0, 0, 0, 0, 0, 0, 0, 0, 0, 0, 0, 0, 0, 0, 0, 0, 0, 0, 0, 0, 0, 0, 0, 0, 0, 0, 0, 0, 0, 0, 0, 0, 0, 0, 0, 0, 0, 0, 0, 0, 0, 0, 0, 0, 0, 0, 0, 0, 0, 0, 0, 0, 0, 0, 0, 0, 0, 0, 0, 0, 0, 0, 0, 0, 0, 0, 0, 0, 0, 0, 0, 0, 0, 0, 0, 0, 0, 0, 0, 0, 0, 0, 0, 0, 0, 0, 0, 0, 0, 0, 0, 0, 0, 0, 0, 0, 0, 0, 0, 0, 0, 0, 0, 0, 0, 0, 0, 0, 0, 0, 0, 0, 0, 0, 0, 0, 0, 0, 0, 0, 0, 0, 0, 0, 0, 0, 0, 0, 0, 0, 0, 0, 0, 0, 0, 0, 0, 0, 0, 0, 0, 0, 0, 0, 0, 0, 0, 0, 0, 0, 0, 0, 0, 0, 0, 0, 0, 0, 0, 0, 0, 0, 0, 0, 0, 0, 0, 0, 0, 0, 0, 0, 0, 0, 0, 0, 0, 0, 0, 0, 0, 0, 0, 0, 0, 0, 0, 0, 0, 0, 0, 0, 0, 0, 0, 0, 0, 0, 0, 0, 0, 0, 0, 0, 0, 0, 0, 0, 0, 0, 0, 0, 0, 0, 0, 0, 0, 0, 0, 0, 0, 0, 0, 0, 0, 0, 0, 0, 0, 0, 0, 0, 0, 0, 0, 0, 0, 0, 0, 0, 0, 0, 0, 0, 0, 0, 0, 0, 0, 0, 0, 0, 0, 0, 0, 0, 0, 0, 0, 0, 0, 0, 0, 0, 0, 0, 0, 0, 0, 0, 0, 0, 0, 0, 0, 0, 0, 0, 0, 0, 0, 0, 0, 0, 0, 0, 0, 0, 0, 0, 0, 0, 0, 0, 0, 0, 0, 0, 0, 0, 0, 0, 0, 0, 0, 0, 0, 0, 0, 0, 0, 0, 0, 0, 0, 0, 0, 0, 0, 0, 0, 0, 0, 0, 0, 0, 0, 0, 0, 0, 0, 0, 0, 0, 0, 0, 0, 0, 0, 0, 0, 0, 0, 0, 0, 0, 0, 0, 0, 0, 0, 0, 0, 0, 0, 0, 0, 0, 0, 0, 0, 0, 0, 0, 0, 0, 0, 0, 0, 0, 0, 0, 0, 0, 0, 0, 0, 0, 0, 0, 0, 0, 0, 0, 0, 0, 0, 0, 0, 0, 0, 0, 0, 0, 0, 0, 0, 0, 0, 0, 0, 0, 0, 0, 0, 0, 0, 0, 0, 0, 0, 0, 0, 0, 0, 0, 0, 0, 0, 0, 0, 0, 0, 0, 0, 0, 0, 0, 0, 0, 0, 0, 0, 0, 0, 0, 0, 0, 0, 0, 0, 0, 0, 0, 0, 0, 0, 0, 0, 0, 0, 0, 0, 0, 0, 0, 0, 0, 0, 0, 0, 0, 0, 0, 0, 0, 0, 0, 0, 0, 0, 0, 0, 0, 0, 0, 0, 0, 0, 0, 0, 0, 0, 0, 0, 0, 0, 0, 0, 0, 0, 0, 0, 0, 0, 0, 0, 0, 0, 0, 0, 0, 0, 0, 0, 0, 0, 0, 0, 0, 0, 0, 0, 0, 0, 0, 0, 0, 0, 0, 0, 0, 0, 0, 0, 0, 0, 0, 0, 0, 0, 0, 0, 0, 0, 0, 0, 0, 0, 0, 0, 0, 0, 0, 0, 0, 0, 0, 0, 0, 0, 0, 0, 0, 0, 0, 0, 0, 0, 0, 0, 0, 0, 0, 0, 0, 0, 0, 0, 0, 0, 0, 0, 0, 0, 0, 0, 0, 0, 0, 0, 0, 0, 0, 0, 0, 0, 0, 0, 0, 0, 0, 0, 0, 0, 0, 0, 0, 0, 0, 0, 0, 0, 0, 0, 0, 0, 0, 0, 0, 0, 0, 0, 0, 0, 0, 0, 0, 0, 0, 0, 0, 0, 0, 0, 0, 0, 0, 0, 0, 0, 0, 0, 0, 0, 0, 0, 0, 0, 0, 0, 0, 0, 0, 0, 0, 0, 0, 0, 0, 0, 0, 0, 0, 0, 0, 0, 0, 0, 0]}, {"id": 6, "name": "Objects", "type": "objectgroup", "x": 0, "y": 0, "opacity": 1, "visible": true, "draworder": "topdown", "objects": [{"id": 1, "name": "Spawn Point", "type": "", "x": 1120, "y": 1376, "width": 0, "height": 0, "rotation": 0, "visible": true, "point": true}, {"id": 2, "name": "maestra-silbo", "type": "npc", "x": 992, "y": 1280, "width": 0, "height": 0, "rotation": 0, "visible": true, "point": true, "properties": [{"name": "sprite", "type": "string", "value": "forestnpc"}]}, {"id": 3, "name": "corazon-garajonay", "type": "hito", "x": 1120, "y": 224, "width": 0, "height": 0, "rotation": 0, "visible": true, "point": true}, {"id": 4, "name": "corazon-garajonay", "type": "zona", "x": 1120, "y": 160, "width": 0, "height": 0, "rotation": 0, "visible": true, "point": true}, {"id": 5, "name": "rata", "type": "enemigo", "x": 768, "y": 768, "width": 0, "height": 0, "rotation": 0, "visible": true, "point": true}, {"id": 6, "name": "rata", "type": "enemigo", "x": 1600, "y": 832, "width": 0, "height": 0, "rotation": 0, "visible": true, "point": true}, {"id": 7, "name": "rata", "type": "enemigo", "x": 448, "y": 384, "width": 0, "height": 0, "rotation": 0, "visible": true, "point": true}, {"id": 8, "name": "rata", "type": "enemigo", "x": 1856, "y": 448, "width": 0, "height": 0, "rotation": 0, "visible": true, "point": true}, {"id": 9, "name": "rata", "type": "enemigo", "x": 1344, "y": 1216, "width": 0, "height": 0, "rotation": 0, "visible": true, "point": true}, {"id": 10, "name": "rata", "type": "enemigo", "x": 384, "y": 1152, "width": 0, "height": 0, "rotation": 0, "visible": true, "point": true}, {"id": 11, "name": "laurel", "type": "decor", "x": 276, "y": 820, "width": 0, "height": 0, "rotation": 0, "visible": true, "point": true, "properties": [{"name": "solido", "type": "bool", "value": true}]}, {"id": 12, "name": "laurel", "type": "decor", "x": 146, "y": 1388, "width": 0, "height": 0, "rotation": 0, "visible": true, "point": true, "properties": [{"name": "solido", "type": "bool", "value": true}]}, {"id": 13, "name": "laurel", "type": "decor", "x": 1434, "y": 1213, "width": 0, "height": 0, "rotation": 0, "visible": true, "point": true, "properties": [{"name": "solido", "type": "bool", "value": true}]}, {"id": 14, "name": "laurel", "type": "decor", "x": 2011, "y": 161, "width": 0, "height": 0, "rotation": 0, "visible": true, "point": true, "properties": [{"name": "solido", "type": "bool", "value": true}]}, {"id": 15, "name": "laurel", "type": "decor", "x": 2008, "y": 1338, "width": 0, "height": 0, "rotation": 0, "visible": true, "point": true, "properties": [{"name": "solido", "type": "bool", "value": true}]}, {"id": 16, "name": "laurel", "type": "decor", "x": 714, "y": 705, "width": 0, "height": 0, "rotation": 0, "visible": true, "point": true, "properties": [{"name": "solido", "type": "bool", "value": true}]}, {"id": 17, "name": "laurel", "type": "decor", "x": 221, "y": 472, "width": 0, "height": 0, "rotation": 0, "visible": true, "point": true, "properties": [{"name": "solido", "type": "bool", "value": true}]}, {"id": 18, "name": "laurel", "type": "decor", "x": 816, "y": 1308, "width": 0, "height": 0, "rotation": 0, "visible": true, "point": true, "properties": [{"name": "solido", "type": "bool", "value": true}]}, {"id": 19, "name": "laurel", "type": "decor", "x": 58, "y": 151, "width": 0, "height": 0, "rotation": 0, "visible": true, "point": true, "properties": [{"name": "solido", "type": "bool", "value": true}]}, {"id": 20, "name": "laurel", "type": "decor", "x": 58, "y": 44, "width": 0, "height": 0, "rotation": 0, "visible": true, "point": true, "properties": [{"name": "solido", "type": "bool", "value": true}]}, {"id": 21, "name": "laurel", "type": "decor", "x": 382, "y": 824, "width": 0, "height": 0, "rotation": 0, "visible": true, "point": true, "properties": [{"name": "solido", "type": "bool", "value": true}]}, {"id": 22, "name": "laurel", "type": "decor", "x": 2166, "y": 974, "width": 0, "height": 0, "rotation": 0, "visible": true, "point": true, "properties": [{"name": "solido", "type": "bool", "value": true}]}, {"id": 23, "name": "laurel", "type": "decor", "x": 1036, "y": 520, "width": 0, "height": 0, "rotation": 0, "visible": true, "point": true, "properties": [{"name": "solido", "type": "bool", "value": true}]}, {"id": 24, "name": "laurel", "type": "decor", "x": 176, "y": 113, "width": 0, "height": 0, "rotation": 0, "visible": true, "point": true, "properties": [{"name": "solido", "type": "bool", "value": true}]}, {"id": 25, "name": "laurel", "type": "decor", "x": 2070, "y": 123, "width": 0, "height": 0, "rotation": 0, "visible": true, "point": true, "properties": [{"name": "solido", "type": "bool", "value": true}]}, {"id": 26, "name": "laurel", "type": "decor", "x": 2165, "y": 1331, "width": 0, "height": 0, "rotation": 0, "visible": true, "point": true, "properties": [{"name": "solido", "type": "bool", "value": true}]}, {"id": 27, "name": "laurel", "type": "decor", "x": 1745, "y": 876, "width": 0, "height": 0, "rotation": 0, "visible": true, "point": true, "properties": [{"name": "solido", "type": "bool", "value": true}]}, {"id": 28, "name": "laurel", "type": "decor", "x": 2183, "y": 1109, "width": 0, "height": 0, "rotation": 0, "visible": true, "point": true, "properties": [{"name": "solido", "type": "bool", "value": true}]}, {"id": 29, "name": "laurel", "type": "decor", "x": 329, "y": 486, "width": 0, "height": 0, "rotation": 0, "visible": true, "point": true, "properties": [{"name": "solido", "type": "bool", "value": true}]}, {"id": 30, "name": "laurel", "type": "decor", "x": 2082, "y": 1122, "width": 0, "height": 0, "rotation": 0, "visible": true, "point": true, "properties": [{"name": "solido", "type": "bool", "value": true}]}, {"id": 31, "name": "laurel", "type": "decor", "x": 39, "y": 340, "width": 0, "height": 0, "rotation": 0, "visible": true, "point": true, "properties": [{"name": "solido", "type": "bool", "value": true}]}, {"id": 32, "name": "laurel", "type": "decor", "x": 2195, "y": 149, "width": 0, "height": 0, "rotation": 0, "visible": true, "point": true, "properties": [{"name": "solido", "type": "bool", "value": true}]}, {"id": 33, "name": "laurel", "type": "decor", "x": 2048, "y": 366, "width": 0, "height": 0, "rotation": 0, "visible": true, "point": true, "properties": [{"name": "solido", "type": "bool", "value": true}]}, {"id": 34, "name": "laurel", "type": "decor", "x": 49, "y": 240, "width": 0, "height": 0, "rotation": 0, "visible": true, "point": true, "properties": [{"name": "solido", "type": "bool", "value": true}]}, {"id": 35, "name": "laurel", "type": "decor", "x": 1242, "y": 48, "width": 0, "height": 0, "rotation": 0, "visible": true, "point": true, "properties": [{"name": "solido", "type": "bool", "value": true}]}, {"id": 36, "name": "laurel", "type": "decor", "x": 506, "y": 438, "width": 0, "height": 0, "rotation": 0, "visible": true, "point": true, "properties": [{"name": "solido", "type": "bool", "value": true}]}, {"id": 37, "name": "laurel", "type": "decor", "x": 1759, "y": 1113, "width": 0, "height": 0, "rotation": 0, "visible": true, "point": true, "properties": [{"name": "solido", "type": "bool", "value": true}]}, {"id": 38, "name": "laurel", "type": "decor", "x": 144, "y": 312, "width": 0, "height": 0, "rotation": 0, "visible": true, "point": true, "properties": [{"name": "solido", "type": "bool", "value": true}]}, {"id": 39, "name": "laurel", "type": "decor", "x": 2205, "y": 1213, "width": 0, "height": 0, "rotation": 0, "visible": true, "point": true, "properties": [{"name": "solido", "type": "bool", "value": true}]}, {"id": 40, "name": "laurel", "type": "decor", "x": 566, "y": 880, "width": 0, "height": 0, "rotation": 0, "visible": true, "point": true, "properties": [{"name": "solido", "type": "bool", "value": true}]}, {"id": 41, "name": "laurel", "type": "decor", "x": 1448, "y": 91, "width": 0, "height": 0, "rotation": 0, "visible": true, "point": true, "properties": [{"name": "solido", "type": "bool", "value": true}]}, {"id": 42, "name": "laurel", "type": "decor", "x": 1756, "y": 89, "width": 0, "height": 0, "rotation": 0, "visible": true, "point": true, "properties": [{"name": "solido", "type": "bool", "value": true}]}, {"id": 43, "name": "laurel", "type": "decor", "x": 564, "y": 408, "width": 0, "height": 0, "rotation": 0, "visible": true, "point": true, "properties": [{"name": "solido", "type": "bool", "value": true}]}, {"id": 44, "name": "laurel", "type": "decor", "x": 923, "y": 137, "width": 0, "height": 0, "rotation": 0, "visible": true, "point": true, "properties": [{"name": "solido", "type": "bool", "value": true}]}, {"id": 45, "name": "laurel", "type": "decor", "x": 1390, "y": 66, "width": 0, "height": 0, "rotation": 0, "visible": true, "point": true, "properties": [{"name": "solido", "type": "bool", "value": true}]}, {"id": 46, "name": "laurel", "type": "decor", "x": 1177, "y": 802, "width": 0, "height": 0, "rotation": 0, "visible": true, "point": true, "properties": [{"name": "solido", "type": "bool", "value": true}]}, {"id": 47, "name": "laurel", "type": "decor", "x": 1882, "y": 1307, "width": 0, "height": 0, "rotation": 0, "visible": true, "point": true, "properties": [{"name": "solido", "type": "bool", "value": true}]}, {"id": 48, "name": "laurel", "type": "decor", "x": 1103, "y": 462, "width": 0, "height": 0, "rotation": 0, "visible": true, "point": true, "properties": [{"name": "solido", "type": "bool", "value": true}]}, {"id": 49, "name": "laurel", "type": "decor", "x": 1401, "y": 233, "width": 0, "height": 0, "rotation": 0, "visible": true, "point": true, "properties": [{"name": "solido", "type": "bool", "value": true}]}, {"id": 50, "name": "laurel", "type": "decor", "x": 463, "y": 820, "width": 0, "height": 0, "rotation": 0, "visible": true, "point": true, "properties": [{"name": "solido", "type": "bool", "value": true}]}, {"id": 51, "name": "laurel", "type": "decor", "x": 1943, "y": 1020, "width": 0, "height": 0, "rotation": 0, "visible": true, "point": true, "properties": [{"name": "solido", "type": "bool", "value": true}]}, {"id": 52, "name": "laurel", "type": "decor", "x": 1440, "y": 723, "width": 0, "height": 0, "rotation": 0, "visible": true, "point": true, "properties": [{"name": "solido", "type": "bool", "value": true}]}, {"id": 53, "name": "laurel", "type": "decor", "x": 285, "y": 356, "width": 0, "height": 0, "rotation": 0, "visible": true, "point": true, "properties": [{"name": "solido", "type": "bool", "value": true}]}, {"id": 54, "name": "laurel", "type": "decor", "x": 889, "y": 1175, "width": 0, "height": 0, "rotation": 0, "visible": true, "point": true, "properties": [{"name": "solido", "type": "bool", "value": true}]}, {"id": 55, "name": "laurel", "type": "decor", "x": 453, "y": 1072, "width": 0, "height": 0, "rotation": 0, "visible": true, "point": true, "properties": [{"name": "solido", "type": "bool", "value": true}]}, {"id": 56, "name": "laurel", "type": "decor", "x": 331, "y": 626, "width": 0, "height": 0, "rotation": 0, "visible": true, "point": true, "properties": [{"name": "solido", "type": "bool", "value": true}]}, {"id": 57, "name": "laurel", "type": "decor", "x": 196, "y": 675, "width": 0, "height": 0, "rotation": 0, "visible": true, "point": true, "properties": [{"name": "solido", "type": "bool", "value": true}]}, {"id": 58, "name": "laurel", "type": "decor", "x": 395, "y": 1251, "width": 0, "height": 0, "rotation": 0, "visible": true, "point": true, "properties": [{"name": "solido", "type": "bool", "value": true}]}, {"id": 59, "name": "laurel", "type": "decor", "x": 722, "y": 114, "width": 0, "height": 0, "rotation": 0, "visible": true, "point": true, "properties": [{"name": "solido", "type": "bool", "value": true}]}, {"id": 60, "name": "laurel", "type": "decor", "x": 218, "y": 1254, "width": 0, "height": 0, "rotation": 0, "visible": true, "point": true, "properties": [{"name": "solido", "type": "bool", "value": true}]}, {"id": 61, "name": "laurel", "type": "decor", "x": 286, "y": 1251, "width": 0, "height": 0, "rotation": 0, "visible": true, "point": true, "properties": [{"name": "solido", "type": "bool", "value": true}]}, {"id": 62, "name": "laurel", "type": "decor", "x": 1241, "y": 704, "width": 0, "height": 0, "rotation": 0, "visible": true, "point": true, "properties": [{"name": "solido", "type": "bool", "value": true}]}, {"id": 63, "name": "laurel", "type": "decor", "x": 182, "y": 808, "width": 0, "height": 0, "rotation": 0, "visible": true, "point": true, "properties": [{"name": "solido", "type": "bool", "value": true}]}, {"id": 64, "name": "laurel", "type": "decor", "x": 770, "y": 300, "width": 0, "height": 0, "rotation": 0, "visible": true, "point": true, "properties": [{"name": "solido", "type": "bool", "value": true}]}, {"id": 65, "name": "laurel", "type": "decor", "x": 1297, "y": 626, "width": 0, "height": 0, "rotation": 0, "visible": true, "point": true, "properties": [{"name": "solido", "type": "bool", "value": true}]}, {"id": 66, "name": "laurel", "type": "decor", "x": 188, "y": 569, "width": 0, "height": 0, "rotation": 0, "visible": true, "point": true, "properties": [{"name": "solido", "type": "bool", "value": true}]}, {"id": 67, "name": "laurel", "type": "decor", "x": 216, "y": 210, "width": 0, "height": 0, "rotation": 0, "visible": true, "point": true, "properties": [{"name": "solido", "type": "bool", "value": true}]}, {"id": 68, "name": "laurel", "type": "decor", "x": 940, "y": 502, "width": 0, "height": 0, "rotation": 0, "visible": true, "point": true, "properties": [{"name": "solido", "type": "bool", "value": true}]}, {"id": 69, "name": "laurel", "type": "decor", "x": 1880, "y": 352, "width": 0, "height": 0, "rotation": 0, "visible": true, "point": true, "properties": [{"name": "solido", "type": "bool", "value": true}]}, {"id": 70, "name": "laurel", "type": "decor", "x": 1678, "y": 1031, "width": 0, "height": 0, "rotation": 0, "visible": true, "point": true, "properties": [{"name": "solido", "type": "bool", "value": true}]}, {"id": 71, "name": "laurel", "type": "decor", "x": 1959, "y": 106, "width": 0, "height": 0, "rotation": 0, "visible": true, "point": true, "properties": [{"name": "solido", "type": "bool", "value": true}]}, {"id": 72, "name": "laurel", "type": "decor", "x": 1050, "y": 580, "width": 0, "height": 0, "rotation": 0, "visible": true, "point": true, "properties": [{"name": "solido", "type": "bool", "value": true}]}, {"id": 73, "name": "laurel", "type": "decor", "x": 939, "y": 801, "width": 0, "height": 0, "rotation": 0, "visible": true, "point": true, "properties": [{"name": "solido", "type": "bool", "value": true}]}, {"id": 74, "name": "laurel", "type": "decor", "x": 1869, "y": 173, "width": 0, "height": 0, "rotation": 0, "visible": true, "point": true, "properties": [{"name": "solido", "type": "bool", "value": true}]}, {"id": 75, "name": "laurel", "type": "decor", "x": 1527, "y": 280, "width": 0, "height": 0, "rotation": 0, "visible": true, "point": true, "properties": [{"name": "solido", "type": "bool", "value": true}]}, {"id": 76, "name": "laurel", "type": "decor", "x": 1077, "y": 32, "width": 0, "height": 0, "rotation": 0, "visible": true, "point": true, "properties": [{"name": "solido", "type": "bool", "value": true}]}, {"id": 77, "name": "laurel", "type": "decor", "x": 1477, "y": 810, "width": 0, "height": 0, "rotation": 0, "visible": true, "point": true, "properties": [{"name": "solido", "type": "bool", "value": true}]}, {"id": 78, "name": "laurel", "type": "decor", "x": 430, "y": 993, "width": 0, "height": 0, "rotation": 0, "visible": true, "point": true, "properties": [{"name": "solido", "type": "bool", "value": true}]}, {"id": 79, "name": "laurel", "type": "decor", "x": 1954, "y": 937, "width": 0, "height": 0, "rotation": 0, "visible": true, "point": true, "properties": [{"name": "solido", "type": "bool", "value": true}]}, {"id": 80, "name": "laurel", "type": "decor", "x": 662, "y": 1352, "width": 0, "height": 0, "rotation": 0, "visible": true, "point": true, "properties": [{"name": "solido", "type": "bool", "value": true}]}, {"id": 81, "name": "laurel", "type": "decor", "x": 2030, "y": 1072, "width": 0, "height": 0, "rotation": 0, "visible": true, "point": true, "properties": [{"name": "solido", "type": "bool", "value": true}]}, {"id": 82, "name": "laurel", "type": "decor", "x": 1791, "y": 453, "width": 0, "height": 0, "rotation": 0, "visible": true, "point": true, "properties": [{"name": "solido", "type": "bool", "value": true}]}, {"id": 83, "name": "laurel", "type": "decor", "x": 538, "y": 823, "width": 0, "height": 0, "rotation": 0, "visible": true, "point": true, "properties": [{"name": "solido", "type": "bool", "value": true}]}, {"id": 84, "name": "laurel", "type": "decor", "x": 620, "y": 991, "width": 0, "height": 0, "rotation": 0, "visible": true, "point": true, "properties": [{"name": "solido", "type": "bool", "value": true}]}, {"id": 85, "name": "laurel", "type": "decor", "x": 1059, "y": 1061, "width": 0, "height": 0, "rotation": 0, "visible": true, "point": true, "properties": [{"name": "solido", "type": "bool", "value": true}]}, {"id": 86, "name": "laurel", "type": "decor", "x": 291, "y": 1037, "width": 0, "height": 0, "rotation": 0, "visible": true, "point": true, "properties": [{"name": "solido", "type": "bool", "value": true}]}, {"id": 87, "name": "laurel", "type": "decor", "x": 508, "y": 563, "width": 0, "height": 0, "rotation": 0, "visible": true, "point": true, "properties": [{"name": "solido", "type": "bool", "value": true}]}, {"id": 88, "name": "laurel", "type": "decor", "x": 329, "y": 400, "width": 0, "height": 0, "rotation": 0, "visible": true, "point": true, "properties": [{"name": "solido", "type": "bool", "value": true}]}, {"id": 89, "name": "laurel", "type": "decor", "x": 1749, "y": 1051, "width": 0, "height": 0, "rotation": 0, "visible": true, "point": true, "properties": [{"name": "solido", "type": "bool", "value": true}]}, {"id": 90, "name": "laurel", "type": "decor", "x": 583, "y": 1201, "width": 0, "height": 0, "rotation": 0, "visible": true, "point": true, "properties": [{"name": "solido", "type": "bool", "value": true}]}, {"id": 91, "name": "laurel", "type": "decor", "x": 2028, "y": 1194, "width": 0, "height": 0, "rotation": 0, "visible": true, "point": true, "properties": [{"name": "solido", "type": "bool", "value": true}]}, {"id": 92, "name": "laurel", "type": "decor", "x": 334, "y": 718, "width": 0, "height": 0, "rotation": 0, "visible": true, "point": true, "properties": [{"name": "solido", "type": "bool", "value": true}]}, {"id": 93, "name": "laurel", "type": "decor", "x": 921, "y": 986, "width": 0, "height": 0, "rotation": 0, "visible": true, "point": true, "properties": [{"name": "solido", "type": "bool", "value": true}]}, {"id": 94, "name": "laurel", "type": "decor", "x": 162, "y": 903, "width": 0, "height": 0, "rotation": 0, "visible": true, "point": true, "properties": [{"name": "solido", "type": "bool", "value": true}]}, {"id": 95, "name": "laurel", "type": "decor", "x": 107, "y": 401, "width": 0, "height": 0, "rotation": 0, "visible": true, "point": true, "properties": [{"name": "solido", "type": "bool", "value": true}]}, {"id": 96, "name": "laurel", "type": "decor", "x": 1508, "y": 39, "width": 0, "height": 0, "rotation": 0, "visible": true, "point": true, "properties": [{"name": "solido", "type": "bool", "value": true}]}, {"id": 97, "name": "laurel", "type": "decor", "x": 1669, "y": 1330, "width": 0, "height": 0, "rotation": 0, "visible": true, "point": true, "properties": [{"name": "solido", "type": "bool", "value": true}]}, {"id": 98, "name": "laurel", "type": "decor", "x": 1197, "y": 1257, "width": 0, "height": 0, "rotation": 0, "visible": true, "point": true, "properties": [{"name": "solido", "type": "bool", "value": true}]}, {"id": 99, "name": "laurel", "type": "decor", "x": 410, "y": 664, "width": 0, "height": 0, "rotation": 0, "visible": true, "point": true, "properties": [{"name": "solido", "type": "bool", "value": true}]}, {"id": 100, "name": "laurel", "type": "decor", "x": 1864, "y": 760, "width": 0, "height": 0, "rotation": 0, "visible": true, "point": true, "properties": [{"name": "solido", "type": "bool", "value": true}]}, {"id": 101, "name": "laurel", "type": "decor", "x": 729, "y": 1259, "width": 0, "height": 0, "rotation": 0, "visible": true, "point": true, "properties": [{"name": "solido", "type": "bool", "value": true}]}, {"id": 102, "name": "laurel", "type": "decor", "x": 1148, "y": 648, "width": 0, "height": 0, "rotation": 0, "visible": true, "point": true, "properties": [{"name": "solido", "type": "bool", "value": true}]}, {"id": 103, "name": "laurel", "type": "decor", "x": 1405, "y": 565, "width": 0, "height": 0, "rotation": 0, "visible": true, "point": true, "properties": [{"name": "solido", "type": "bool", "value": true}]}, {"id": 104, "name": "laurel", "type": "decor", "x": 1897, "y": 56, "width": 0, "height": 0, "rotation": 0, "visible": true, "point": true, "properties": [{"name": "solido", "type": "bool", "value": true}]}, {"id": 105, "name": "laurel", "type": "decor", "x": 185, "y": 965, "width": 0, "height": 0, "rotation": 0, "visible": true, "point": true, "properties": [{"name": "solido", "type": "bool", "value": true}]}, {"id": 106, "name": "laurel", "type": "decor", "x": 651, "y": 350, "width": 0, "height": 0, "rotation": 0, "visible": true, "point": true, "properties": [{"name": "solido", "type": "bool", "value": true}]}, {"id": 107, "name": "laurel", "type": "decor", "x": 1451, "y": 1362, "width": 0, "height": 0, "rotation": 0, "visible": true, "point": true, "properties": [{"name": "solido", "type": "bool", "value": true}]}, {"id": 108, "name": "laurel", "type": "decor", "x": 133, "y": 529, "width": 0, "height": 0, "rotation": 0, "visible": true, "point": true, "properties": [{"name": "solido", "type": "bool", "value": true}]}, {"id": 109, "name": "laurel", "type": "decor", "x": 1173, "y": 590, "width": 0, "height": 0, "rotation": 0, "visible": true, "point": true, "properties": [{"name": "solido", "type": "bool", "value": true}]}, {"id": 110, "name": "laurel", "type": "decor", "x": 1353, "y": 461, "width": 0, "height": 0, "rotation": 0, "visible": true, "point": true, "properties": [{"name": "solido", "type": "bool", "value": true}]}, {"id": 111, "name": "laurel", "type": "decor", "x": 1934, "y": 700, "width": 0, "height": 0, "rotation": 0, "visible": true, "point": true, "properties": [{"name": "solido", "type": "bool", "value": true}]}, {"id": 112, "name": "laurel", "type": "decor", "x": 1605, "y": 1153, "width": 0, "height": 0, "rotation": 0, "visible": true, "point": true, "properties": [{"name": "solido", "type": "bool", "value": true}]}, {"id": 113, "name": "laurel", "type": "decor", "x": 827, "y": 1221, "width": 0, "height": 0, "rotation": 0, "visible": true, "point": true, "properties": [{"name": "solido", "type": "bool", "value": true}]}, {"id": 114, "name": "laurel", "type": "decor", "x": 422, "y": 207, "width": 0, "height": 0, "rotation": 0, "visible": true, "point": true, "properties": [{"name": "solido", "type": "bool", "value": true}]}, {"id": 115, "name": "laurel", "type": "decor", "x": 982, "y": 65, "width": 0, "height": 0, "rotation": 0, "visible": true, "point": true, "properties": [{"name": "solido", "type": "bool", "value": true}]}, {"id": 116, "name": "laurel", "type": "decor", "x": 165, "y": 1216, "width": 0, "height": 0, "rotation": 0, "visible": true, "point": true, "properties": [{"name": "solido", "type": "bool", "value": true}]}, {"id": 117, "name": "laurel", "type": "decor", "x": 924, "y": 876, "width": 0, "height": 0, "rotation": 0, "visible": true, "point": true, "properties": [{"name": "solido", "type": "bool", "value": true}]}, {"id": 118, "name": "laurel", "type": "decor", "x": 1299, "y": 1320, "width": 0, "height": 0, "rotation": 0, "visible": true, "point": true, "properties": [{"name": "solido", "type": "bool", "value": true}]}, {"id": 119, "name": "laurel", "type": "decor", "x": 1471, "y": 505, "width": 0, "height": 0, "rotation": 0, "visible": true, "point": true, "properties": [{"name": "solido", "type": "bool", "value": true}]}, {"id": 120, "name": "laurel", "type": "decor", "x": 1799, "y": 309, "width": 0, "height": 0, "rotation": 0, "visible": true, "point": true, "properties": [{"name": "solido", "type": "bool", "value": true}]}, {"id": 121, "name": "laurel", "type": "decor", "x": 887, "y": 731, "width": 0, "height": 0, "rotation": 0, "visible": true, "point": true, "properties": [{"name": "solido", "type": "bool", "value": true}]}, {"id": 122, "name": "laurel", "type": "decor", "x": 1642, "y": 46, "width": 0, "height": 0, "rotation": 0, "visible": true, "point": true, "properties": [{"name": "solido", "type": "bool", "value": true}]}, {"id": 123, "name": "laurel", "type": "decor", "x": 388, "y": 322, "width": 0, "height": 0, "rotation": 0, "visible": true, "point": true, "properties": [{"name": "solido", "type": "bool", "value": true}]}, {"id": 124, "name": "laurel", "type": "decor", "x": 378, "y": 113, "width": 0, "height": 0, "rotation": 0, "visible": true, "point": true, "properties": [{"name": "solido", "type": "bool", "value": true}]}, {"id": 125, "name": "laurel", "type": "decor", "x": 2101, "y": 1395, "width": 0, "height": 0, "rotation": 0, "visible": true, "point": true, "properties": [{"name": "solido", "type": "bool", "value": true}]}, {"id": 126, "name": "laurel", "type": "decor", "x": 2110, "y": 850, "width": 0, "height": 0, "rotation": 0, "visible": true, "point": true, "properties": [{"name": "solido", "type": "bool", "value": true}]}, {"id": 127, "name": "laurel", "type": "decor", "x": 331, "y": 1367, "width": 0, "height": 0, "rotation": 0, "visible": true, "point": true, "properties": [{"name": "solido", "type": "bool", "value": true}]}, {"id": 128, "name": "laurel", "type": "decor", "x": 1001, "y": 887, "width": 0, "height": 0, "rotation": 0, "visible": true, "point": true, "properties": [{"name": "solido", "type": "bool", "value": true}]}, {"id": 129, "name": "laurel", "type": "decor", "x": 262, "y": 88, "width": 0, "height": 0, "rotation": 0, "visible": true, "point": true, "properties": [{"name": "solido", "type": "bool", "value": true}]}, {"id": 130, "name": "laurel", "type": "decor", "x": 873, "y": 479, "width": 0, "height": 0, "rotation": 0, "visible": true, "point": true, "properties": [{"name": "solido", "type": "bool", "value": true}]}, {"id": 131, "name": "laurel", "type": "decor", "x": 2064, "y": 42, "width": 0, "height": 0, "rotation": 0, "visible": true, "point": true, "properties": [{"name": "solido", "type": "bool", "value": true}]}, {"id": 132, "name": "laurel", "type": "decor", "x": 1987, "y": 424, "width": 0, "height": 0, "rotation": 0, "visible": true, "point": true, "properties": [{"name": "solido", "type": "bool", "value": true}]}, {"id": 133, "name": "laurel", "type": "decor", "x": 2088, "y": 680, "width": 0, "height": 0, "rotation": 0, "visible": true, "point": true, "properties": [{"name": "solido", "type": "bool", "value": true}]}, {"id": 134, "name": "laurel", "type": "decor", "x": 457, "y": 1342, "width": 0, "height": 0, "rotation": 0, "visible": true, "point": true, "properties": [{"name": "solido", "type": "bool", "value": true}]}, {"id": 135, "name": "laurel", "type": "decor", "x": 738, "y": 1326, "width": 0, "height": 0, "rotation": 0, "visible": true, "point": true, "properties": [{"name": "solido", "type": "bool", "value": true}]}, {"id": 136, "name": "laurel", "type": "decor", "x": 2035, "y": 934, "width": 0, "height": 0, "rotation": 0, "visible": true, "point": true, "properties": [{"name": "solido", "type": "bool", "value": true}]}, {"id": 137, "name": "laurel", "type": "decor", "x": 168, "y": 1109, "width": 0, "height": 0, "rotation": 0, "visible": true, "point": true, "properties": [{"name": "solido", "type": "bool", "value": true}]}, {"id": 138, "name": "laurel", "type": "decor", "x": 998, "y": 757, "width": 0, "height": 0, "rotation": 0, "visible": true, "point": true, "properties": [{"name": "solido", "type": "bool", "value": true}]}, {"id": 139, "name": "laurel", "type": "decor", "x": 1133, "y": 1023, "width": 0, "height": 0, "rotation": 0, "visible": true, "point": true, "properties": [{"name": "solido", "type": "bool", "value": true}]}, {"id": 140, "name": "laurel", "type": "decor", "x": 713, "y": 196, "width": 0, "height": 0, "rotation": 0, "visible": true, "point": true, "properties": [{"name": "solido", "type": "bool", "value": true}]}, {"id": 141, "name": "laurel", "type": "decor", "x": 1916, "y": 823, "width": 0, "height": 0, "rotation": 0, "visible": true, "point": true, "properties": [{"name": "solido", "type": "bool", "value": true}]}, {"id": 142, "name": "laurel", "type": "decor", "x": 657, "y": 114, "width": 0, "height": 0, "rotation": 0, "visible": true, "point": true, "properties": [{"name": "solido", "type": "bool", "value": true}]}, {"id": 143, "name": "laurel", "type": "decor", "x": 755, "y": 49, "width": 0, "height": 0, "rotation": 0, "visible": true, "point": true, "properties": [{"name": "solido", "type": "bool", "value": true}]}, {"id": 144, "name": "laurel", "type": "decor", "x": 1875, "y": 638, "width": 0, "height": 0, "rotation": 0, "visible": true, "point": true, "properties": [{"name": "solido", "type": "bool", "value": true}]}, {"id": 145, "name": "laurel", "type": "decor", "x": 1884, "y": 1203, "width": 0, "height": 0, "rotation": 0, "visible": true, "point": true, "properties": [{"name": "solido", "type": "bool", "value": true}]}, {"id": 146, "name": "laurel", "type": "decor", "x": 1878, "y": 521, "width": 0, "height": 0, "rotation": 0, "visible": true, "point": true, "properties": [{"name": "solido", "type": "bool", "value": true}]}, {"id": 147, "name": "laurel", "type": "decor", "x": 44, "y": 612, "width": 0, "height": 0, "rotation": 0, "visible": true, "point": true, "properties": [{"name": "solido", "type": "bool", "value": true}]}, {"id": 148, "name": "laurel", "type": "decor", "x": 1262, "y": 1372, "width": 0, "height": 0, "rotation": 0, "visible": true, "point": true, "properties": [{"name": "solido", "type": "bool", "value": true}]}, {"id": 149, "name": "laurel", "type": "decor", "x": 98, "y": 1318, "width": 0, "height": 0, "rotation": 0, "visible": true, "point": true, "properties": [{"name": "solido", "type": "bool", "value": true}]}, {"id": 150, "name": "laurel", "type": "decor", "x": 353, "y": 1306, "width": 0, "height": 0, "rotation": 0, "visible": true, "point": true, "properties": [{"name": "solido", "type": "bool", "value": true}]}, {"id": 151, "name": "laurel", "type": "decor", "x": 1415, "y": 804, "width": 0, "height": 0, "rotation": 0, "visible": true, "point": true, "properties": [{"name": "solido", "type": "bool", "value": true}]}, {"id": 152, "name": "laurel", "type": "decor", "x": 2145, "y": 429, "width": 0, "height": 0, "rotation": 0, "visible": true, "point": true, "properties": [{"name": "solido", "type": "bool", "value": true}]}, {"id": 153, "name": "laurel", "type": "decor", "x": 1787, "y": 1387, "width": 0, "height": 0, "rotation": 0, "visible": true, "point": true, "properties": [{"name": "solido", "type": "bool", "value": true}]}, {"id": 154, "name": "laurel", "type": "decor", "x": 1945, "y": 1268, "width": 0, "height": 0, "rotation": 0, "visible": true, "point": true, "properties": [{"name": "solido", "type": "bool", "value": true}]}, {"id": 155, "name": "laurel", "type": "decor", "x": 332, "y": 295, "width": 0, "height": 0, "rotation": 0, "visible": true, "point": true, "properties": [{"name": "solido", "type": "bool", "value": true}]}, {"id": 156, "name": "laurel", "type": "decor", "x": 500, "y": 921, "width": 0, "height": 0, "rotation": 0, "visible": true, "point": true, "properties": [{"name": "solido", "type": "bool", "value": true}]}, {"id": 157, "name": "laurel", "type": "decor", "x": 203, "y": 1160, "width": 0, "height": 0, "rotation": 0, "visible": true, "point": true, "properties": [{"name": "solido", "type": "bool", "value": true}]}, {"id": 158, "name": "laurel", "type": "decor", "x": 1366, "y": 1319, "width": 0, "height": 0, "rotation": 0, "visible": true, "point": true, "properties": [{"name": "solido", "type": "bool", "value": true}]}, {"id": 159, "name": "laurel", "type": "decor", "x": 246, "y": 889, "width": 0, "height": 0, "rotation": 0, "visible": true, "point": true, "properties": [{"name": "solido", "type": "bool", "value": true}]}, {"id": 160, "name": "laurel", "type": "decor", "x": 1807, "y": 931, "width": 0, "height": 0, "rotation": 0, "visible": true, "point": true, "properties": [{"name": "solido", "type": "bool", "value": true}]}, {"id": 161, "name": "laurel", "type": "decor", "x": 1040, "y": 707, "width": 0, "height": 0, "rotation": 0, "visible": true, "point": true, "properties": [{"name": "solido", "type": "bool", "value": true}]}, {"id": 162, "name": "laurel", "type": "decor", "x": 886, "y": 1247, "width": 0, "height": 0, "rotation": 0, "visible": true, "point": true, "properties": [{"name": "solido", "type": "bool", "value": true}]}, {"id": 163, "name": "laurel", "type": "decor", "x": 1674, "y": 1190, "width": 0, "height": 0, "rotation": 0, "visible": true, "point": true, "properties": [{"name": "solido", "type": "bool", "value": true}]}, {"id": 164, "name": "laurel", "type": "decor", "x": 1954, "y": 264, "width": 0, "height": 0, "rotation": 0, "visible": true, "point": true, "properties": [{"name": "solido", "type": "bool", "value": true}]}, {"id": 165, "name": "laurel", "type": "decor", "x": 1599, "y": 728, "width": 0, "height": 0, "rotation": 0, "visible": true, "point": true, "properties": [{"name": "solido", "type": "bool", "value": true}]}, {"id": 166, "name": "laurel", "type": "decor", "x": 665, "y": 1086, "width": 0, "height": 0, "rotation": 0, "visible": true, "point": true, "properties": [{"name": "solido", "type": "bool", "value": true}]}, {"id": 167, "name": "laurel", "type": "decor", "x": 1233, "y": 622, "width": 0, "height": 0, "rotation": 0, "visible": true, "point": true, "properties": [{"name": "solido", "type": "bool", "value": true}]}, {"id": 168, "name": "laurel", "type": "decor", "x": 459, "y": 493, "width": 0, "height": 0, "rotation": 0, "visible": true, "point": true, "properties": [{"name": "solido", "type": "bool", "value": true}]}, {"id": 169, "name": "laurel", "type": "decor", "x": 2128, "y": 181, "width": 0, "height": 0, "rotation": 0, "visible": true, "point": true, "properties": [{"name": "solido", "type": "bool", "value": true}]}, {"id": 170, "name": "laurel", "type": "decor", "x": 2149, "y": 701, "width": 0, "height": 0, "rotation": 0, "visible": true, "point": true, "properties": [{"name": "solido", "type": "bool", "value": true}]}, {"id": 171, "name": "laurel", "type": "decor", "x": 1672, "y": 922, "width": 0, "height": 0, "rotation": 0, "visible": true, "point": true, "properties": [{"name": "solido", "type": "bool", "value": true}]}, {"id": 172, "name": "laurel", "type": "decor", "x": 1522, "y": 118, "width": 0, "height": 0, "rotation": 0, "visible": true, "point": true, "properties": [{"name": "solido", "type": "bool", "value": true}]}, {"id": 173, "name": "laurel", "type": "decor", "x": 1819, "y": 550, "width": 0, "height": 0, "rotation": 0, "visible": true, "point": true, "properties": [{"name": "solido", "type": "bool", "value": true}]}, {"id": 174, "name": "laurel", "type": "decor", "x": 2135, "y": 1156, "width": 0, "height": 0, "rotation": 0, "visible": true, "point": true, "properties": [{"name": "solido", "type": "bool", "value": true}]}, {"id": 175, "name": "laurel", "type": "decor", "x": 1758, "y": 1250, "width": 0, "height": 0, "rotation": 0, "visible": true, "point": true, "properties": [{"name": "solido", "type": "bool", "value": true}]}, {"id": 176, "name": "laurel", "type": "decor", "x": 265, "y": 1159, "width": 0, "height": 0, "rotation": 0, "visible": true, "point": true, "properties": [{"name": "solido", "type": "bool", "value": true}]}, {"id": 177, "name": "laurel", "type": "decor", "x": 761, "y": 630, "width": 0, "height": 0, "rotation": 0, "visible": true, "point": true, "properties": [{"name": "solido", "type": "bool", "value": true}]}, {"id": 178, "name": "laurel", "type": "decor", "x": 1608, "y": 1073, "width": 0, "height": 0, "rotation": 0, "visible": true, "point": true, "properties": [{"name": "solido", "type": "bool", "value": true}]}, {"id": 179, "name": "laurel", "type": "decor", "x": 824, "y": 150, "width": 0, "height": 0, "rotation": 0, "visible": true, "point": true, "properties": [{"name": "solido", "type": "bool", "value": true}]}, {"id": 180, "name": "laurel", "type": "decor", "x": 1821, "y": 52, "width": 0, "height": 0, "rotation": 0, "visible": true, "point": true, "properties": [{"name": "solido", "type": "bool", "value": true}]}, {"id": 181, "name": "arbusto", "type": "decor", "x": 1380, "y": 1159, "width": 0, "height": 0, "rotation": 0, "visible": true, "point": true}, {"id": 182, "name": "arbusto", "type": "decor", "x": 1938, "y": 619, "width": 0, "height": 0, "rotation": 0, "visible": true, "point": true}, {"id": 183, "name": "arbusto", "type": "decor", "x": 561, "y": 1321, "width": 0, "height": 0, "rotation": 0, "visible": true, "point": true}, {"id": 184, "name": "arbusto", "type": "decor", "x": 2179, "y": 790, "width": 0, "height": 0, "rotation": 0, "visible": true, "point": true}, {"id": 185, "name": "arbusto", "type": "decor", "x": 1738, "y": 169, "width": 0, "height": 0, "rotation": 0, "visible": true, "point": true}, {"id": 186, "name": "arbusto", "type": "decor", "x": 1405, "y": 502, "width": 0, "height": 0, "rotation": 0, "visible": true, "point": true}, {"id": 187, "name": "arbusto", "type": "decor", "x": 1999, "y": 552, "width": 0, "height": 0, "rotation": 0, "visible": true, "point": true}, {"id": 188, "name": "arbusto", "type": "decor", "x": 822, "y": 903, "width": 0, "height": 0, "rotation": 0, "visible": true, "point": true}, {"id": 189, "name": "arbusto", "type": "decor", "x": 1171, "y": 882, "width": 0, "height": 0, "rotation": 0, "visible": true, "point": true}, {"id": 190, "name": "arbusto", "type": "decor", "x": 1586, "y": 1397, "width": 0, "height": 0, "rotation": 0, "visible": true, "point": true}, {"id": 191, "name": "arbusto", "type": "decor", "x": 2183, "y": 488, "width": 0, "height": 0, "rotation": 0, "visible": true, "point": true}, {"id": 192, "name": "arbusto", "type": "decor", "x": 362, "y": 1112, "width": 0, "height": 0, "rotation": 0, "visible": true, "point": true}, {"id": 193, "name": "arbusto", "type": "decor", "x": 1824, "y": 1123, "width": 0, "height": 0, "rotation": 0, "visible": true, "point": true}, {"id": 194, "name": "arbusto", "type": "decor", "x": 2143, "y": 43, "width": 0, "height": 0, "rotation": 0, "visible": true, "point": true}, {"id": 195, "name": "arbusto", "type": "decor", "x": 126, "y": 202, "width": 0, "height": 0, "rotation": 0, "visible": true, "point": true}, {"id": 196, "name": "arbusto", "type": "decor", "x": 602, "y": 1133, "width": 0, "height": 0, "rotation": 0, "visible": true, "point": true}, {"id": 197, "name": "arbusto", "type": "decor", "x": 600, "y": 1061, "width": 0, "height": 0, "rotation": 0, "visible": true, "point": true}, {"id": 198, "name": "arbusto", "type": "decor", "x": 45, "y": 678, "width": 0, "height": 0, "rotation": 0, "visible": true, "point": true}, {"id": 199, "name": "arbusto", "type": "decor", "x": 1302, "y": 907, "width": 0, "height": 0, "rotation": 0, "visible": true, "point": true}, {"id": 200, "name": "arbusto", "type": "decor", "x": 2034, "y": 794, "width": 0, "height": 0, "rotation": 0, "visible": true, "point": true}, {"id": 201, "name": "arbusto", "type": "decor", "x": 1498, "y": 196, "width": 0, "height": 0, "rotation": 0, "visible": true, "point": true}, {"id": 202, "name": "arbusto", "type": "decor", "x": 1566, "y": 196, "width": 0, "height": 0, "rotation": 0, "visible": true, "point": true}, {"id": 203, "name": "arbusto", "type": "decor", "x": 1813, "y": 1194, "width": 0, "height": 0, "rotation": 0, "visible": true, "point": true}, {"id": 204, "name": "arbusto", "type": "decor", "x": 422, "y": 908, "width": 0, "height": 0, "rotation": 0, "visible": true, "point": true}, {"id": 205, "name": "arbusto", "type": "decor", "x": 478, "y": 1277, "width": 0, "height": 0, "rotation": 0, "visible": true, "point": true}, {"id": 206, "name": "arbusto", "type": "decor", "x": 2089, "y": 507, "width": 0, "height": 0, "rotation": 0, "visible": true, "point": true}, {"id": 207, "name": "arbusto", "type": "decor", "x": 52, "y": 832, "width": 0, "height": 0, "rotation": 0, "visible": true, "point": true}, {"id": 208, "name": "arbusto", "type": "decor", "x": 1216, "y": 885, "width": 0, "height": 0, "rotation": 0, "visible": true, "point": true}, {"id": 209, "name": "arbusto", "type": "decor", "x": 858, "y": 841, "width": 0, "height": 0, "rotation": 0, "visible": true, "point": true}, {"id": 210, "name": "arbusto", "type": "decor", "x": 482, "y": 225, "width": 0, "height": 0, "rotation": 0, "visible": true, "point": true}, {"id": 211, "name": "arbusto", "type": "decor", "x": 2174, "y": 254, "width": 0, "height": 0, "rotation": 0, "visible": true, "point": true}, {"id": 212, "name": "arbusto", "type": "decor", "x": 704, "y": 1161, "width": 0, "height": 0, "rotation": 0, "visible": true, "point": true}, {"id": 213, "name": "arbusto", "type": "decor", "x": 1713, "y": 251, "width": 0, "height": 0, "rotation": 0, "visible": true, "point": true}, {"id": 214, "name": "arbusto", "type": "decor", "x": 1004, "y": 405, "width": 0, "height": 0, "rotation": 0, "visible": true, "point": true}, {"id": 215, "name": "arbusto", "type": "decor", "x": 529, "y": 1025, "width": 0, "height": 0, "rotation": 0, "visible": true, "point": true}, {"id": 216, "name": "arbusto", "type": "decor", "x": 1469, "y": 651, "width": 0, "height": 0, "rotation": 0, "visible": true, "point": true}, {"id": 217, "name": "arbusto", "type": "decor", "x": 2039, "y": 493, "width": 0, "height": 0, "rotation": 0, "visible": true, "point": true}, {"id": 218, "name": "arbusto", "type": "decor", "x": 310, "y": 909, "width": 0, "height": 0, "rotation": 0, "visible": true, "point": true}, {"id": 219, "name": "arbusto", "type": "decor", "x": 1742, "y": 967, "width": 0, "height": 0, "rotation": 0, "visible": true, "point": true}, {"id": 220, "name": "arbusto", "type": "decor", "x": 251, "y": 290, "width": 0, "height": 0, "rotation": 0, "visible": true, "point": true}, {"id": 221, "name": "arbusto", "type": "decor", "x": 589, "y": 1286, "width": 0, "height": 0, "rotation": 0, "visible": true, "point": true}, {"id": 222, "name": "arbusto", "type": "decor", "x": 2065, "y": 990, "width": 0, "height": 0, "rotation": 0, "visible": true, "point": true}, {"id": 223, "name": "arbusto", "type": "decor", "x": 1313, "y": 59, "width": 0, "height": 0, "rotation": 0, "visible": true, "point": true}, {"id": 224, "name": "arbusto", "type": "decor", "x": 114, "y": 728, "width": 0, "height": 0, "rotation": 0, "visible": true, "point": true}, {"id": 225, "name": "arbusto", "type": "decor", "x": 556, "y": 476, "width": 0, "height": 0, "rotation": 0, "visible": true, "point": true}, {"id": 226, "name": "arbusto", "type": "decor", "x": 2128, "y": 343, "width": 0, "height": 0, "rotation": 0, "visible": true, "point": true}, {"id": 227, "name": "arbusto", "type": "decor", "x": 500, "y": 115, "width": 0, "height": 0, "rotation": 0, "visible": true, "point": true}, {"id": 228, "name": "arbusto", "type": "decor", "x": 1520, "y": 705, "width": 0, "height": 0, "rotation": 0, "visible": true, "point": true}, {"id": 229, "name": "arbusto", "type": "decor", "x": 85, "y": 998, "width": 0, "height": 0, "rotation": 0, "visible": true, "point": true}, {"id": 230, "name": "arbusto", "type": "decor", "x": 2136, "y": 527, "width": 0, "height": 0, "rotation": 0, "visible": true, "point": true}]}], "properties": [{"name": "niebla", "type": "bool", "value": true}]}