{"compressionlevel": -1, "type": "map", "version": "1.10", "tiledversion": "1.10.2", "orientation": "orthogonal", "renderorder": "right-down", "infinite": false, "width": 30, "height": 17, "tilewidth": 32, "tileheight": 32, "nextlayerid": 6, "nextobjectid": 16, "tilesets": [{"firstgid": 1, "name": "lpc-picon", "image": "../tilesets/lpc-picon-32.png", "imagewidth": 128, "imageheight": 160, "tilewidth": 32, "tileheight": 32, "tilecount": 19, "columns": 4, "margin": 0, "spacing": 0, "tiles": [{"id": 0, "properties": [{"name": "collides", "type": "bool", "value": false}]}, {"id": 1, "properties": [{"name": "collides", "type": "bool", "value": false}]}, {"id": 2, "properties": [{"name": "collides", "type": "bool", "value": false}]}, {"id": 3, "properties": [{"name": "collides", "type": "bool", "value": false}]}, {"id": 4, "properties": [{"name": "collides", "type": "bool", "value": false}]}, {"id": 5, "properties": [{"name": "collides", "type": "bool", "value": false}]}, {"id": 6, "properties": [{"name": "collides", "type": "bool", "value": false}]}, {"id": 7, "properties": [{"name": "collides", "type": "bool", "value": false}]}, {"id": 8, "properties": [{"name": "collides", "type": "bool", "value": false}]}, {"id": 9, "properties": [{"name": "collides", "type": "bool", "value": false}]}, {"id": 10, "properties": [{"name": "collides", "type": "bool", "value": false}]}, {"id": 11, "properties": [{"name": "collides", "type": "bool", "value": false}]}, {"id": 12, "properties": [{"name": "collides", "type": "bool", "value": false}]}, {"id": 13, "properties": [{"name": "collides", "type": "bool", "value": false}]}, {"id": 14, "properties": [{"name": "collides", "type": "bool", "value": false}]}, {"id": 15, "properties": [{"name": "collides", "type": "bool", "value": false}]}, {"id": 16, "properties": [{"name": "collides", "type": "bool", "value": false}]}, {"id": 17, "properties": [{"name": "collides", "type": "bool", "value": false}]}, {"id": 18, "properties": [{"name": "collides", "type": "bool", "value": false}]}], "wangsets": [{"name": "lpc-picon", "type": "corner", "tile": -1, "colors": [{"name": "vac\u00edo", "color": "#3a9d23", "tile": -1, "probability": 1}, {"name": "base", "color": "#8b5a2b", "tile": -1, "probability": 1}], "wangtiles": [{"tileid": 0, "wangid": [0, 1, 0, 1, 0, 1, 0, 1]}, {"tileid": 1, "wangid": [0, 1, 0, 2, 0, 1, 0, 1]}, {"tileid": 2, "wangid": [0, 1, 0, 1, 0, 2, 0, 1]}, {"tileid": 3, "wangid": [0, 1, 0, 2, 0, 2, 0, 1]}, {"tileid": 4, "wangid": [0, 2, 0, 1, 0, 1, 0, 1]}, {"tileid": 5, "wangid": [0, 2, 0, 2, 0, 1, 0, 1]}, {"tileid": 6, "wangid": [0, 2, 0, 1, 0, 2, 0, 1]}, {"tileid": 7, "wangid": [0, 2, 0, 2, 0, 2, 0, 1]}, {"tileid": 8, "wangid": [0, 1, 0, 1, 0, 1, 0, 2]}, {"tileid": 9, "wangid": [0, 1, 0, 2, 0, 1, 0, 2]}, {"tileid": 10, "wangid": [0, 1, 0, 1, 0, 2, 0, 2]}, {"tileid": 11, "wangid": [0, 1, 0, 2, 0, 2, 0, 2]}, {"tileid": 12, "wangid": [0, 2, 0, 1, 0, 1, 0, 2]}, {"tileid": 13, "wangid": [0, 2, 0, 2, 0, 1, 0, 2]}, {"tileid": 14, "wangid": [0, 2, 0, 1, 0, 2, 0, 2]}, {"tileid": 15, "wangid": [0, 2, 0, 2, 0, 2, 0, 2]}, {"tileid": 16, "wangid": [0, 2, 0, 2, 0, 2, 0, 2]}, {"tileid": 17, "wangid": [0, 2, 0, 2, 0, 2, 0, 2]}, {"tileid": 18, "wangid": [0, 2, 0, 2, 0, 2, 0, 2]}]}]}, {"firstgid": 20, "name": "lpc-camino", "image": "../tilesets/lpc-camino-32.png", "imagewidth": 128, "imageheight": 160, "tilewidth": 32, "tileheight": 32, "tilecount": 19, "columns": 4, "margin": 0, "spacing": 0, "tiles": [{"id": 0, "properties": [{"name": "collides", "type": "bool", "value": false}]}, {"id": 1, "properties": [{"name": "collides", "type": "bool", "value": false}]}, {"id": 2, "properties": [{"name": "collides", "type": "bool", "value": false}]}, {"id": 3, "properties": [{"name": "collides", "type": "bool", "value": false}]}, {"id": 4, "properties": [{"name": "collides", "type": "bool", "value": false}]}, {"id": 5, "properties": [{"name": "collides", "type": "bool", "value": false}]}, {"id": 6, "properties": [{"name": "collides", "type": "bool", "value": false}]}, {"id": 7, "properties": [{"name": "collides", "type": "bool", "value": false}]}, {"id": 8, "properties": [{"name": "collides", "type": "bool", "value": false}]}, {"id": 9, "properties": [{"name": "collides", "type": "bool", "value": false}]}, {"id": 10, "properties": [{"name": "collides", "type": "bool", "value": false}]}, {"id": 11, "properties": [{"name": "collides", "type": "bool", "value": false}]}, {"id": 12, "properties": [{"name": "collides", "type": "bool", "value": false}]}, {"id": 13, "properties": [{"name": "collides", "type": "bool", "value": false}]}, {"id": 14, "properties": [{"name": "collides", "type": "bool", "value": false}]}, {"id": 15, "properties": [{"name": "collides", "type": "bool", "value": false}]}, {"id": 16, "properties": [{"name": "collides", "type": "bool", "value": false}]}, {"id": 17, "properties": [{"name": "collides", "type": "bool", "value": false}]}, {"id": 18, "properties": [{"name": "collides", "type": "bool", "value": false}]}], "wangsets": [{"name": "lpc-camino", "type": "corner", "tile": -1, "colors": [{"name": "vac\u00edo", "color": "#3a9d23", "tile": -1, "probability": 1}, {"name": "senda", "color": "#8b5a2b", "tile": -1, "probability": 1}], "wangtiles": [{"tileid": 0, "wangid": [0, 1, 0, 1, 0, 1, 0, 1]}, {"tileid": 1, "wangid": [0, 1, 0, 2, 0, 1, 0, 1]}, {"tileid": 2, "wangid": [0, 1, 0, 1, 0, 2, 0, 1]}, {"tileid": 3, "wangid": [0, 1, 0, 2, 0, 2, 0, 1]}, {"tileid": 4, "wangid": [0, 2, 0, 1, 0, 1, 0, 1]}, {"tileid": 5, "wangid": [0, 2, 0, 2, 0, 1, 0, 1]}, {"tileid": 6, "wangid": [0, 2, 0, 1, 0, 2, 0, 1]}, {"tileid": 7, "wangid": [0, 2, 0, 2, 0, 2, 0, 1]}, {"tileid": 8, "wangid": [0, 1, 0, 1, 0, 1, 0, 2]}, {"tileid": 9, "wangid": [0, 1, 0, 2, 0, 1, 0, 2]}, {"tileid": 10, "wangid": [0, 1, 0, 1, 0, 2, 0, 2]}, {"tileid": 11, "wangid": [0, 1, 0, 2, 0, 2, 0, 2]}, {"tileid": 12, "wangid": [0, 2, 0, 1, 0, 1, 0, 2]}, {"tileid": 13, "wangid": [0, 2, 0, 2, 0, 1, 0, 2]}, {"tileid": 14, "wangid": [0, 2, 0, 1, 0, 2, 0, 2]}, {"tileid": 15, "wangid": [0, 2, 0, 2, 0, 2, 0, 2]}, {"tileid": 16, "wangid": [0, 2, 0, 2, 0, 2, 0, 2]}, {"tileid": 17, "wangid": [0, 2, 0, 2, 0, 2, 0, 2]}, {"tileid": 18, "wangid": [0, 2, 0, 2, 0, 2, 0, 2]}]}]}, {"firstgid": 39, "name": "lpc-agua", "image": "../tilesets/lpc-agua-32.png", "imagewidth": 128, "imageheight": 160, "tilewidth": 32, "tileheight": 32, "tilecount": 19, "columns": 4, "margin": 0, "spacing": 0, "tiles": [{"id": 0, "properties": [{"name": "collides", "type": "bool", "value": false}]}, {"id": 1, "properties": [{"name": "collides", "type": "bool", "value": false}]}, {"id": 2, "properties": [{"name": "collides", "type": "bool", "value": false}]}, {"id": 3, "properties": [{"name": "collides", "type": "bool", "value": true}]}, {"id": 4, "properties": [{"name": "collides", "type": "bool", "value": false}]}, {"id": 5, "properties": [{"name": "collides", "type": "bool", "value": true}]}, {"id": 6, "properties": [{"name": "collides", "type": "bool", "value": true}]}, {"id": 7, "properties": [{"name": "collides", "type": "bool", "value": true}]}, {"id": 8, "properties": [{"name": "collides", "type": "bool", "value": false}]}, {"id": 9, "properties": [{"name": "collides", "type": "bool", "value": true}]}, {"id": 10, "properties": [{"name": "collides", "type": "bool", "value": true}]}, {"id": 11, "properties": [{"name": "collides", "type": "bool", "value": true}]}, {"id": 12, "properties": [{"name": "collides", "type": "bool", "value": true}]}, {"id": 13, "properties": [{"name": "collides", "type": "bool", "value": true}]}, {"id": 14, "properties": [{"name": "collides", "type": "bool", "value": true}]}, {"id": 15, "properties": [{"name": "collides", "type": "bool", "value": true}]}, {"id": 16, "properties": [{"name": "collides", "type": "bool", "value": true}]}, {"id": 17, "properties": [{"name": "collides", "type": "bool", "value": true}]}, {"id": 18, "properties": [{"name": "collides", "type": "bool", "value": true}]}], "wangsets": [{"name": "lpc-agua", "type": "corner", "tile": -1, "colors": [{"name": "vac\u00edo", "color": "#3a9d23", "tile": -1, "probability": 1}, {"name": "lago", "color": "#8b5a2b", "tile": -1, "probability": 1}], "wangtiles": [{"tileid": 0, "wangid": [0, 1, 0, 1, 0, 1, 0, 1]}, {"tileid": 1, "wangid": [0, 1, 0, 2, 0, 1, 0, 1]}, {"tileid": 2, "wangid": [0, 1, 0, 1, 0, 2, 0, 1]}, {"tileid": 3, "wangid": [0, 1, 0, 2, 0, 2, 0, 1]}, {"tileid": 4, "wangid": [0, 2, 0, 1, 0, 1, 0, 1]}, {"tileid": 5, "wangid": [0, 2, 0, 2, 0, 1, 0, 1]}, {"tileid": 6, "wangid": [0, 2, 0, 1, 0, 2, 0, 1]}, {"tileid": 7, "wangid": [0, 2, 0, 2, 0, 2, 0, 1]}, {"tileid": 8, "wangid": [0, 1, 0, 1, 0, 1, 0, 2]}, {"tileid": 9, "wangid": [0, 1, 0, 2, 0, 1, 0, 2]}, {"tileid": 10, "wangid": [0, 1, 0, 1, 0, 2, 0, 2]}, {"tileid": 11, "wangid": [0, 1, 0, 2, 0, 2, 0, 2]}, {"tileid": 12, "wangid": [0, 2, 0, 1, 0, 1, 0, 2]}, {"tileid": 13, "wangid": [0, 2, 0, 2, 0, 1, 0, 2]}, {"tileid": 14, "wangid": [0, 2, 0, 1, 0, 2, 0, 2]}, {"tileid": 15, "wangid": [0, 2, 0, 2, 0, 2, 0, 2]}, {"tileid": 16, "wangid": [0, 2, 0, 2, 0, 2, 0, 2]}, {"tileid": 17, "wangid": [0, 2, 0, 2, 0, 2, 0, 2]}, {"tileid": 18, "wangid": [0, 2, 0, 2, 0, 2, 0, 2]}]}]}], "layers": [{"id": 1, "name": "Below Player", "type": "tilelayer", "x": 0, "y": 0, "width": 30, "height": 17, "opacity": 1, "visible": true, "data": [17, 16, 16, 16, 16, 16, 18, 16, 18, 17, 18, 16, 16, 16, 19, 16, 17, 19, 16, 19, 16, 16, 18, 18, 19, 19, 17, 16, 18, 16, 16, 16, 17, 16, 16, 19, 16, 19, 16, 16, 16, 17, 17, 16, 19, 17, 16, 16, 16, 19, 18, 16, 16, 16, 18, 16, 16, 16, 19, 19, 18, 16, 16, 16, 16, 19, 17, 17, 16, 16, 17, 16, 16, 16, 16, 18, 16, 19, 18, 16, 17, 17, 17, 16, 16, 19, 16, 19, 19, 16, 16, 16, 16, 16, 16, 16, 16, 16, 18, 18, 18, 17, 19, 16, 17, 16, 16, 16, 16, 19, 18, 19, 16, 17, 16, 16, 16, 16, 16, 16, 16, 16, 16, 16, 16, 16, 18, 19, 19, 16, 18, 18, 16, 16, 17, 19, 16, 16, 16, 16, 16, 18, 19, 16, 16, 16, 16, 16, 19, 18, 16, 16, 17, 16, 19, 16, 16, 19, 17, 18, 18, 18, 16, 16, 19, 16, 16, 19, 17, 16, 16, 18, 16, 16, 16, 19, 16, 16, 19, 16, 16, 16, 16, 18, 19, 17, 16, 16, 16, 16, 17, 19, 18, 16, 19, 16, 16, 16, 17, 16, 16, 18, 16, 16, 16, 16, 18, 18, 16, 16, 16, 16, 16, 18, 16, 16, 16, 18, 17, 16, 16, 16, 16, 16, 16, 19, 19, 19, 18, 16, 16, 17, 16, 16, 18, 17, 16, 16, 16, 16, 16, 16, 16, 19, 16, 18, 17, 16, 16, 16, 17, 16, 16, 18, 16, 16, 16, 17, 16, 18, 17, 16, 19, 19, 16, 16, 16, 16, 16, 16, 16, 16, 19, 16, 16, 16, 17, 19, 16, 17, 16, 16, 17, 16, 16, 16, 16, 16, 16, 19, 16, 16, 16, 19, 19, 17, 19, 16, 16, 16, 17, 19, 18, 17, 16, 18, 16, 16, 16, 16, 16, 16, 16, 16, 18, 18, 16, 16, 16, 16, 16, 16, 16, 16, 16, 16, 19, 17, 16, 16, 18, 16, 16, 19, 18, 16, 17, 17, 17, 17, 16, 16, 18, 16, 16, 16, 18, 16, 16, 16, 17, 16, 16, 16, 19, 16, 16, 17, 16, 18, 16, 19, 17, 16, 16, 16, 16, 16, 16, 16, 16, 16, 16, 16, 18, 18, 16, 16, 16, 17, 19, 16, 16, 16, 16, 19, 16, 16, 16, 16, 16, 16, 17, 16, 16, 19, 18, 17, 16, 19, 16, 16, 17, 16, 16, 17, 16, 16, 16, 16, 17, 16, 18, 16, 18, 17, 16, 16, 16, 16, 16, 16, 16, 16, 16, 18, 16, 16, 16, 16, 16, 16, 16, 16, 19, 19, 19, 16, 16, 19, 19, 18, 19, 16, 16, 16, 18, 16, 16, 17, 16, 16, 16, 16, 16, 16, 16, 18, 16, 16, 16, 16, 17, 19, 16, 16, 18, 17, 16, 19, 16, 16, 16, 16, 16, 16, 16, 16, 19, 19, 16, 17, 16, 16, 16, 17, 16, 18, 16, 17, 16, 18, 16, 16, 16, 16, 16, 16, 19, 18, 16, 16, 18, 16, 18, 19, 18, 18, 16, 16]}, {"id": 2, "name": "senda", "type": "tilelayer", "x": 0, "y": 0, "width": 30, "height": 17, "opacity": 1, "visible": true, "data": [0, 0, 0, 0, 0, 0, 0, 0, 0, 0, 0, 0, 0, 0, 0, 0, 0, 0, 0, 0, 0, 0, 0, 0, 0, 0, 0, 0, 0, 0, 0, 0, 0, 0, 0, 0, 0, 0, 0, 0, 0, 0, 0, 0, 0, 0, 0, 0, 0, 0, 0, 0, 0, 0, 0, 0, 0, 0, 0, 0, 0, 0, 0, 0, 0, 0, 0, 0, 0, 0, 0, 0, 0, 0, 0, 0, 0, 0, 0, 0, 0, 0, 0, 0, 0, 0, 0, 0, 0, 0, 0, 0, 0, 0, 0, 21, 22, 0, 0, 0, 0, 0, 0, 0, 0, 0, 0, 0, 0, 0, 0, 0, 0, 21, 22, 0, 0, 0, 0, 0, 0, 0, 0, 0, 21, 27, 31, 22, 0, 0, 0, 0, 0, 0, 0, 0, 0, 0, 0, 0, 0, 0, 21, 27, 31, 22, 0, 0, 0, 0, 0, 0, 0, 0, 24, 33, 35, 30, 0, 0, 0, 0, 0, 0, 0, 0, 0, 0, 0, 0, 0, 0, 25, 35, 34, 28, 0, 0, 0, 0, 0, 0, 0, 0, 0, 25, 36, 30, 0, 0, 0, 0, 0, 0, 0, 0, 0, 0, 0, 0, 0, 0, 25, 35, 30, 0, 0, 0, 0, 0, 0, 0, 0, 0, 0, 25, 36, 30, 0, 0, 0, 0, 0, 0, 0, 0, 0, 0, 0, 0, 0, 0, 25, 35, 30, 0, 0, 0, 0, 0, 0, 0, 0, 0, 0, 25, 37, 31, 23, 23, 22, 0, 0, 0, 0, 0, 0, 0, 0, 21, 23, 23, 27, 38, 30, 0, 0, 0, 0, 0, 0, 0, 0, 0, 0, 24, 33, 35, 37, 35, 31, 23, 23, 22, 0, 0, 21, 23, 23, 27, 35, 36, 35, 34, 28, 0, 0, 0, 0, 0, 0, 0, 0, 0, 0, 0, 24, 32, 33, 35, 35, 35, 35, 31, 23, 23, 27, 36, 35, 38, 35, 34, 32, 28, 0, 0, 0, 0, 0, 0, 0, 0, 0, 0, 0, 0, 0, 0, 24, 32, 32, 33, 38, 38, 35, 35, 35, 35, 34, 32, 32, 28, 0, 0, 0, 0, 0, 0, 0, 0, 0, 0, 0, 0, 0, 0, 0, 0, 0, 0, 0, 24, 32, 33, 35, 37, 34, 32, 28, 0, 0, 0, 0, 0, 0, 0, 0, 0, 0, 0, 0, 0, 0, 0, 0, 0, 0, 0, 0, 0, 0, 0, 0, 25, 38, 35, 30, 0, 0, 0, 0, 0, 0, 0, 0, 0, 0, 0, 0, 0, 0, 0, 0, 0, 0, 0, 0, 0, 0, 0, 0, 0, 0, 25, 35, 35, 30, 0, 0, 0, 0, 0, 0, 0, 0, 0, 0, 0, 0, 0, 0, 0, 0, 0, 0, 0, 0, 0, 0, 0, 0, 0, 0, 25, 35, 37, 30, 0, 0, 0, 0, 0, 0, 0, 0, 0, 0, 0, 0, 0, 0, 0, 0, 0, 0, 0, 0, 0, 0, 0, 0, 0, 0, 25, 35, 35, 30, 0, 0, 0, 0, 0, 0, 0, 0, 0, 0, 0, 0, 0]}, {"id": 3, "name": "lago", "type": "tilelayer", "x": 0, "y": 0, "width": 30, "height": 17, "opacity": 1, "visible": true, "data": [0, 0, 0, 0, 0, 0, 0, 0, 0, 0, 0, 0, 0, 0, 0, 0, 0, 0, 0, 0, 0, 0, 0, 0, 0, 0, 0, 0, 0, 0, 0, 0, 0, 0, 0, 0, 0, 0, 0, 0, 0, 0, 0, 0, 0, 0, 0, 0, 0, 0, 0, 0, 0, 0, 0, 0, 0, 0, 0, 0, 0, 0, 0, 0, 0, 0, 0, 0, 0, 0, 0, 0, 40, 42, 42, 42, 42, 41, 0, 0, 0, 0, 0, 0, 0, 0, 0, 0, 0, 0, 0, 0, 0, 0, 0, 0, 0, 0, 0, 40, 42, 42, 46, 54, 54, 54, 54, 50, 42, 42, 41, 0, 0, 0, 0, 0, 0, 0, 0, 0, 0, 0, 0, 0, 0, 0, 0, 0, 40, 46, 54, 56, 54, 54, 55, 54, 54, 54, 54, 56, 50, 41, 0, 0, 0, 0, 0, 0, 0, 0, 0, 0, 0, 0, 0, 0, 0, 0, 44, 54, 54, 54, 56, 54, 54, 55, 56, 54, 54, 57, 57, 50, 41, 0, 0, 0, 0, 0, 0, 0, 0, 0, 0, 0, 0, 0, 0, 0, 44, 54, 56, 54, 56, 54, 57, 54, 54, 54, 54, 55, 54, 53, 47, 0, 0, 0, 0, 0, 0, 0, 0, 0, 0, 0, 0, 0, 0, 0, 43, 52, 54, 57, 54, 54, 54, 54, 54, 55, 55, 57, 53, 47, 0, 0, 0, 0, 0, 0, 0, 0, 0, 0, 0, 0, 0, 0, 0, 0, 0, 43, 51, 51, 52, 56, 54, 54, 54, 53, 51, 51, 47, 0, 0, 0, 0, 0, 0, 0, 0, 0, 0, 0, 0, 0, 0, 0, 0, 0, 0, 0, 0, 0, 43, 51, 51, 51, 51, 47, 0, 0, 0, 0, 0, 0, 0, 0, 0, 0, 0, 0, 0, 0, 0, 0, 0, 0, 0, 0, 0, 0, 0, 0, 0, 0, 0, 0, 0, 0, 0, 0, 0, 0, 0, 0, 0, 0, 0, 0, 0, 0, 0, 0, 0, 0, 0, 0, 0, 0, 0, 0, 0, 0, 0, 0, 0, 0, 0, 0, 0, 0, 0, 0, 0, 0, 0, 0, 0, 0, 0, 0, 0, 0, 0, 0, 0, 0, 0, 0, 0, 0, 0, 0, 0, 0, 0, 0, 0, 0, 0, 0, 0, 0, 0, 0, 0, 0, 0, 0, 0, 0, 0, 0, 0, 0, 0, 0, 0, 0, 0, 0, 0, 0, 0, 0, 0, 0, 0, 0, 0, 0, 0, 0, 0, 0, 0, 0, 0, 0, 0, 0, 0, 0, 0, 0, 0, 0, 0, 0, 0, 0, 0, 0, 0, 0, 0, 0, 0, 0, 0, 0, 0, 0, 0, 0, 0, 0, 0, 0, 0, 0, 0, 0, 0, 0, 0, 0, 0, 0, 0, 0, 0, 0, 0, 0, 0, 0, 0, 0, 0, 0, 0, 0, 0, 0, 0, 0, 0, 0, 0, 0, 0, 0, 0, 0, 0, 0, 0, 0, 0, 0, 0, 0, 0, 0, 0, 0, 0, 0, 0, 0, 0, 0, 0, 0, 0, 0, 0, 0, 0, 0]}, {"id": 4, "name": "Above Player", "type": "tilelayer", "x": 0, "y": 0, "width": 30, "height": 17, "opacity": 1, "visible": true, "data": [0, 0, 0, 0, 0, 0, 0, 0, 0, 0, 0, 0, 0, 0, 0, 0, 0, 0, 0, 0, 0, 0, 0, 0, 0, 0, 0, 0, 0, 0, 0, 0, 0, 0, 0, 0, 0, 0, 0, 0, 0, 0, 0, 0, 0, 0, 0, 0, 0, 0, 0, 0, 0, 0, 0, 0, 0, 0, 0, 0, 0, 0, 0, 0, 0, 0, 0, 0, 0, 0, 0, 0, 0, 0, 0, 0, 0, 0, 0, 0, 0, 0, 0, 0, 0, 0, 0, 0, 0, 0, 0, 0, 0, 0, 0, 0, 0, 0, 0, 0, 0, 0, 0, 0, 0, 0, 0, 0, 0, 0, 0, 0, 0, 0, 0, 0, 0, 0, 0, 0, 0, 0, 0, 0, 0, 0, 0, 0, 0, 0, 0, 0, 0, 0, 0, 0, 0, 0, 0, 0, 0, 0, 0, 0, 0, 0, 0, 0, 0, 0, 0, 0, 0, 0, 0, 0, 0, 0, 0, 0, 0, 0, 0, 0, 0, 0, 0, 0, 0, 0, 0, 0, 0, 0, 0, 0, 0, 0, 0, 0, 0, 0, 0, 0, 0, 0, 0, 0, 0, 0, 0, 0, 0, 0, 0, 0, 0, 0, 0, 0, 0, 0, 0, 0, 0, 0, 0, 0, 0, 0, 0, 0, 0, 0, 0, 0, 0, 0, 0, 0, 0, 0, 0, 0, 0, 0, 0, 0, 0, 0, 0, 0, 0, 0, 0, 0, 0, 0, 0, 0, 0, 0, 0, 0, 0, 0, 0, 0, 0, 0, 0, 0, 0, 0, 0, 0, 0, 0, 0, 0, 0, 0, 0, 0, 0, 0, 0, 0, 0, 0, 0, 0, 0, 0, 0, 0, 0, 0, 0, 0, 0, 0, 0, 0, 0, 0, 0, 0, 0, 0, 0, 0, 0, 0, 0, 0, 0, 0, 0, 0, 0, 0, 0, 0, 0, 0, 0, 0, 0, 0, 0, 0, 0, 0, 0, 0, 0, 0, 0, 0, 0, 0, 0, 0, 0, 0, 0, 0, 0, 0, 0, 0, 0, 0, 0, 0, 0, 0, 0, 0, 0, 0, 0, 0, 0, 0, 0, 0, 0, 0, 0, 0, 0, 0, 0, 0, 0, 0, 0, 0, 0, 0, 0, 0, 0, 0, 0, 0, 0, 0, 0, 0, 0, 0, 0, 0, 0, 0, 0, 0, 0, 0, 0, 0, 0, 0, 0, 0, 0, 0, 0, 0, 0, 0, 0, 0, 0, 0, 0, 0, 0, 0, 0, 0, 0, 0, 0, 0, 0, 0, 0, 0, 0, 0, 0, 0, 0, 0, 0, 0, 0, 0, 0, 0, 0, 0, 0, 0, 0, 0, 0, 0, 0, 0, 0, 0, 0, 0, 0, 0, 0, 0, 0, 0, 0, 0, 0, 0, 0, 0, 0, 0, 0, 0, 0, 0, 0, 0, 0, 0, 0, 0, 0, 0, 0, 0, 0, 0, 0, 0, 0, 0, 0, 0, 0, 0, 0, 0, 0, 0, 0, 0, 0, 0, 0, 0, 0, 0, 0, 0, 0, 0, 0, 0, 0, 0, 0, 0, 0, 0, 0, 0, 0, 0, 0, 0, 0, 0, 0, 0]}, {"id": 5, "name": "Objects", "type": "objectgroup", "x": 0, "y": 0, "opacity": 1, "visible": true, "draworder": "topdown", "objects": [{"id": 1, "name": "Spawn Point", "type": "", "x": 480, "y": 496, "width": 0, "height": 0, "rotation": 0, "visible": true, "point": true}, {"id": 2, "name": "jameos-del-agua", "type": "hito", "x": 480, "y": 416, "width": 0, "height": 0, "rotation": 0, "visible": true, "point": true}, {"id": 3, "name": "jameos-del-agua", "type": "zona", "x": 480, "y": 352, "width": 0, "height": 0, "rotation": 0, "visible": true, "point": true}, {"id": 4, "name": "guardiana-jameos", "type": "npc", "x": 352, "y": 384, "width": 0, "height": 0, "rotation": 0, "visible": true, "point": true, "properties": [{"name": "sprite", "type": "string", "value": "lavanpc"}]}, {"id": 5, "name": "agua-jameos", "type": "cofre", "x": 768, "y": 160, "width": 0, "height": 0, "rotation": 0, "visible": true, "point": true, "properties": [{"name": "item", "type": "string", "value": "agua-jameos"}]}, {"id": 6, "name": "roca-malpais", "type": "decor", "x": 842, "y": 331, "width": 0, "height": 0, "rotation": 0, "visible": true, "point": true, "properties": [{"name": "solido", "type": "bool", "value": true}]}, {"id": 7, "name": "roca-malpais", "type": "decor", "x": 252, "y": 45, "width": 0, "height": 0, "rotation": 0, "visible": true, "point": true, "properties": [{"name": "solido", "type": "bool", "value": true}]}, {"id": 8, "name": "roca-malpais", "type": "decor", "x": 256, "y": 470, "width": 0, "height": 0, "rotation": 0, "visible": true, "point": true, "properties": [{"name": "solido", "type": "bool", "value": true}]}, {"id": 9, "name": "roca-malpais", "type": "decor", "x": 871, "y": 49, "width": 0, "height": 0, "rotation": 0, "visible": true, "point": true, "properties": [{"name": "solido", "type": "bool", "value": true}]}, {"id": 10, "name": "roca-malpais", "type": "decor", "x": 612, "y": 107, "width": 0, "height": 0, "rotation": 0, "visible": true, "point": true, "properties": [{"name": "solido", "type": "bool", "value": true}]}, {"id": 11, "name": "roca-malpais", "type": "decor", "x": 856, "y": 253, "width": 0, "height": 0, "rotation": 0, "visible": true, "point": true, "properties": [{"name": "solido", "type": "bool", "value": true}]}, {"id": 12, "name": "roca-malpais", "type": "decor", "x": 785, "y": 424, "width": 0, "height": 0, "rotation": 0, "visible": true, "point": true, "properties": [{"name": "solido", "type": "bool", "value": true}]}, {"id": 13, "name": "roca-malpais", "type": "decor", "x": 690, "y": 161, "width": 0, "height": 0, "rotation": 0, "visible": true, "point": true, "properties": [{"name": "solido", "type": "bool", "value": true}]}, {"id": 14, "name": "roca-malpais", "type": "decor", "x": 278, "y": 393, "width": 0, "height": 0, "rotation": 0, "visible": true, "point": true, "properties": [{"name": "solido", "type": "bool", "value": true}]}, {"id": 15, "name": "roca-malpais", "type": "decor", "x": 853, "y": 449, "width": 0, "height": 0, "rotation": 0, "visible": true, "point": true, "properties": [{"name": "solido", "type": "bool", "value": true}]}]}]}