{"compressionlevel": -1, "type": "map", "version": "1.10", "tiledversion": "1.10.2", "orientation": "orthogonal", "renderorder": "right-down", "infinite": false, "width": 80, "height": 50, "tilewidth": 32, "tileheight": 32, "nextlayerid": 5, "nextobjectid": 340, "tilesets": [{"firstgid": 1, "name": "pixellab-cumbre-camino", "image": "../tilesets/pixellab-cumbre-camino-32.png", "imagewidth": 128, "imageheight": 128, "tilewidth": 32, "tileheight": 32, "tilecount": 16, "columns": 4, "margin": 0, "spacing": 0, "tiles": [{"id": 0, "properties": [{"name": "collides", "type": "bool", "value": false}]}, {"id": 1, "properties": [{"name": "collides", "type": "bool", "value": false}]}, {"id": 2, "properties": [{"name": "collides", "type": "bool", "value": false}]}, {"id": 3, "properties": [{"name": "collides", "type": "bool", "value": false}]}, {"id": 4, "properties": [{"name": "collides", "type": "bool", "value": false}]}, {"id": 5, "properties": [{"name": "collides", "type": "bool", "value": false}]}, {"id": 6, "properties": [{"name": "collides", "type": "bool", "value": false}]}, {"id": 7, "properties": [{"name": "collides", "type": "bool", "value": false}]}, {"id": 8, "properties": [{"name": "collides", "type": "bool", "value": false}]}, {"id": 9, "properties": [{"name": "collides", "type": "bool", "value": false}]}, {"id": 10, "properties": [{"name": "collides", "type": "bool", "value": false}]}, {"id": 11, "properties": [{"name": "collides", "type": "bool", "value": false}]}, {"id": 12, "properties": [{"name": "collides", "type": "bool", "value": false}]}, {"id": 13, "properties": [{"name": "collides", "type": "bool", "value": false}]}, {"id": 14, "properties": [{"name": "collides", "type": "bool", "value": false}]}, {"id": 15, "properties": [{"name": "collides", "type": "bool", "value": false}]}], "wangsets": [{"name": "cumbre-camino", "type": "corner", "tile": -1, "colors": [{"name": "hierba", "color": "#3a9d23", "tile": -1, "probability": 1}, {"name": "camino", "color": "#8b5a2b", "tile": -1, "probability": 1}], "wangtiles": [{"tileid": 0, "wangid": [0, 2, 0, 2, 0, 1, 0, 2]}, {"tileid": 1, "wangid": [0, 1, 0, 1, 0, 2, 0, 2]}, {"tileid": 2, "wangid": [0, 2, 0, 1, 0, 1, 0, 1]}, {"tileid": 3, "wangid": [0, 2, 0, 1, 0, 1, 0, 2]}, {"tileid": 4, "wangid": [0, 2, 0, 1, 0, 2, 0, 1]}, {"tileid": 5, "wangid": [0, 1, 0, 1, 0, 1, 0, 2]}, {"tileid": 6, "wangid": [0, 1, 0, 1, 0, 1, 0, 1]}, {"tileid": 7, "wangid": [0, 1, 0, 2, 0, 1, 0, 1]}, {"tileid": 8, "wangid": [0, 1, 0, 2, 0, 2, 0, 2]}, {"tileid": 9, "wangid": [0, 1, 0, 2, 0, 2, 0, 1]}, {"tileid": 10, "wangid": [0, 1, 0, 1, 0, 2, 0, 1]}, {"tileid": 11, "wangid": [0, 2, 0, 2, 0, 1, 0, 1]}, {"tileid": 12, "wangid": [0, 2, 0, 2, 0, 2, 0, 2]}, {"tileid": 13, "wangid": [0, 2, 0, 1, 0, 2, 0, 2]}, {"tileid": 14, "wangid": [0, 1, 0, 2, 0, 1, 0, 2]}, {"tileid": 15, "wangid": [0, 2, 0, 2, 0, 2, 0, 1]}]}]}, {"firstgid": 17, "name": "pixellab-cumbre-risco", "image": "../tilesets/pixellab-cumbre-risco-32.png", "imagewidth": 128, "imageheight": 128, "tilewidth": 32, "tileheight": 32, "tilecount": 16, "columns": 4, "margin": 0, "spacing": 0, "tiles": [{"id": 0, "properties": [{"name": "collides", "type": "bool", "value": true}]}, {"id": 1, "properties": [{"name": "collides", "type": "bool", "value": true}]}, {"id": 2, "properties": [{"name": "collides", "type": "bool", "value": false}]}, {"id": 3, "properties": [{"name": "collides", "type": "bool", "value": true}]}, {"id": 4, "properties": [{"name": "collides", "type": "bool", "value": true}]}, {"id": 5, "properties": [{"name": "collides", "type": "bool", "value": false}]}, {"id": 6, "properties": [{"name": "collides", "type": "bool", "value": false}]}, {"id": 7, "properties": [{"name": "collides", "type": "bool", "value": false}]}, {"id": 8, "properties": [{"name": "collides", "type": "bool", "value": true}]}, {"id": 9, "properties": [{"name": "collides", "type": "bool", "value": true}]}, {"id": 10, "properties": [{"name": "collides", "type": "bool", "value": false}]}, {"id": 11, "properties": [{"name": "collides", "type": "bool", "value": true}]}, {"id": 12, "properties": [{"name": "collides", "type": "bool", "value": true}]}, {"id": 13, "properties": [{"name": "collides", "type": "bool", "value": true}]}, {"id": 14, "properties": [{"name": "collides", "type": "bool", "value": true}]}, {"id": 15, "properties": [{"name": "collides", "type": "bool", "value": true}]}], "wangsets": [{"name": "cumbre-risco", "type": "corner", "tile": -1, "colors": [{"name": "hierba", "color": "#3a9d23", "tile": -1, "probability": 1}, {"name": "risco", "color": "#8b5a2b", "tile": -1, "probability": 1}], "wangtiles": [{"tileid": 0, "wangid": [0, 2, 0, 2, 0, 1, 0, 2]}, {"tileid": 1, "wangid": [0, 1, 0, 1, 0, 2, 0, 2]}, {"tileid": 2, "wangid": [0, 2, 0, 1, 0, 1, 0, 1]}, {"tileid": 3, "wangid": [0, 2, 0, 1, 0, 1, 0, 2]}, {"tileid": 4, "wangid": [0, 2, 0, 1, 0, 2, 0, 1]}, {"tileid": 5, "wangid": [0, 1, 0, 1, 0, 1, 0, 2]}, {"tileid": 6, "wangid": [0, 1, 0, 1, 0, 1, 0, 1]}, {"tileid": 7, "wangid": [0, 1, 0, 2, 0, 1, 0, 1]}, {"tileid": 8, "wangid": [0, 1, 0, 2, 0, 2, 0, 2]}, {"tileid": 9, "wangid": [0, 1, 0, 2, 0, 2, 0, 1]}, {"tileid": 10, "wangid": [0, 1, 0, 1, 0, 2, 0, 1]}, {"tileid": 11, "wangid": [0, 2, 0, 2, 0, 1, 0, 1]}, {"tileid": 12, "wangid": [0, 2, 0, 2, 0, 2, 0, 2]}, {"tileid": 13, "wangid": [0, 2, 0, 1, 0, 2, 0, 2]}, {"tileid": 14, "wangid": [0, 1, 0, 2, 0, 1, 0, 2]}, {"tileid": 15, "wangid": [0, 2, 0, 2, 0, 2, 0, 1]}]}]}, {"firstgid": 33, "name": "pixellab-cumbre-presa", "image": "../tilesets/pixellab-cumbre-presa-32.png", "imagewidth": 128, "imageheight": 128, "tilewidth": 32, "tileheight": 32, "tilecount": 16, "columns": 4, "margin": 0, "spacing": 0, "tiles": [{"id": 0, "properties": [{"name": "collides", "type": "bool", "value": true}]}, {"id": 1, "properties": [{"name": "collides", "type": "bool", "value": true}]}, {"id": 2, "properties": [{"name": "collides", "type": "bool", "value": false}]}, {"id": 3, "properties": [{"name": "collides", "type": "bool", "value": true}]}, {"id": 4, "properties": [{"name": "collides", "type": "bool", "value": true}]}, {"id": 5, "properties": [{"name": "collides", "type": "bool", "value": false}]}, {"id": 6, "properties": [{"name": "collides", "type": "bool", "value": false}]}, {"id": 7, "properties": [{"name": "collides", "type": "bool", "value": false}]}, {"id": 8, "properties": [{"name": "collides", "type": "bool", "value": true}]}, {"id": 9, "properties": [{"name": "collides", "type": "bool", "value": true}]}, {"id": 10, "properties": [{"name": "collides", "type": "bool", "value": false}]}, {"id": 11, "properties": [{"name": "collides", "type": "bool", "value": true}]}, {"id": 12, "properties": [{"name": "collides", "type": "bool", "value": true}]}, {"id": 13, "properties": [{"name": "collides", "type": "bool", "value": true}]}, {"id": 14, "properties": [{"name": "collides", "type": "bool", "value": true}]}, {"id": 15, "properties": [{"name": "collides", "type": "bool", "value": true}]}], "wangsets": [{"name": "cumbre-presa", "type": "corner", "tile": -1, "colors": [{"name": "hierba", "color": "#3a9d23", "tile": -1, "probability": 1}, {"name": "agua", "color": "#8b5a2b", "tile": -1, "probability": 1}], "wangtiles": [{"tileid": 0, "wangid": [0, 2, 0, 2, 0, 1, 0, 2]}, {"tileid": 1, "wangid": [0, 1, 0, 1, 0, 2, 0, 2]}, {"tileid": 2, "wangid": [0, 2, 0, 1, 0, 1, 0, 1]}, {"tileid": 3, "wangid": [0, 2, 0, 1, 0, 1, 0, 2]}, {"tileid": 4, "wangid": [0, 2, 0, 1, 0, 2, 0, 1]}, {"tileid": 5, "wangid": [0, 1, 0, 1, 0, 1, 0, 2]}, {"tileid": 6, "wangid": [0, 1, 0, 1, 0, 1, 0, 1]}, {"tileid": 7, "wangid": [0, 1, 0, 2, 0, 1, 0, 1]}, {"tileid": 8, "wangid": [0, 1, 0, 2, 0, 2, 0, 2]}, {"tileid": 9, "wangid": [0, 1, 0, 2, 0, 2, 0, 1]}, {"tileid": 10, "wangid": [0, 1, 0, 1, 0, 2, 0, 1]}, {"tileid": 11, "wangid": [0, 2, 0, 2, 0, 1, 0, 1]}, {"tileid": 12, "wangid": [0, 2, 0, 2, 0, 2, 0, 2]}, {"tileid": 13, "wangid": [0, 2, 0, 1, 0, 2, 0, 2]}, {"tileid": 14, "wangid": [0, 1, 0, 2, 0, 1, 0, 2]}, {"tileid": 15, "wangid": [0, 2, 0, 2, 0, 2, 0, 1]}]}]}], "layers": [{"id": 1, "name": "Below Player", "type": "tilelayer", "x": 0, "y": 0, "width": 80, "height": 50, "opacity": 1, "visible": true, "data": [7, 7, 7, 7, 7, 7, 7, 7, 7, 7, 7, 7, 7, 7, 7, 7, 7, 7, 7, 7, 7, 7, 7, 7, 7, 7, 7, 7, 7, 7, 7, 7, 7, 7, 7, 7, 7, 7, 7, 7, 7, 7, 7, 7, 7, 7, 7, 7, 7, 7, 7, 7, 7, 7, 7, 7, 7, 7, 7, 7, 7, 7, 7, 7, 7, 7, 7, 7, 7, 7, 7, 7, 7, 7, 7, 7, 7, 7, 7, 7, 7, 7, 7, 7, 7, 7, 7, 7, 7, 7, 7, 7, 7, 7, 7, 7, 7, 7, 7, 7, 7, 7, 7, 7, 7, 7, 7, 7, 7, 7, 7, 7, 7, 7, 7, 7, 7, 7, 7, 7, 7, 7, 7, 7, 7, 7, 7, 7, 7, 7, 7, 7, 7, 7, 7, 7, 7, 7, 7, 7, 7, 7, 7, 7, 7, 7, 7, 7, 7, 7, 7, 7, 7, 7, 7, 7, 7, 7, 7, 7, 7, 7, 7, 7, 7, 7, 7, 7, 7, 7, 7, 7, 7, 7, 7, 7, 7, 7, 7, 7, 7, 7, 7, 7, 7, 7, 7, 7, 7, 7, 7, 7, 7, 7, 7, 7, 7, 7, 7, 7, 7, 7, 7, 7, 7, 7, 7, 7, 7, 7, 7, 7, 7, 7, 7, 7, 7, 7, 7, 7, 7, 7, 7, 7, 7, 7, 7, 7, 7, 7, 7, 7, 7, 7, 7, 7, 7, 7, 7, 7, 7, 7, 7, 7, 7, 7, 7, 7, 7, 7, 7, 7, 7, 7, 7, 7, 7, 7, 7, 7, 7, 7, 7, 7, 7, 7, 7, 7, 7, 7, 7, 7, 7, 7, 7, 7, 7, 7, 7, 7, 7, 7, 7, 7, 7, 7, 7, 7, 7, 7, 7, 7, 7, 7, 7, 7, 7, 7, 7, 7, 7, 7, 7, 7, 7, 7, 7, 7, 7, 7, 7, 7, 7, 7, 7, 7, 7, 7, 7, 7, 7, 7, 7, 7, 7, 7, 7, 7, 7, 7, 7, 7, 7, 7, 7, 7, 7, 7, 7, 7, 7, 7, 7, 7, 7, 7, 7, 7, 7, 7, 7, 7, 7, 7, 7, 7, 7, 7, 7, 7, 7, 7, 7, 7, 7, 7, 7, 7, 7, 7, 7, 7, 7, 7, 7, 7, 7, 7, 7, 7, 7, 7, 7, 7, 7, 7, 7, 7, 7, 7, 7, 7, 7, 7, 7, 7, 7, 7, 7, 7, 7, 7, 7, 7, 7, 7, 7, 7, 7, 7, 7, 7, 7, 7, 7, 7, 7, 7, 7, 7, 7, 7, 7, 7, 7, 7, 7, 7, 7, 7, 7, 7, 7, 7, 7, 7, 7, 7, 7, 7, 7, 7, 7, 7, 7, 7, 7, 7, 7, 7, 7, 7, 7, 7, 7, 7, 7, 7, 7, 7, 7, 7, 7, 7, 7, 7, 7, 7, 7, 7, 7, 7, 7, 7, 7, 7, 7, 7, 7, 7, 7, 7, 7, 7, 7, 7, 7, 7, 7, 7, 7, 7, 7, 7, 7, 7, 7, 7, 7, 7, 7, 7, 7, 7, 7, 7, 7, 7, 7, 7, 7, 7, 7, 7, 7, 7, 7, 7, 7, 7, 7, 7, 7, 7, 7, 7, 7, 7, 7, 7, 7, 7, 7, 7, 7, 7, 7, 7, 7, 7, 7, 7, 7, 7, 7, 7, 7, 7, 7, 7, 7, 7, 7, 7, 7, 7, 7, 7, 7, 7, 7, 7, 7, 7, 7, 7, 7, 7, 7, 7, 7, 7, 7, 7, 7, 7, 7, 7, 7, 7, 7, 7, 7, 7, 7, 7, 7, 7, 7, 7, 7, 7, 7, 7, 7, 7, 7, 7, 7, 7, 7, 7, 7, 7, 7, 7, 7, 7, 7, 7, 7, 7, 7, 7, 7, 7, 7, 7, 7, 7, 7, 7, 7, 7, 7, 7, 7, 7, 7, 7, 7, 7, 7, 7, 7, 7, 7, 7, 7, 7, 7, 7, 7, 7, 7, 7, 7, 7, 7, 7, 7, 7, 7, 7, 7, 7, 7, 7, 7, 7, 7, 7, 7, 7, 7, 7, 7, 7, 7, 7, 7, 7, 7, 7, 7, 7, 7, 7, 7, 7, 7, 7, 7, 7, 7, 7, 7, 7, 7, 7, 7, 7, 7, 7, 7, 7, 7, 7, 7, 7, 7, 7, 7, 7, 7, 7, 7, 7, 7, 7, 7, 7, 7, 7, 7, 7, 7, 7, 7, 7, 7, 7, 7, 7, 7, 7, 7, 7, 7, 7, 7, 7, 7, 7, 7, 7, 7, 7, 7, 7, 7, 7, 7, 7, 7, 7, 7, 7, 7, 7, 7, 7, 7, 7, 7, 7, 7, 7, 7, 7, 7, 7, 7, 7, 7, 7, 7, 7, 7, 7, 7, 7, 7, 7, 7, 7, 7, 7, 7, 7, 7, 7, 7, 7, 7, 7, 7, 7, 7, 7, 7, 7, 7, 7, 7, 7, 7, 7, 7, 7, 7, 7, 7, 7, 7, 7, 7, 7, 7, 7, 7, 7, 7, 7, 7, 7, 7, 7, 7, 7, 7, 7, 7, 7, 7, 7, 7, 7, 7, 7, 7, 7, 7, 7, 7, 7, 7, 7, 7, 7, 7, 7, 7, 7, 7, 7, 7, 7, 7, 7, 7, 7, 7, 7, 7, 7, 7, 7, 7, 7, 7, 7, 7, 7, 7, 7, 7, 7, 7, 7, 7, 7, 7, 7, 7, 7, 7, 7, 7, 7, 7, 7, 7, 7, 7, 7, 7, 7, 7, 7, 7, 7, 7, 7, 7, 7, 7, 7, 7, 7, 7, 7, 7, 7, 7, 7, 7, 7, 7, 7, 7, 7, 7, 7, 7, 7, 7, 7, 7, 7, 7, 7, 7, 7, 7, 7, 7, 7, 7, 7, 7, 7, 7, 7, 7, 7, 7, 7, 7, 7, 7, 7, 7, 7, 7, 7, 7, 7, 7, 7, 7, 7, 7, 7, 7, 7, 7, 7, 7, 7, 7, 7, 7, 7, 7, 7, 7, 7, 7, 7, 7, 7, 7, 7, 7, 7, 7, 7, 7, 7, 7, 7, 7, 7, 7, 7, 7, 7, 7, 7, 7, 7, 7, 7, 7, 7, 7, 7, 7, 7, 7, 7, 7, 7, 7, 7, 7, 7, 7, 7, 7, 7, 7, 7, 7, 7, 7, 7, 7, 7, 7, 7, 7, 7, 7, 7, 7, 7, 7, 7, 7, 7, 7, 7, 7, 7, 7, 7, 7, 7, 7, 7, 7, 7, 7, 7, 7, 7, 7, 7, 7, 7, 7, 7, 7, 7, 7, 7, 7, 7, 7, 7, 7, 7, 7, 7, 7, 7, 7, 7, 7, 7, 7, 7, 7, 7, 7, 7, 7, 7, 7, 7, 7, 7, 7, 7, 7, 7, 7, 7, 7, 7, 7, 7, 7, 7, 7, 7, 7, 7, 7, 7, 7, 7, 7, 7, 7, 7, 7, 7, 7, 7, 7, 7, 7, 7, 7, 7, 7, 7, 7, 7, 7, 7, 7, 7, 7, 7, 7, 7, 7, 7, 7, 7, 7, 7, 7, 7, 7, 7, 7, 7, 7, 7, 7, 7, 7, 7, 7, 7, 7, 7, 7, 7, 7, 7, 7, 7, 7, 7, 7, 7, 7, 7, 7, 7, 7, 7, 7, 7, 7, 7, 7, 7, 7, 7, 7, 7, 7, 7, 7, 7, 7, 7, 7, 7, 7, 7, 7, 7, 7, 7, 7, 7, 7, 7, 7, 7, 7, 7, 7, 7, 7, 7, 7, 7, 7, 7, 7, 7, 7, 7, 7, 7, 7, 7, 7, 7, 7, 7, 7, 7, 7, 7, 7, 7, 7, 7, 7, 7, 7, 7, 7, 7, 7, 7, 7, 8, 10, 10, 11, 7, 7, 7, 7, 7, 7, 7, 7, 7, 7, 7, 7, 7, 7, 7, 7, 7, 7, 7, 7, 7, 7, 7, 7, 7, 7, 7, 7, 7, 7, 7, 7, 7, 7, 7, 7, 7, 7, 7, 7, 7, 7, 7, 7, 7, 7, 7, 7, 7, 7, 7, 7, 7, 7, 7, 7, 7, 7, 7, 7, 7, 7, 7, 7, 7, 7, 7, 7, 7, 7, 7, 7, 7, 7, 7, 7, 12, 13, 13, 2, 7, 7, 7, 7, 7, 7, 7, 7, 7, 7, 7, 7, 7, 7, 7, 7, 7, 7, 7, 7, 7, 7, 7, 7, 7, 7, 7, 7, 7, 7, 7, 7, 7, 7, 7, 7, 7, 7, 7, 7, 7, 7, 7, 7, 7, 7, 7, 7, 7, 7, 7, 7, 7, 7, 7, 7, 7, 7, 7, 7, 7, 7, 7, 7, 7, 7, 7, 7, 7, 7, 7, 7, 7, 7, 7, 8, 16, 13, 14, 6, 7, 7, 7, 7, 7, 7, 7, 7, 7, 7, 7, 7, 7, 7, 7, 7, 7, 7, 7, 7, 7, 7, 7, 7, 7, 7, 7, 7, 7, 7, 7, 7, 7, 7, 7, 7, 7, 7, 7, 7, 7, 7, 7, 7, 7, 7, 7, 7, 7, 7, 7, 7, 7, 7, 7, 7, 7, 7, 7, 7, 7, 7, 7, 7, 7, 7, 7, 7, 7, 7, 7, 7, 7, 7, 7, 12, 13, 13, 2, 7, 7, 7, 7, 7, 7, 7, 7, 7, 7, 7, 7, 7, 7, 7, 7, 7, 7, 7, 7, 7, 7, 7, 7, 7, 7, 7, 7, 7, 7, 7, 7, 7, 7, 7, 7, 7, 7, 7, 7, 7, 7, 7, 7, 7, 7, 7, 7, 7, 7, 7, 7, 7, 7, 7, 7, 7, 7, 7, 7, 7, 7, 7, 7, 7, 7, 7, 7, 7, 7, 7, 7, 7, 7, 7, 8, 16, 13, 14, 6, 7, 7, 7, 7, 7, 7, 7, 7, 7, 7, 7, 7, 7, 7, 7, 7, 7, 7, 7, 7, 7, 7, 7, 7, 7, 7, 7, 7, 7, 7, 7, 7, 7, 7, 7, 7, 7, 7, 7, 7, 7, 7, 7, 7, 7, 7, 7, 7, 7, 7, 7, 7, 7, 7, 7, 7, 7, 7, 7, 7, 7, 7, 7, 7, 7, 7, 7, 7, 7, 7, 7, 7, 7, 7, 7, 12, 13, 13, 2, 7, 7, 7, 7, 7, 7, 7, 7, 7, 7, 7, 7, 7, 7, 7, 7, 7, 7, 7, 7, 7, 7, 7, 7, 7, 7, 7, 7, 7, 7, 7, 7, 7, 7, 7, 7, 7, 7, 7, 7, 7, 7, 7, 7, 7, 7, 7, 7, 7, 7, 7, 7, 7, 7, 7, 7, 7, 7, 7, 7, 7, 7, 7, 7, 7, 7, 7, 7, 7, 7, 7, 7, 7, 7, 7, 8, 16, 13, 14, 6, 7, 7, 7, 7, 7, 7, 7, 7, 7, 7, 7, 7, 7, 7, 7, 7, 7, 7, 7, 7, 7, 7, 7, 7, 7, 7, 7, 7, 7, 7, 7, 7, 7, 7, 7, 7, 7, 7, 7, 7, 7, 7, 7, 7, 7, 7, 7, 7, 7, 7, 7, 7, 7, 7, 7, 7, 7, 7, 7, 7, 7, 7, 7, 7, 7, 7, 7, 7, 7, 7, 7, 7, 7, 7, 7, 12, 13, 13, 2, 7, 7, 7, 7, 7, 7, 7, 7, 7, 7, 7, 7, 7, 7, 7, 7, 7, 7, 7, 7, 7, 7, 7, 7, 7, 7, 7, 7, 7, 7, 7, 7, 7, 7, 7, 7, 7, 7, 7, 7, 7, 7, 7, 7, 7, 7, 7, 7, 7, 7, 7, 7, 7, 7, 7, 7, 7, 7, 7, 7, 7, 7, 7, 7, 7, 7, 7, 7, 7, 7, 7, 7, 7, 7, 7, 8, 16, 13, 13, 9, 10, 11, 7, 7, 7, 7, 7, 7, 7, 7, 7, 7, 7, 7, 7, 7, 7, 7, 7, 7, 7, 7, 7, 7, 7, 7, 7, 7, 7, 7, 7, 7, 7, 7, 7, 7, 7, 7, 7, 7, 7, 7, 7, 7, 7, 7, 7, 7, 7, 7, 7, 7, 7, 7, 7, 7, 7, 7, 7, 7, 7, 7, 7, 7, 7, 7, 7, 7, 7, 7, 7, 7, 7, 7, 8, 16, 13, 13, 13, 13, 13, 9, 10, 10, 11, 7, 7, 7, 7, 7, 7, 7, 7, 7, 7, 7, 7, 7, 7, 7, 7, 7, 7, 7, 7, 7, 7, 7, 7, 7, 7, 7, 7, 7, 7, 7, 7, 7, 7, 7, 7, 7, 7, 7, 7, 7, 7, 7, 7, 7, 7, 7, 7, 7, 7, 7, 7, 7, 7, 7, 7, 7, 7, 7, 7, 7, 7, 7, 7, 7, 7, 7, 7, 7, 12, 13, 13, 14, 1, 13, 13, 13, 13, 13, 9, 10, 10, 11, 7, 7, 7, 7, 7, 7, 7, 7, 7, 7, 7, 7, 7, 7, 7, 7, 7, 7, 7, 7, 7, 7, 7, 7, 7, 7, 7, 7, 7, 7, 7, 7, 7, 7, 7, 7, 7, 7, 7, 7, 7, 7, 7, 7, 7, 7, 8, 10, 10, 10, 11, 7, 7, 7, 7, 7, 7, 7, 7, 7, 7, 7, 7, 7, 7, 8, 16, 13, 14, 6, 3, 4, 4, 1, 13, 13, 13, 13, 13, 9, 10, 11, 7, 7, 7, 7, 7, 7, 7, 7, 7, 7, 7, 7, 7, 7, 7, 7, 7, 7, 7, 7, 7, 7, 7, 7, 7, 7, 7, 7, 7, 7, 7, 7, 7, 7, 7, 7, 7, 7, 7, 7, 7, 7, 7, 8, 16, 13, 13, 13, 9, 10, 10, 10, 10, 10, 10, 10, 10, 11, 7, 7, 7, 7, 7, 12, 13, 13, 2, 7, 7, 7, 7, 3, 4, 4, 1, 13, 13, 13, 13, 9, 10, 10, 11, 7, 7, 7, 7, 7, 7, 7, 7, 7, 7, 7, 7, 7, 7, 7, 7, 7, 7, 7, 7, 7, 7, 7, 7, 7, 7, 7, 7, 7, 7, 7, 7, 7, 7, 7, 7, 7, 7, 7, 7, 3, 1, 13, 13, 13, 13, 13, 13, 13, 13, 13, 13, 13, 13, 9, 10, 10, 11, 7, 8, 16, 13, 14, 6, 7, 7, 7, 7, 7, 7, 7, 3, 4, 4, 1, 13, 13, 13, 13, 9, 10, 11, 7, 7, 7, 7, 7, 7, 7, 7, 7, 7, 7, 7, 7, 7, 7, 7, 7, 7, 7, 7, 7, 7, 7, 7, 7, 7, 7, 7, 7, 7, 7, 7, 7, 7, 7, 7, 7, 7, 7, 3, 4, 4, 4, 4, 4, 4, 4, 1, 13, 13, 13, 13, 13, 13, 13, 9, 10, 16, 13, 13, 2, 7, 7, 7, 7, 7, 7, 7, 7, 7, 7, 7, 3, 4, 4, 1, 13, 13, 13, 9, 11, 7, 7, 7, 7, 7, 7, 7, 7, 7, 7, 7, 7, 7, 7, 7, 7, 7, 7, 7, 7, 7, 7, 7, 7, 7, 7, 7, 7, 7, 7, 7, 7, 7, 7, 7, 7, 7, 7, 7, 7, 7, 7, 7, 7, 7, 7, 3, 4, 4, 4, 4, 4, 1, 13, 13, 13, 13, 13, 14, 6, 7, 7, 7, 7, 7, 7, 7, 7, 7, 7, 7, 7, 7, 7, 3, 4, 1, 13, 13, 9, 11, 7, 7, 7, 7, 7, 7, 7, 7, 7, 7, 7, 7, 7, 7, 7, 7, 7, 7, 7, 7, 7, 7, 7, 7, 7, 7, 7, 7, 7, 7, 7, 7, 7, 7, 7, 7, 7, 7, 7, 7, 7, 7, 7, 7, 7, 7, 7, 7, 7, 7, 7, 3, 4, 4, 1, 13, 13, 2, 7, 7, 7, 7, 7, 7, 7, 7, 7, 7, 7, 7, 7, 7, 7, 7, 7, 3, 1, 13, 13, 2, 7, 7, 7, 7, 7, 7, 7, 7, 7, 7, 7, 7, 7, 7, 7, 7, 7, 7, 7, 7, 7, 7, 7, 7, 7, 7, 7, 7, 7, 7, 7, 7, 7, 7, 7, 7, 7, 7, 7, 7, 7, 7, 7, 7, 7, 7, 7, 7, 7, 7, 7, 7, 7, 7, 3, 1, 13, 9, 11, 7, 7, 7, 7, 7, 7, 7, 7, 7, 7, 7, 7, 7, 7, 7, 7, 7, 3, 1, 13, 9, 11, 7, 7, 7, 7, 7, 7, 7, 7, 7, 7, 7, 7, 7, 7, 7, 7, 7, 7, 7, 7, 7, 7, 7, 7, 7, 7, 7, 7, 7, 7, 7, 7, 7, 7, 7, 7, 7, 7, 7, 7, 7, 7, 7, 7, 7, 7, 7, 7, 7, 7, 7, 7, 7, 7, 3, 1, 13, 2, 7, 7, 7, 7, 7, 7, 7, 7, 7, 7, 7, 7, 7, 7, 7, 7, 7, 7, 3, 1, 14, 6, 7, 7, 7, 7, 7, 7, 7, 7, 7, 7, 7, 7, 7, 7, 7, 7, 7, 7, 7, 7, 7, 7, 7, 7, 7, 7, 7, 7, 7, 7, 7, 7, 7, 7, 7, 7, 7, 7, 7, 7, 7, 7, 7, 7, 7, 7, 7, 7, 7, 7, 7, 7, 7, 7, 7, 12, 13, 9, 11, 7, 7, 7, 7, 7, 7, 7, 7, 7, 7, 7, 7, 7, 7, 7, 7, 7, 7, 3, 6, 7, 7, 7, 7, 7, 7, 7, 7, 7, 7, 7, 7, 7, 7, 7, 7, 7, 7, 7, 7, 7, 7, 7, 7, 7, 7, 7, 7, 7, 7, 7, 7, 7, 7, 7, 7, 7, 7, 7, 7, 7, 7, 7, 7, 7, 7, 7, 7, 7, 7, 7, 7, 7, 7, 7, 7, 3, 1, 13, 2, 7, 7, 7, 7, 7, 7, 7, 7, 7, 7, 7, 7, 7, 7, 7, 7, 7, 7, 7, 7, 7, 7, 7, 7, 7, 7, 7, 7, 7, 7, 7, 7, 7, 7, 7, 7, 7, 7, 7, 7, 7, 7, 7, 7, 7, 7, 7, 7, 7, 7, 7, 7, 7, 7, 7, 7, 7, 7, 7, 7, 7, 7, 7, 7, 7, 7, 7, 7, 7, 7, 7, 7, 7, 7, 7, 7, 7, 12, 13, 9, 11, 7, 7, 7, 7, 7, 7, 7, 7, 7, 7, 7, 7, 7, 7, 7, 7, 7, 7, 7, 7, 7, 7, 7, 7, 7, 7, 7, 7, 7, 7, 7, 7, 7, 7, 7, 7, 7, 7, 7, 7, 7, 7, 7, 7, 7, 7, 7, 7, 7, 7, 7, 7, 7, 7, 7, 7, 7, 7, 7, 7, 7, 7, 7, 7, 7, 7, 7, 7, 7, 7, 7, 7, 7, 7, 7, 7, 3, 1, 13, 9, 11, 7, 7, 7, 7, 7, 7, 7, 7, 7, 7, 7, 7, 7, 7, 7, 7, 7, 7, 7, 7, 7, 7, 7, 7, 7, 7, 7, 7, 7, 7, 7, 7, 7, 7, 7, 7, 7, 7, 7, 7, 7, 7, 7, 7, 7, 7, 7, 7, 7, 7, 7, 7, 7, 7, 7, 7, 7, 7, 7, 7, 7, 7, 7, 7, 7, 7, 7, 7, 7, 7, 7, 7, 7, 7, 7, 7, 3, 1, 13, 9, 11, 7, 7, 7, 7, 7, 7, 7, 7, 7, 7, 7, 7, 7, 7, 7, 7, 7, 7, 7, 7, 7, 7, 7, 7, 7, 7, 7, 7, 7, 7, 7, 7, 7, 7, 7, 7, 7, 7, 7, 7, 7, 7, 7, 7, 7, 7, 7, 7, 7, 7, 7, 7, 7, 7, 7, 7, 7, 7, 7, 7, 7, 7, 7, 7, 7, 7, 7, 7, 7, 7, 7, 7, 7, 7, 7, 7, 3, 1, 13, 9, 11, 7, 7, 7, 7, 7, 7, 7, 7, 7, 7, 7, 7, 7, 7, 7, 7, 7, 7, 7, 7, 7, 7, 7, 7, 7, 7, 7, 7, 7, 7, 7, 7, 7, 7, 7, 7, 7, 7, 7, 7, 7, 7, 7, 7, 7, 7, 7, 7, 7, 7, 7, 7, 7, 7, 7, 7, 7, 7, 7, 7, 7, 7, 7, 7, 7, 7, 7, 7, 7, 7, 7, 7, 7, 7, 7, 7, 3, 1, 13, 9, 11, 7, 7, 7, 7, 7, 7, 7, 7, 7, 7, 7, 7, 7, 7, 7, 7, 7, 7, 7, 7, 7, 7, 7, 7, 7, 7, 7, 7, 7, 7, 7, 7, 7, 7, 7, 7, 7, 7, 7, 7, 7, 7, 7, 7, 7, 7, 7, 7, 7, 7, 7, 7, 7, 7, 7, 7, 7, 7, 7, 7, 7, 7, 7, 7, 7, 7, 7, 7, 7, 7, 7, 7, 7, 7, 7, 7, 3, 1, 13, 9, 11, 7, 7, 7, 7, 7, 7, 7, 7, 7, 7, 7, 7, 7, 7, 7, 7, 7, 7, 7, 7, 7, 7, 7, 7, 7, 7, 7, 7, 7, 7, 7, 7, 7, 7, 7, 7, 7, 7, 7, 7, 7, 7, 7, 7, 7, 7, 7, 7, 7, 7, 7, 7, 7, 7, 7, 7, 7, 7, 7, 7, 7, 7, 7, 7, 7, 7, 7, 7, 7, 7, 7, 7, 7, 7, 7, 7, 3, 1, 13, 9, 11, 7, 7, 7, 7, 7, 7, 7, 7, 7, 7, 7, 7, 7, 7, 7, 7, 7, 7, 7, 7, 7, 7, 7, 7, 7, 7, 7, 7, 7, 7, 7, 7, 7, 7, 7, 7, 7, 7, 7, 7, 7, 7, 7, 7, 7, 7, 7, 7, 7, 7, 7, 7, 7, 7, 7, 7, 7, 7, 7, 7, 7, 7, 7, 7, 7, 7, 7, 7, 7, 7, 7, 7, 7, 7, 7, 7, 12, 13, 13, 2, 7, 7, 7, 7, 7, 7, 7, 7, 7, 7, 7, 7, 7, 7, 7, 7, 7, 7, 7, 7, 7, 7, 7, 7, 7, 7, 7, 7, 7, 7, 7, 7, 7, 7, 7, 7, 7, 7, 7, 7, 7, 7, 7, 7, 7, 7, 7, 7, 7, 7, 7, 7, 7, 7, 7, 7, 7, 7, 7, 7, 7, 7, 7, 7, 7, 7, 7, 7, 7, 7, 7, 7, 7, 7, 7, 7, 12, 13, 13, 2, 7, 7, 7, 7, 7, 7, 7, 7, 7, 7, 7, 7, 7, 7, 7, 7, 7, 7, 7, 7, 7, 7, 7, 7, 7, 7, 7, 7, 7, 7, 7, 7, 7, 7, 7, 7, 7, 7, 7, 7, 7, 7, 7, 7, 7, 7, 7, 7, 7, 7, 7, 7, 7, 7, 7, 7, 7, 7, 7, 7, 7, 7, 7, 7, 7, 7, 7, 7, 7, 7, 7, 7, 7, 7, 7, 7, 12, 13, 13, 2, 7, 7, 7, 7, 7, 7, 7, 7, 7, 7, 7, 7, 7, 7, 7, 7, 7, 7, 7, 7, 7, 7, 7, 7, 7, 7, 7, 7, 7, 7, 7, 7, 7, 7, 7, 7, 7, 7, 7, 7, 7, 7, 7, 7, 7, 7, 7, 7, 7, 7, 7, 7, 7, 7, 7, 7, 7, 7, 7, 7, 7, 7, 7, 7, 7, 7, 7, 7, 7, 7, 7, 7, 7, 7, 7, 7, 12, 13, 13, 2, 7, 7, 7, 7, 7, 7, 7, 7, 7, 7, 7, 7, 7, 7, 7, 7, 7, 7, 7, 7, 7, 7, 7, 7, 7, 7, 7, 7, 7, 7, 7, 7, 7, 7, 7, 7, 7, 7, 7, 7, 7, 7, 7, 7, 7, 7, 7, 7, 7, 7, 7, 7, 7, 7, 7, 7, 7, 7, 7, 7, 7, 7, 7, 7, 7, 7, 7, 7, 7, 7, 7, 7, 7, 7, 7, 7, 12, 13, 13, 2, 7, 7, 7, 7, 7, 7, 7, 7, 7, 7, 7, 7, 7, 7, 7, 7, 7, 7, 7, 7, 7, 7, 7, 7, 7, 7, 7, 7, 7, 7, 7, 7, 7, 7, 7, 7, 7, 7, 7, 7, 7, 7, 7, 7, 7, 7, 7, 7, 7, 7, 7, 7, 7, 7, 7, 7, 7, 7, 7, 7, 7, 7, 7, 7, 7, 7, 7, 7, 7, 7, 7, 7, 7, 7, 7, 7, 12, 13, 13, 2, 7, 7, 7, 7, 7, 7, 7, 7, 7, 7, 7, 7, 7, 7, 7, 7, 7, 7, 7, 7, 7, 7, 7, 7, 7, 7, 7, 7, 7, 7, 7, 7, 7, 7, 7, 7, 7, 7, 7, 7, 7, 7, 7, 7, 7, 7, 7, 7, 7, 7, 7, 7, 7, 7, 7, 7, 7, 7, 7, 7, 7, 7, 7, 7, 7, 7, 7, 7, 7, 7, 7, 7, 7, 7, 7, 7, 12, 13, 13, 2, 7, 7, 7, 7, 7, 7, 7, 7, 7, 7, 7, 7, 7, 7, 7, 7, 7, 7, 7, 7, 7, 7, 7, 7, 7, 7, 7, 7, 7, 7, 7, 7, 7, 7, 7, 7, 7, 7]}, {"id": 2, "name": "World", "type": "tilelayer", "x": 0, "y": 0, "width": 80, "height": 50, "opacity": 1, "visible": true, "data": [29, 29, 29, 29, 29, 29, 29, 29, 29, 29, 29, 29, 29, 29, 29, 29, 29, 29, 29, 29, 29, 29, 29, 29, 29, 29, 29, 29, 29, 29, 29, 29, 29, 29, 29, 29, 29, 29, 29, 29, 29, 29, 29, 29, 29, 29, 29, 29, 29, 29, 29, 29, 29, 29, 29, 29, 29, 29, 29, 29, 29, 29, 29, 29, 29, 29, 29, 29, 29, 29, 29, 29, 29, 29, 29, 29, 29, 29, 29, 29, 29, 29, 29, 29, 30, 20, 20, 20, 17, 29, 29, 29, 29, 29, 29, 29, 29, 29, 29, 29, 29, 30, 20, 20, 20, 17, 29, 29, 29, 29, 29, 29, 29, 29, 29, 29, 29, 29, 29, 29, 29, 29, 29, 29, 29, 29, 29, 29, 29, 29, 29, 29, 29, 29, 29, 29, 29, 29, 30, 17, 29, 29, 29, 29, 29, 29, 29, 30, 20, 20, 17, 29, 29, 29, 29, 29, 29, 29, 29, 29, 29, 29, 29, 30, 22, 0, 0, 0, 19, 20, 20, 20, 20, 20, 20, 20, 17, 29, 29, 29, 30, 22, 0, 0, 0, 19, 20, 20, 20, 17, 29, 29, 29, 29, 29, 29, 29, 29, 29, 29, 29, 29, 29, 29, 29, 29, 29, 29, 29, 29, 30, 20, 20, 20, 20, 20, 20, 20, 22, 19, 20, 20, 17, 29, 29, 29, 30, 22, 0, 0, 19, 20, 20, 20, 20, 20, 20, 17, 29, 29, 29, 29, 30, 22, 0, 0, 0, 0, 0, 0, 0, 0, 0, 0, 0, 0, 19, 20, 20, 20, 22, 0, 0, 0, 0, 0, 0, 0, 24, 32, 29, 29, 29, 29, 29, 29, 29, 29, 29, 29, 29, 29, 29, 29, 29, 29, 29, 29, 29, 29, 25, 26, 27, 0, 0, 0, 0, 0, 0, 0, 0, 0, 19, 20, 20, 20, 22, 0, 0, 0, 0, 0, 0, 0, 0, 0, 0, 19, 17, 29, 29, 29, 18, 0, 0, 0, 0, 0, 0, 0, 0, 0, 0, 0, 0, 0, 0, 0, 0, 0, 0, 0, 0, 0, 0, 0, 0, 24, 32, 29, 29, 29, 29, 29, 29, 29, 29, 29, 29, 29, 29, 29, 29, 29, 29, 29, 29, 29, 29, 29, 29, 29, 25, 27, 0, 0, 0, 0, 0, 0, 0, 0, 0, 0, 0, 0, 0, 0, 0, 0, 0, 0, 0, 0, 0, 0, 0, 0, 28, 29, 29, 30, 22, 0, 0, 0, 0, 0, 0, 0, 0, 0, 0, 0, 0, 0, 0, 0, 0, 0, 0, 0, 0, 0, 0, 0, 24, 32, 29, 29, 29, 29, 29, 29, 29, 29, 29, 29, 29, 29, 29, 29, 29, 29, 29, 29, 29, 29, 29, 29, 29, 29, 29, 18, 0, 0, 0, 0, 0, 0, 0, 0, 0, 0, 0, 0, 0, 0, 0, 0, 0, 0, 0, 0, 0, 0, 0, 24, 32, 29, 29, 18, 0, 0, 0, 0, 0, 0, 0, 0, 0, 0, 0, 0, 0, 0, 0, 0, 0, 0, 0, 0, 0, 0, 0, 0, 28, 29, 29, 29, 29, 29, 29, 29, 29, 29, 29, 29, 29, 29, 29, 29, 29, 29, 29, 29, 29, 29, 29, 29, 29, 29, 29, 18, 0, 0, 0, 0, 0, 0, 0, 0, 0, 0, 0, 0, 0, 0, 0, 0, 0, 0, 0, 0, 0, 0, 0, 28, 29, 29, 29, 25, 27, 0, 0, 0, 0, 0, 0, 0, 0, 0, 0, 0, 0, 0, 0, 0, 0, 0, 0, 0, 0, 0, 0, 0, 28, 29, 29, 29, 29, 29, 29, 29, 29, 29, 29, 29, 29, 29, 29, 29, 29, 29, 29, 29, 29, 29, 29, 29, 29, 29, 30, 22, 0, 0, 0, 0, 0, 0, 0, 0, 0, 0, 0, 0, 0, 0, 0, 0, 0, 0, 0, 0, 0, 0, 0, 28, 29, 29, 29, 29, 18, 0, 0, 0, 0, 0, 0, 0, 0, 0, 0, 0, 0, 0, 0, 0, 0, 0, 0, 0, 0, 0, 0, 0, 19, 17, 29, 29, 29, 29, 29, 29, 29, 29, 29, 29, 29, 29, 29, 29, 29, 29, 29, 29, 29, 29, 29, 29, 29, 29, 18, 0, 0, 0, 0, 0, 0, 0, 0, 0, 0, 0, 0, 0, 0, 0, 0, 0, 0, 0, 0, 0, 0, 0, 0, 28, 29, 29, 29, 29, 18, 0, 0, 0, 0, 0, 0, 0, 0, 0, 0, 0, 0, 0, 0, 0, 0, 0, 0, 0, 0, 0, 0, 0, 0, 19, 20, 17, 29, 29, 29, 29, 29, 29, 29, 29, 29, 29, 29, 29, 29, 29, 29, 29, 29, 29, 29, 29, 29, 29, 18, 0, 0, 0, 0, 0, 0, 0, 0, 0, 0, 0, 0, 0, 0, 0, 0, 0, 0, 0, 0, 0, 0, 0, 0, 28, 29, 29, 29, 29, 18, 0, 0, 0, 0, 0, 0, 0, 0, 0, 0, 0, 0, 0, 0, 0, 0, 0, 0, 0, 0, 0, 0, 0, 0, 0, 0, 19, 17, 29, 29, 29, 29, 29, 29, 29, 29, 29, 29, 29, 29, 29, 29, 29, 29, 29, 29, 29, 29, 30, 22, 0, 0, 0, 0, 0, 0, 0, 0, 0, 0, 0, 0, 0, 0, 0, 0, 0, 0, 0, 0, 0, 0, 0, 0, 28, 29, 29, 29, 30, 22, 0, 0, 0, 0, 0, 0, 0, 0, 0, 0, 0, 0, 0, 0, 0, 0, 0, 0, 0, 0, 0, 0, 0, 0, 0, 0, 0, 19, 17, 29, 29, 29, 29, 29, 29, 29, 29, 29, 29, 29, 29, 29, 29, 29, 29, 30, 20, 20, 22, 0, 0, 0, 0, 0, 0, 0, 0, 0, 0, 0, 0, 0, 0, 0, 0, 0, 0, 0, 0, 0, 0, 0, 0, 0, 28, 29, 29, 29, 18, 0, 0, 0, 0, 0, 0, 0, 0, 0, 0, 0, 0, 0, 0, 0, 0, 0, 0, 0, 0, 0, 0, 0, 0, 0, 0, 0, 0, 0, 19, 20, 17, 29, 29, 29, 29, 29, 29, 29, 29, 29, 29, 29, 30, 20, 20, 22, 0, 0, 0, 0, 0, 0, 0, 0, 0, 0, 0, 0, 0, 0, 0, 0, 0, 0, 0, 0, 0, 0, 0, 0, 0, 0, 0, 0, 28, 29, 29, 29, 18, 0, 0, 0, 0, 0, 0, 0, 0, 0, 0, 0, 0, 0, 0, 0, 0, 0, 0, 0, 0, 0, 0, 0, 0, 0, 0, 0, 0, 0, 0, 0, 19, 20, 20, 20, 20, 20, 17, 29, 29, 29, 30, 20, 22, 0, 0, 0, 0, 0, 0, 0, 0, 0, 0, 0, 0, 0, 0, 0, 0, 0, 0, 0, 0, 0, 0, 0, 0, 0, 0, 0, 0, 0, 0, 24, 32, 29, 29, 29, 25, 27, 0, 0, 0, 0, 0, 0, 0, 0, 0, 0, 0, 0, 0, 0, 0, 0, 0, 0, 0, 0, 0, 0, 0, 0, 0, 0, 0, 0, 0, 0, 0, 0, 0, 0, 0, 0, 19, 20, 20, 20, 22, 0, 0, 0, 0, 0, 0, 0, 0, 0, 0, 0, 0, 0, 0, 0, 0, 0, 0, 0, 0, 0, 0, 0, 0, 0, 0, 0, 0, 0, 0, 0, 0, 28, 29, 29, 29, 29, 29, 25, 27, 0, 0, 0, 0, 0, 0, 0, 24, 26, 26, 27, 0, 0, 0, 0, 0, 0, 0, 0, 0, 0, 0, 0, 0, 0, 0, 0, 0, 0, 0, 0, 0, 0, 0, 0, 0, 0, 0, 0, 0, 0, 0, 0, 0, 0, 0, 0, 0, 0, 0, 0, 0, 0, 0, 0, 0, 0, 0, 0, 0, 0, 0, 0, 0, 0, 0, 0, 0, 0, 0, 0, 0, 28, 29, 29, 29, 29, 29, 29, 18, 0, 0, 0, 0, 0, 0, 24, 32, 29, 29, 25, 26, 27, 0, 0, 0, 0, 0, 0, 0, 0, 0, 0, 0, 0, 0, 0, 0, 0, 0, 0, 0, 0, 0, 0, 0, 0, 0, 0, 0, 0, 0, 0, 0, 0, 0, 0, 0, 0, 0, 0, 0, 0, 0, 0, 0, 0, 0, 0, 0, 0, 0, 0, 0, 0, 0, 0, 0, 0, 0, 0, 0, 19, 17, 29, 29, 29, 29, 29, 18, 0, 0, 0, 0, 24, 26, 32, 29, 29, 29, 29, 29, 25, 27, 0, 0, 0, 0, 0, 0, 0, 0, 0, 0, 0, 0, 0, 0, 0, 0, 0, 0, 0, 0, 0, 0, 0, 0, 0, 0, 0, 0, 0, 0, 0, 0, 0, 0, 0, 0, 0, 0, 0, 0, 0, 0, 0, 0, 0, 0, 0, 0, 0, 0, 0, 0, 0, 0, 0, 0, 0, 0, 0, 19, 17, 29, 29, 29, 29, 18, 0, 0, 0, 24, 32, 29, 29, 29, 29, 29, 29, 29, 29, 25, 27, 0, 0, 0, 0, 0, 0, 0, 0, 0, 0, 0, 0, 0, 0, 0, 0, 0, 0, 0, 0, 0, 0, 0, 0, 0, 0, 0, 0, 0, 0, 0, 0, 0, 0, 0, 0, 0, 0, 0, 0, 0, 0, 0, 0, 0, 0, 0, 0, 0, 0, 0, 0, 0, 0, 0, 0, 0, 0, 0, 28, 29, 29, 29, 30, 22, 0, 0, 0, 28, 29, 29, 29, 29, 29, 29, 29, 29, 29, 29, 18, 0, 0, 0, 0, 0, 0, 0, 0, 0, 0, 0, 0, 0, 0, 0, 0, 0, 0, 0, 0, 0, 0, 0, 0, 0, 0, 0, 0, 0, 0, 0, 0, 0, 0, 0, 0, 0, 0, 0, 0, 0, 0, 0, 0, 0, 0, 0, 0, 0, 0, 0, 0, 0, 0, 0, 0, 0, 0, 0, 28, 29, 29, 29, 18, 0, 0, 0, 0, 28, 29, 29, 29, 29, 29, 29, 29, 29, 29, 29, 18, 0, 0, 0, 0, 0, 0, 0, 0, 0, 0, 0, 0, 0, 0, 0, 0, 0, 0, 0, 0, 0, 0, 0, 0, 0, 0, 0, 0, 0, 0, 0, 0, 0, 0, 0, 0, 0, 0, 0, 0, 0, 0, 0, 0, 0, 0, 0, 0, 0, 0, 0, 0, 0, 0, 0, 0, 0, 0, 24, 32, 29, 29, 29, 18, 0, 0, 0, 0, 28, 29, 29, 29, 29, 29, 29, 29, 29, 29, 29, 25, 27, 0, 0, 0, 0, 0, 0, 0, 0, 0, 0, 0, 0, 0, 0, 0, 0, 0, 0, 0, 0, 0, 0, 0, 0, 0, 0, 0, 0, 0, 0, 0, 0, 0, 0, 0, 0, 0, 0, 0, 0, 0, 40, 42, 42, 43, 0, 0, 0, 0, 0, 0, 0, 0, 0, 0, 0, 0, 28, 29, 29, 29, 29, 25, 27, 0, 0, 0, 28, 29, 29, 29, 29, 29, 29, 29, 29, 29, 29, 30, 22, 0, 0, 0, 0, 0, 0, 0, 0, 0, 0, 0, 0, 0, 0, 0, 0, 0, 0, 0, 0, 0, 0, 0, 0, 0, 0, 0, 0, 0, 0, 0, 0, 0, 0, 0, 0, 0, 0, 40, 42, 42, 48, 45, 45, 41, 42, 42, 43, 0, 0, 0, 0, 0, 0, 0, 0, 0, 28, 29, 29, 29, 29, 29, 18, 0, 0, 0, 19, 17, 29, 29, 29, 29, 29, 29, 29, 29, 29, 18, 0, 0, 0, 0, 0, 0, 0, 0, 0, 0, 0, 0, 0, 0, 0, 0, 0, 0, 0, 0, 0, 0, 0, 0, 0, 0, 0, 0, 0, 0, 0, 0, 0, 0, 0, 0, 0, 40, 42, 48, 45, 45, 45, 45, 45, 45, 45, 45, 41, 42, 43, 0, 0, 0, 0, 0, 0, 0, 28, 29, 29, 29, 29, 30, 22, 0, 0, 0, 0, 28, 29, 29, 29, 29, 29, 29, 29, 30, 20, 22, 0, 0, 0, 0, 0, 0, 0, 0, 0, 0, 0, 0, 0, 0, 0, 0, 0, 0, 0, 0, 0, 0, 0, 0, 0, 0, 0, 0, 0, 0, 0, 0, 0, 0, 0, 0, 40, 48, 45, 45, 45, 45, 45, 45, 45, 45, 45, 45, 45, 45, 41, 43, 0, 0, 0, 0, 0, 0, 19, 17, 29, 29, 29, 18, 0, 0, 0, 0, 0, 19, 20, 20, 20, 20, 20, 20, 20, 22, 0, 0, 0, 0, 0, 0, 0, 0, 0, 0, 0, 0, 0, 0, 0, 0, 0, 0, 0, 0, 0, 0, 0, 0, 0, 0, 0, 0, 0, 0, 0, 0, 0, 0, 0, 0, 0, 40, 48, 45, 45, 45, 45, 45, 45, 45, 45, 45, 45, 45, 45, 45, 45, 41, 43, 0, 0, 0, 0, 0, 0, 28, 29, 29, 30, 22, 0, 0, 0, 0, 0, 0, 0, 0, 0, 0, 0, 0, 0, 0, 0, 0, 0, 0, 0, 0, 0, 0, 0, 0, 0, 0, 0, 0, 0, 0, 0, 0, 0, 0, 0, 0, 0, 0, 0, 0, 0, 0, 0, 0, 0, 0, 0, 0, 0, 0, 0, 44, 45, 45, 45, 45, 45, 45, 45, 45, 45, 45, 45, 45, 45, 45, 45, 45, 34, 0, 0, 0, 0, 0, 24, 32, 29, 29, 18, 0, 0, 0, 0, 0, 0, 0, 0, 0, 0, 0, 0, 0, 0, 0, 0, 0, 0, 0, 0, 0, 0, 0, 0, 0, 0, 0, 0, 0, 0, 0, 0, 0, 0, 0, 0, 0, 0, 0, 0, 0, 0, 0, 0, 0, 0, 0, 0, 0, 0, 0, 0, 35, 33, 45, 45, 45, 45, 45, 45, 45, 45, 45, 45, 45, 45, 45, 45, 45, 34, 0, 0, 0, 0, 0, 28, 29, 29, 29, 25, 27, 0, 0, 0, 0, 0, 0, 0, 0, 0, 0, 0, 0, 0, 0, 0, 0, 0, 0, 0, 0, 0, 0, 0, 0, 0, 0, 0, 0, 0, 0, 0, 0, 0, 0, 0, 0, 0, 0, 0, 0, 0, 0, 0, 0, 0, 0, 0, 0, 0, 0, 0, 0, 44, 45, 45, 45, 45, 45, 45, 45, 45, 45, 45, 45, 45, 45, 45, 46, 38, 0, 0, 0, 0, 0, 28, 29, 29, 29, 29, 18, 0, 0, 0, 0, 0, 0, 0, 0, 0, 0, 0, 0, 0, 0, 0, 0, 0, 0, 0, 0, 0, 0, 0, 0, 0, 0, 0, 0, 0, 0, 0, 0, 0, 0, 0, 0, 0, 0, 0, 0, 0, 0, 0, 0, 0, 0, 0, 0, 0, 0, 0, 0, 35, 36, 33, 45, 45, 45, 45, 45, 45, 45, 45, 45, 45, 45, 46, 38, 0, 0, 0, 0, 0, 0, 28, 29, 29, 29, 29, 18, 0, 0, 0, 0, 0, 0, 0, 0, 0, 0, 0, 0, 0, 0, 0, 0, 0, 0, 0, 0, 0, 0, 0, 0, 0, 0, 0, 0, 0, 0, 0, 0, 0, 0, 0, 0, 0, 0, 0, 0, 0, 0, 0, 0, 0, 0, 0, 0, 0, 0, 0, 0, 0, 0, 35, 33, 45, 45, 45, 45, 45, 45, 45, 45, 45, 46, 38, 0, 0, 0, 0, 0, 0, 0, 28, 29, 29, 29, 29, 18, 0, 0, 0, 0, 0, 0, 0, 0, 0, 0, 0, 0, 0, 0, 0, 0, 0, 0, 0, 0, 0, 0, 0, 0, 0, 0, 0, 0, 0, 0, 0, 0, 0, 0, 0, 0, 0, 0, 0, 0, 0, 0, 0, 0, 0, 0, 0, 0, 0, 0, 0, 0, 0, 0, 0, 35, 36, 36, 36, 36, 36, 36, 36, 36, 36, 38, 0, 0, 0, 0, 0, 0, 0, 0, 28, 29, 29, 29, 30, 22, 0, 0, 0, 0, 0, 0, 0, 0, 0, 0, 0, 0, 0, 0, 0, 0, 0, 0, 0, 0, 0, 0, 0, 0, 0, 0, 0, 0, 0, 0, 0, 0, 0, 0, 0, 0, 0, 0, 0, 0, 0, 0, 0, 0, 0, 0, 0, 0, 0, 0, 0, 0, 0, 0, 0, 0, 0, 0, 0, 0, 0, 0, 0, 0, 0, 0, 0, 0, 0, 0, 0, 0, 0, 0, 28, 29, 29, 29, 18, 0, 0, 0, 0, 0, 0, 0, 0, 0, 0, 0, 0, 0, 0, 0, 0, 0, 0, 0, 0, 0, 0, 0, 0, 0, 0, 0, 0, 0, 0, 0, 0, 0, 0, 0, 0, 0, 0, 0, 0, 0, 0, 0, 0, 0, 0, 0, 0, 0, 0, 0, 0, 0, 0, 0, 0, 0, 0, 0, 0, 0, 0, 0, 0, 0, 0, 0, 0, 0, 0, 0, 0, 0, 0, 0, 28, 29, 29, 29, 18, 0, 0, 0, 0, 0, 0, 0, 0, 0, 0, 0, 0, 0, 0, 0, 0, 0, 0, 0, 0, 0, 0, 0, 0, 0, 0, 0, 0, 0, 0, 0, 0, 0, 0, 0, 0, 0, 0, 0, 0, 0, 0, 0, 0, 0, 0, 0, 0, 0, 0, 0, 0, 0, 0, 0, 0, 0, 0, 0, 0, 0, 0, 0, 0, 0, 0, 0, 0, 0, 0, 0, 0, 0, 0, 24, 32, 29, 29, 29, 25, 27, 0, 0, 0, 0, 0, 0, 0, 0, 0, 0, 0, 0, 0, 0, 0, 0, 0, 0, 0, 0, 0, 0, 0, 0, 0, 0, 0, 0, 0, 0, 0, 0, 0, 0, 0, 0, 0, 0, 0, 0, 0, 0, 0, 0, 0, 0, 0, 0, 0, 0, 0, 0, 0, 0, 0, 0, 0, 0, 0, 0, 0, 0, 0, 0, 0, 0, 0, 0, 0, 0, 0, 0, 0, 28, 29, 29, 29, 29, 29, 25, 27, 0, 0, 0, 0, 0, 0, 0, 0, 0, 0, 0, 0, 0, 0, 0, 0, 0, 0, 0, 0, 0, 0, 0, 0, 0, 0, 0, 0, 0, 0, 0, 0, 0, 0, 0, 0, 0, 0, 0, 0, 0, 0, 0, 0, 0, 0, 0, 0, 0, 0, 0, 0, 0, 0, 0, 0, 0, 0, 0, 0, 0, 0, 0, 0, 0, 0, 0, 0, 0, 0, 0, 0, 28, 29, 29, 29, 29, 29, 29, 18, 0, 0, 0, 0, 0, 0, 0, 0, 0, 0, 0, 0, 0, 0, 0, 0, 0, 0, 0, 0, 0, 0, 0, 0, 0, 0, 0, 0, 0, 0, 0, 0, 0, 0, 0, 0, 0, 0, 0, 0, 0, 0, 0, 0, 0, 0, 0, 0, 0, 0, 0, 0, 0, 0, 0, 0, 0, 0, 0, 0, 0, 0, 0, 0, 0, 0, 0, 0, 0, 0, 0, 0, 19, 17, 29, 29, 29, 29, 29, 18, 0, 0, 0, 0, 0, 0, 0, 0, 0, 0, 0, 0, 0, 0, 0, 0, 0, 0, 0, 0, 0, 0, 0, 0, 0, 0, 0, 0, 0, 0, 0, 0, 0, 0, 0, 0, 0, 0, 0, 0, 0, 0, 0, 0, 0, 0, 0, 0, 0, 0, 0, 0, 0, 0, 0, 0, 0, 0, 0, 0, 0, 0, 0, 0, 0, 0, 0, 0, 0, 0, 0, 0, 0, 19, 17, 29, 29, 29, 30, 22, 0, 0, 0, 0, 0, 0, 0, 0, 0, 0, 0, 0, 0, 0, 0, 0, 0, 0, 0, 0, 0, 0, 0, 0, 0, 0, 0, 0, 0, 0, 0, 0, 0, 0, 0, 0, 0, 0, 0, 0, 0, 0, 0, 0, 0, 0, 0, 0, 0, 0, 0, 0, 0, 0, 0, 0, 0, 0, 0, 0, 0, 0, 0, 0, 0, 0, 0, 0, 0, 0, 0, 0, 0, 0, 28, 29, 29, 29, 18, 0, 0, 0, 0, 0, 0, 0, 0, 0, 0, 0, 0, 0, 0, 0, 0, 0, 0, 0, 0, 0, 0, 0, 0, 0, 0, 0, 0, 0, 0, 0, 0, 0, 0, 0, 0, 0, 0, 0, 0, 0, 0, 0, 0, 0, 0, 0, 0, 0, 0, 0, 0, 0, 0, 0, 0, 0, 0, 0, 0, 0, 0, 0, 0, 0, 0, 0, 0, 0, 0, 0, 0, 0, 0, 0, 28, 29, 29, 29, 18, 0, 0, 0, 0, 0, 0, 0, 0, 0, 0, 0, 0, 0, 0, 0, 0, 0, 0, 0, 0, 0, 0, 0, 0, 0, 0, 0, 0, 0, 0, 0, 0, 0, 0, 0, 0, 0, 0, 0, 0, 0, 0, 0, 0, 0, 0, 0, 0, 0, 0, 0, 0, 0, 0, 0, 0, 0, 0, 0, 0, 0, 0, 0, 0, 0, 0, 0, 0, 0, 0, 0, 0, 0, 0, 24, 32, 29, 29, 29, 18, 0, 0, 0, 0, 0, 0, 0, 0, 0, 0, 0, 0, 0, 0, 0, 0, 0, 0, 0, 0, 0, 0, 0, 0, 0, 0, 0, 0, 0, 0, 0, 0, 0, 0, 0, 0, 0, 0, 0, 0, 0, 0, 0, 0, 0, 0, 0, 0, 0, 0, 0, 0, 0, 0, 0, 0, 0, 0, 0, 0, 0, 0, 0, 0, 0, 0, 0, 0, 0, 0, 0, 0, 0, 0, 28, 29, 29, 29, 29, 25, 27, 0, 0, 0, 0, 0, 0, 0, 0, 0, 0, 0, 0, 0, 0, 0, 0, 0, 0, 0, 0, 0, 0, 0, 0, 0, 0, 0, 0, 0, 0, 0, 0, 0, 0, 0, 0, 0, 0, 0, 0, 0, 0, 0, 0, 0, 0, 0, 0, 0, 0, 0, 0, 0, 0, 0, 0, 0, 0, 0, 0, 0, 0, 0, 0, 0, 0, 0, 0, 0, 0, 0, 0, 0, 28, 29, 29, 29, 29, 29, 18, 0, 0, 0, 0, 0, 0, 0, 0, 0, 0, 0, 0, 0, 0, 0, 0, 0, 0, 0, 0, 0, 0, 0, 0, 0, 0, 0, 0, 0, 0, 0, 0, 0, 0, 0, 0, 0, 0, 0, 0, 0, 0, 0, 0, 0, 0, 0, 0, 0, 0, 0, 0, 0, 0, 0, 0, 0, 0, 0, 0, 0, 0, 0, 0, 0, 0, 0, 0, 0, 0, 0, 0, 0, 28, 29, 29, 29, 29, 30, 22, 0, 0, 0, 0, 0, 0, 0, 0, 0, 0, 0, 0, 0, 0, 0, 0, 0, 0, 0, 0, 0, 0, 0, 0, 0, 0, 0, 0, 0, 0, 0, 0, 0, 0, 0, 0, 0, 0, 0, 0, 0, 0, 0, 0, 0, 0, 0, 0, 0, 0, 0, 0, 0, 0, 0, 0, 0, 0, 0, 0, 0, 0, 0, 0, 0, 0, 0, 0, 0, 0, 0, 0, 0, 19, 17, 29, 29, 29, 18, 0, 0, 0, 24, 26, 26, 26, 27, 0, 0, 0, 0, 0, 0, 0, 0, 0, 0, 0, 0, 0, 0, 24, 26, 27, 0, 0, 0, 0, 0, 0, 0, 0, 0, 0, 0, 0, 0, 0, 0, 0, 0, 0, 0, 0, 0, 0, 0, 0, 24, 26, 26, 27, 0, 0, 0, 0, 0, 0, 0, 0, 0, 0, 0, 0, 0, 24, 26, 26, 26, 27, 0, 0, 0, 0, 28, 29, 29, 30, 22, 0, 0, 24, 32, 29, 29, 29, 25, 26, 26, 27, 24, 26, 26, 26, 26, 26, 27, 0, 24, 26, 26, 32, 29, 25, 26, 27, 0, 0, 0, 24, 27, 0, 0, 0, 0, 0, 0, 0, 0, 0, 0, 24, 26, 27, 0, 0, 24, 26, 32, 29, 29, 25, 26, 26, 26, 26, 26, 26, 26, 26, 27, 0, 0, 0, 24, 32, 29, 29, 29, 25, 26, 26, 27, 24, 32, 29, 29, 25, 26, 26, 26, 32, 29, 29, 29, 29, 29, 29, 29, 25, 32, 29, 29, 29, 29, 29, 25, 26, 32, 29, 29, 29, 29, 29, 29, 25, 26, 26, 26, 32, 18, 0, 0, 0, 0, 0, 0, 0, 0, 0, 0, 28, 29, 25, 26, 26, 32, 29, 29, 29, 29, 29, 29, 29, 29, 29, 29, 29, 29, 29, 25, 26, 26, 26, 32, 29, 29, 29, 29, 29, 29, 29, 25, 32, 29, 29, 29, 29, 29, 29, 29, 29, 29, 29, 29, 29, 29, 29, 29, 29, 29, 29, 29, 29, 29, 29, 29, 29, 29, 29, 29, 29, 29, 29, 29, 29, 29, 29, 29, 29, 18, 0, 0, 0, 0, 0, 0, 0, 0, 0, 0, 28, 29, 29, 29, 29, 29, 29, 29, 29, 29, 29, 29, 29, 29, 29, 29, 29, 29, 29, 29, 29, 29, 29, 29, 29, 29, 29, 29, 29, 29, 29, 29, 29, 29, 29]}, {"id": 3, "name": "Above Player", "type": "tilelayer", "x": 0, "y": 0, "width": 80, "height": 50, "opacity": 1, "visible": true, "data": [0, 0, 0, 0, 0, 0, 0, 0, 0, 0, 0, 0, 0, 0, 0, 0, 0, 0, 0, 0, 0, 0, 0, 0, 0, 0, 0, 0, 0, 0, 0, 0, 0, 0, 0, 0, 0, 0, 0, 0, 0, 0, 0, 0, 0, 0, 0, 0, 0, 0, 0, 0, 0, 0, 0, 0, 0, 0, 0, 0, 0, 0, 0, 0, 0, 0, 0, 0, 0, 0, 0, 0, 0, 0, 0, 0, 0, 0, 0, 0, 0, 0, 0, 0, 0, 0, 0, 0, 0, 0, 0, 0, 0, 0, 0, 0, 0, 0, 0, 0, 0, 0, 0, 0, 0, 0, 0, 0, 0, 0, 0, 0, 0, 0, 0, 0, 0, 0, 0, 0, 0, 0, 0, 0, 0, 0, 0, 0, 0, 0, 0, 0, 0, 0, 0, 0, 0, 0, 0, 0, 0, 0, 0, 0, 0, 0, 0, 0, 0, 0, 0, 0, 0, 0, 0, 0, 0, 0, 0, 0, 0, 0, 0, 0, 0, 0, 0, 0, 0, 0, 0, 0, 0, 0, 0, 0, 0, 0, 0, 0, 0, 0, 0, 0, 0, 0, 0, 0, 0, 0, 0, 0, 0, 0, 0, 0, 0, 0, 0, 0, 0, 0, 0, 0, 0, 0, 0, 0, 0, 0, 0, 0, 0, 0, 0, 0, 0, 0, 0, 0, 0, 0, 0, 0, 0, 0, 0, 0, 0, 0, 0, 0, 0, 0, 0, 0, 0, 0, 0, 0, 0, 0, 0, 0, 0, 0, 0, 0, 0, 0, 0, 0, 0, 0, 0, 0, 0, 0, 0, 0, 0, 0, 0, 0, 0, 0, 0, 0, 0, 0, 0, 0, 0, 0, 0, 0, 0, 0, 0, 0, 0, 0, 0, 0, 0, 0, 0, 0, 0, 0, 0, 0, 0, 0, 0, 0, 0, 0, 0, 0, 0, 0, 0, 0, 0, 0, 0, 0, 0, 0, 0, 0, 0, 0, 0, 0, 0, 0, 0, 0, 0, 0, 0, 0, 0, 0, 0, 0, 0, 0, 0, 0, 0, 0, 0, 0, 0, 0, 0, 0, 0, 0, 0, 0, 0, 0, 0, 0, 0, 0, 0, 0, 0, 0, 0, 0, 0, 0, 0, 0, 0, 0, 0, 0, 0, 0, 0, 0, 0, 0, 0, 0, 0, 0, 0, 0, 0, 0, 0, 0, 0, 0, 0, 0, 0, 0, 0, 0, 0, 0, 0, 0, 0, 0, 0, 0, 0, 0, 0, 0, 0, 0, 0, 0, 0, 0, 0, 0, 0, 0, 0, 0, 0, 0, 0, 0, 0, 0, 0, 0, 0, 0, 0, 0, 0, 0, 0, 0, 0, 0, 0, 0, 0, 0, 0, 0, 0, 0, 0, 0, 0, 0, 0, 0, 0, 0, 0, 0, 0, 0, 0, 0, 0, 0, 0, 0, 0, 0, 0, 0, 0, 0, 0, 0, 0, 0, 0, 0, 0, 0, 0, 0, 0, 0, 0, 0, 0, 0, 0, 0, 0, 0, 0, 0, 0, 0, 0, 0, 0, 0, 0, 0, 0, 0, 0, 0, 0, 0, 0, 0, 0, 0, 0, 0, 0, 0, 0, 0, 0, 0, 0, 0, 0, 0, 0, 0, 0, 0, 0, 0, 0, 0, 0, 0, 0, 0, 0, 0, 0, 0, 0, 0, 0, 0, 0, 0, 0, 0, 0, 0, 0, 0, 0, 0, 0, 0, 0, 0, 0, 0, 0, 0, 0, 0, 0, 0, 0, 0, 0, 0, 0, 0, 0, 0, 0, 0, 0, 0, 0, 0, 0, 0, 0, 0, 0, 0, 0, 0, 0, 0, 0, 0, 0, 0, 0, 0, 0, 0, 0, 0, 0, 0, 0, 0, 0, 0, 0, 0, 0, 0, 0, 0, 0, 0, 0, 0, 0, 0, 0, 0, 0, 0, 0, 0, 0, 0, 0, 0, 0, 0, 0, 0, 0, 0, 0, 0, 0, 0, 0, 0, 0, 0, 0, 0, 0, 0, 0, 0, 0, 0, 0, 0, 0, 0, 0, 0, 0, 0, 0, 0, 0, 0, 0, 0, 0, 0, 0, 0, 0, 0, 0, 0, 0, 0, 0, 0, 0, 0, 0, 0, 0, 0, 0, 0, 0, 0, 0, 0, 0, 0, 0, 0, 0, 0, 0, 0, 0, 0, 0, 0, 0, 0, 0, 0, 0, 0, 0, 0, 0, 0, 0, 0, 0, 0, 0, 0, 0, 0, 0, 0, 0, 0, 0, 0, 0, 0, 0, 0, 0, 0, 0, 0, 0, 0, 0, 0, 0, 0, 0, 0, 0, 0, 0, 0, 0, 0, 0, 0, 0, 0, 0, 0, 0, 0, 0, 0, 0, 0, 0, 0, 0, 0, 0, 0, 0, 0, 0, 0, 0, 0, 0, 0, 0, 0, 0, 0, 0, 0, 0, 0, 0, 0, 0, 0, 0, 0, 0, 0, 0, 0, 0, 0, 0, 0, 0, 0, 0, 0, 0, 0, 0, 0, 0, 0, 0, 0, 0, 0, 0, 0, 0, 0, 0, 0, 0, 0, 0, 0, 0, 0, 0, 0, 0, 0, 0, 0, 0, 0, 0, 0, 0, 0, 0, 0, 0, 0, 0, 0, 0, 0, 0, 0, 0, 0, 0, 0, 0, 0, 0, 0, 0, 0, 0, 0, 0, 0, 0, 0, 0, 0, 0, 0, 0, 0, 0, 0, 0, 0, 0, 0, 0, 0, 0, 0, 0, 0, 0, 0, 0, 0, 0, 0, 0, 0, 0, 0, 0, 0, 0, 0, 0, 0, 0, 0, 0, 0, 0, 0, 0, 0, 0, 0, 0, 0, 0, 0, 0, 0, 0, 0, 0, 0, 0, 0, 0, 0, 0, 0, 0, 0, 0, 0, 0, 0, 0, 0, 0, 0, 0, 0, 0, 0, 0, 0, 0, 0, 0, 0, 0, 0, 0, 0, 0, 0, 0, 0, 0, 0, 0, 0, 0, 0, 0, 0, 0, 0, 0, 0, 0, 0, 0, 0, 0, 0, 0, 0, 0, 0, 0, 0, 0, 0, 0, 0, 0, 0, 0, 0, 0, 0, 0, 0, 0, 0, 0, 0, 0, 0, 0, 0, 0, 0, 0, 0, 0, 0, 0, 0, 0, 0, 0, 0, 0, 0, 0, 0, 0, 0, 0, 0, 0, 0, 0, 0, 0, 0, 0, 0, 0, 0, 0, 0, 0, 0, 0, 0, 0, 0, 0, 0, 0, 0, 0, 0, 0, 0, 0, 0, 0, 0, 0, 0, 0, 0, 0, 0, 0, 0, 0, 0, 0, 0, 0, 0, 0, 0, 0, 0, 0, 0, 0, 0, 0, 0, 0, 0, 0, 0, 0, 0, 0, 0, 0, 0, 0, 0, 0, 0, 0, 0, 0, 0, 0, 0, 0, 0, 0, 0, 0, 0, 0, 0, 0, 0, 0, 0, 0, 0, 0, 0, 0, 0, 0, 0, 0, 0, 0, 0, 0, 0, 0, 0, 0, 0, 0, 0, 0, 0, 0, 0, 0, 0, 0, 0, 0, 0, 0, 0, 0, 0, 0, 0, 0, 0, 0, 0, 0, 0, 0, 0, 0, 0, 0, 0, 0, 0, 0, 0, 0, 0, 0, 0, 0, 0, 0, 0, 0, 0, 0, 0, 0, 0, 0, 0, 0, 0, 0, 0, 0, 0, 0, 0, 0, 0, 0, 0, 0, 0, 0, 0, 0, 0, 0, 0, 0, 0, 0, 0, 0, 0, 0, 0, 0, 0, 0, 0, 0, 0, 0, 0, 0, 0, 0, 0, 0, 0, 0, 0, 0, 0, 0, 0, 0, 0, 0, 0, 0, 0, 0, 0, 0, 0, 0, 0, 0, 0, 0, 0, 0, 0, 0, 0, 0, 0, 0, 0, 0, 0, 0, 0, 0, 0, 0, 0, 0, 0, 0, 0, 0, 0, 0, 0, 0, 0, 0, 0, 0, 0, 0, 0, 0, 0, 0, 0, 0, 0, 0, 0, 0, 0, 0, 0, 0, 0, 0, 0, 0, 0, 0, 0, 0, 0, 0, 0, 0, 0, 0, 0, 0, 0, 0, 0, 0, 0, 0, 0, 0, 0, 0, 0, 0, 0, 0, 0, 0, 0, 0, 0, 0, 0, 0, 0, 0, 0, 0, 0, 0, 0, 0, 0, 0, 0, 0, 0, 0, 0, 0, 0, 0, 0, 0, 0, 0, 0, 0, 0, 0, 0, 0, 0, 0, 0, 0, 0, 0, 0, 0, 0, 0, 0, 0, 0, 0, 0, 0, 0, 0, 0, 0, 0, 0, 0, 0, 0, 0, 0, 0, 0, 0, 0, 0, 0, 0, 0, 0, 0, 0, 0, 0, 0, 0, 0, 0, 0, 0, 0, 0, 0, 0, 0, 0, 0, 0, 0, 0, 0, 0, 0, 0, 0, 0, 0, 0, 0, 0, 0, 0, 0, 0, 0, 0, 0, 0, 0, 0, 0, 0, 0, 0, 0, 0, 0, 0, 0, 0, 0, 0, 0, 0, 0, 0, 0, 0, 0, 0, 0, 0, 0, 0, 0, 0, 0, 0, 0, 0, 0, 0, 0, 0, 0, 0, 0, 0, 0, 0, 0, 0, 0, 0, 0, 0, 0, 0, 0, 0, 0, 0, 0, 0, 0, 0, 0, 0, 0, 0, 0, 0, 0, 0, 0, 0, 0, 0, 0, 0, 0, 0, 0, 0, 0, 0, 0, 0, 0, 0, 0, 0, 0, 0, 0, 0, 0, 0, 0, 0, 0, 0, 0, 0, 0, 0, 0, 0, 0, 0, 0, 0, 0, 0, 0, 0, 0, 0, 0, 0, 0, 0, 0, 0, 0, 0, 0, 0, 0, 0, 0, 0, 0, 0, 0, 0, 0, 0, 0, 0, 0, 0, 0, 0, 0, 0, 0, 0, 0, 0, 0, 0, 0, 0, 0, 0, 0, 0, 0, 0, 0, 0, 0, 0, 0, 0, 0, 0, 0, 0, 0, 0, 0, 0, 0, 0, 0, 0, 0, 0, 0, 0, 0, 0, 0, 0, 0, 0, 0, 0, 0, 0, 0, 0, 0, 0, 0, 0, 0, 0, 0, 0, 0, 0, 0, 0, 0, 0, 0, 0, 0, 0, 0, 0, 0, 0, 0, 0, 0, 0, 0, 0, 0, 0, 0, 0, 0, 0, 0, 0, 0, 0, 0, 0, 0, 0, 0, 0, 0, 0, 0, 0, 0, 0, 0, 0, 0, 0, 0, 0, 0, 0, 0, 0, 0, 0, 0, 0, 0, 0, 0, 0, 0, 0, 0, 0, 0, 0, 0, 0, 0, 0, 0, 0, 0, 0, 0, 0, 0, 0, 0, 0, 0, 0, 0, 0, 0, 0, 0, 0, 0, 0, 0, 0, 0, 0, 0, 0, 0, 0, 0, 0, 0, 0, 0, 0, 0, 0, 0, 0, 0, 0, 0, 0, 0, 0, 0, 0, 0, 0, 0, 0, 0, 0, 0, 0, 0, 0, 0, 0, 0, 0, 0, 0, 0, 0, 0, 0, 0, 0, 0, 0, 0, 0, 0, 0, 0, 0, 0, 0, 0, 0, 0, 0, 0, 0, 0, 0, 0, 0, 0, 0, 0, 0, 0, 0, 0, 0, 0, 0, 0, 0, 0, 0, 0, 0, 0, 0, 0, 0, 0, 0, 0, 0, 0, 0, 0, 0, 0, 0, 0, 0, 0, 0, 0, 0, 0, 0, 0, 0, 0, 0, 0, 0, 0, 0, 0, 0, 0, 0, 0, 0, 0, 0, 0, 0, 0, 0, 0, 0, 0, 0, 0, 0, 0, 0, 0, 0, 0, 0, 0, 0, 0, 0, 0, 0, 0, 0, 0, 0, 0, 0, 0, 0, 0, 0, 0, 0, 0, 0, 0, 0, 0, 0, 0, 0, 0, 0, 0, 0, 0, 0, 0, 0, 0, 0, 0, 0, 0, 0, 0, 0, 0, 0, 0, 0, 0, 0, 0, 0, 0, 0, 0, 0, 0, 0, 0, 0, 0, 0, 0, 0, 0, 0, 0, 0, 0, 0, 0, 0, 0, 0, 0, 0, 0, 0, 0, 0, 0, 0, 0, 0, 0, 0, 0, 0, 0, 0, 0, 0, 0, 0, 0, 0, 0, 0, 0, 0, 0, 0, 0, 0, 0, 0, 0, 0, 0, 0, 0, 0, 0, 0, 0, 0, 0, 0, 0, 0, 0, 0, 0, 0, 0, 0, 0, 0, 0, 0, 0, 0, 0, 0, 0, 0, 0, 0, 0, 0, 0, 0, 0, 0, 0, 0, 0, 0, 0, 0, 0, 0, 0, 0, 0, 0, 0, 0, 0, 0, 0, 0, 0, 0, 0, 0, 0, 0, 0, 0, 0, 0, 0, 0, 0, 0, 0, 0, 0, 0, 0, 0, 0, 0, 0, 0, 0, 0, 0, 0, 0, 0, 0, 0, 0, 0, 0, 0, 0, 0, 0, 0, 0, 0, 0, 0, 0, 0, 0, 0, 0, 0, 0, 0, 0, 0, 0, 0, 0, 0, 0, 0, 0, 0, 0, 0, 0, 0, 0, 0, 0, 0, 0, 0, 0, 0, 0, 0, 0, 0, 0, 0, 0, 0, 0, 0, 0, 0, 0, 0, 0, 0, 0, 0, 0, 0, 0, 0, 0, 0, 0, 0, 0, 0, 0, 0, 0, 0, 0, 0, 0, 0, 0, 0, 0, 0, 0, 0, 0, 0, 0, 0, 0, 0, 0, 0, 0, 0, 0, 0, 0, 0, 0, 0, 0, 0, 0, 0, 0, 0, 0, 0, 0, 0, 0, 0, 0, 0, 0, 0, 0, 0, 0, 0, 0, 0, 0, 0, 0, 0, 0, 0, 0, 0, 0, 0, 0, 0, 0, 0, 0, 0, 0, 0, 0, 0, 0, 0, 0, 0, 0, 0, 0, 0, 0, 0, 0, 0, 0, 0, 0, 0, 0, 0, 0, 0, 0, 0, 0, 0, 0, 0, 0, 0, 0, 0, 0, 0, 0, 0, 0, 0, 0, 0, 0, 0, 0, 0, 0, 0, 0, 0, 0, 0, 0, 0, 0, 0, 0, 0, 0, 0, 0, 0, 0, 0, 0, 0, 0, 0, 0, 0, 0, 0, 0, 0, 0, 0, 0, 0, 0, 0, 0, 0, 0, 0, 0, 0, 0, 0, 0, 0, 0, 0, 0, 0, 0, 0, 0, 0, 0, 0, 0, 0, 0, 0, 0, 0, 0, 0, 0, 0, 0, 0, 0, 0, 0, 0, 0, 0, 0, 0, 0, 0, 0, 0, 0, 0, 0, 0, 0, 0, 0, 0, 0, 0, 0, 0, 0, 0, 0, 0, 0, 0, 0, 0, 0, 0, 0, 0, 0, 0, 0, 0, 0, 0, 0, 0, 0, 0, 0, 0, 0, 0, 0, 0, 0, 0, 0, 0, 0, 0, 0, 0, 0, 0, 0, 0, 0, 0, 0, 0, 0, 0, 0, 0, 0, 0, 0, 0, 0, 0, 0, 0, 0, 0, 0, 0, 0, 0, 0, 0, 0, 0, 0, 0, 0, 0, 0, 0, 0, 0, 0, 0, 0, 0, 0, 0, 0, 0, 0, 0, 0, 0, 0, 0, 0, 0, 0, 0, 0, 0, 0, 0, 0, 0, 0, 0, 0, 0, 0, 0, 0, 0, 0, 0, 0, 0, 0, 0, 0, 0, 0, 0, 0, 0, 0, 0, 0, 0, 0, 0, 0, 0, 0, 0, 0, 0, 0, 0, 0, 0, 0, 0, 0, 0, 0, 0, 0, 0, 0, 0, 0, 0, 0, 0, 0, 0, 0, 0, 0, 0, 0, 0, 0, 0, 0, 0, 0, 0, 0, 0, 0, 0, 0, 0, 0, 0, 0, 0, 0, 0, 0, 0, 0, 0, 0, 0, 0, 0, 0, 0, 0, 0, 0, 0, 0, 0, 0, 0, 0, 0, 0, 0, 0, 0, 0, 0, 0, 0, 0, 0, 0, 0, 0, 0, 0, 0, 0, 0, 0, 0, 0, 0, 0, 0, 0, 0, 0, 0, 0, 0, 0, 0, 0, 0, 0, 0, 0, 0, 0, 0, 0, 0, 0, 0, 0, 0, 0, 0, 0, 0, 0, 0, 0, 0, 0, 0, 0, 0, 0, 0, 0, 0, 0, 0, 0, 0, 0, 0, 0, 0, 0, 0, 0, 0, 0, 0, 0, 0, 0, 0, 0, 0, 0, 0, 0, 0, 0, 0, 0, 0, 0, 0, 0, 0, 0, 0, 0, 0, 0, 0, 0, 0, 0, 0, 0, 0, 0, 0, 0, 0, 0, 0, 0, 0, 0, 0, 0, 0, 0, 0, 0, 0, 0, 0, 0, 0, 0, 0, 0, 0, 0, 0, 0, 0, 0, 0, 0, 0, 0, 0, 0, 0, 0, 0, 0, 0, 0, 0, 0, 0, 0, 0, 0, 0, 0, 0, 0, 0, 0, 0, 0, 0, 0, 0, 0, 0, 0, 0, 0, 0, 0, 0, 0, 0, 0, 0, 0, 0, 0, 0, 0, 0, 0, 0, 0, 0, 0, 0, 0, 0, 0, 0, 0, 0, 0, 0, 0, 0, 0, 0, 0, 0, 0, 0, 0, 0, 0, 0, 0, 0, 0, 0, 0, 0, 0, 0, 0, 0, 0, 0, 0, 0, 0, 0, 0, 0, 0, 0, 0, 0, 0, 0, 0, 0, 0, 0, 0, 0, 0, 0, 0, 0, 0, 0, 0, 0, 0, 0, 0, 0, 0, 0, 0, 0, 0, 0, 0, 0, 0, 0, 0, 0, 0, 0, 0, 0, 0, 0, 0, 0, 0, 0, 0, 0, 0, 0, 0, 0, 0, 0, 0, 0, 0, 0, 0, 0, 0, 0, 0, 0, 0, 0, 0, 0, 0, 0, 0, 0, 0, 0, 0, 0, 0, 0, 0, 0, 0, 0, 0, 0, 0, 0, 0, 0, 0, 0, 0, 0, 0, 0, 0, 0, 0, 0, 0, 0, 0, 0, 0, 0, 0, 0, 0, 0, 0, 0, 0, 0, 0, 0, 0, 0, 0, 0, 0, 0, 0, 0, 0, 0, 0, 0, 0, 0, 0, 0, 0, 0, 0, 0, 0, 0, 0, 0, 0, 0, 0, 0, 0, 0, 0, 0, 0, 0, 0, 0, 0, 0, 0, 0, 0, 0, 0, 0, 0, 0, 0, 0, 0, 0, 0, 0, 0, 0, 0, 0, 0, 0, 0, 0, 0, 0, 0, 0, 0, 0, 0, 0, 0, 0, 0, 0, 0, 0, 0, 0, 0, 0, 0, 0, 0, 0, 0, 0, 0, 0, 0, 0, 0, 0, 0, 0, 0, 0, 0, 0, 0, 0, 0, 0, 0, 0, 0, 0, 0, 0, 0, 0, 0, 0, 0, 0, 0, 0, 0, 0, 0, 0, 0, 0, 0, 0, 0, 0, 0, 0, 0, 0, 0, 0, 0, 0, 0, 0, 0, 0, 0, 0, 0, 0, 0, 0, 0, 0, 0, 0, 0, 0, 0, 0, 0, 0, 0, 0, 0, 0, 0, 0, 0, 0, 0, 0, 0, 0, 0, 0, 0, 0, 0, 0, 0, 0, 0, 0, 0, 0, 0, 0, 0, 0, 0, 0, 0, 0, 0, 0, 0, 0, 0, 0, 0, 0, 0, 0, 0, 0, 0, 0, 0, 0, 0, 0, 0, 0, 0, 0, 0, 0, 0, 0, 0, 0, 0, 0, 0, 0, 0, 0, 0, 0, 0, 0, 0, 0, 0, 0, 0, 0, 0, 0, 0, 0, 0, 0, 0, 0, 0, 0, 0, 0, 0, 0, 0, 0, 0, 0, 0, 0, 0, 0, 0, 0, 0, 0, 0, 0, 0, 0, 0, 0, 0, 0, 0, 0, 0, 0, 0, 0, 0, 0, 0, 0, 0, 0, 0, 0, 0, 0, 0, 0, 0, 0, 0, 0, 0, 0, 0, 0, 0, 0, 0, 0, 0, 0, 0, 0, 0, 0, 0, 0, 0, 0, 0, 0, 0, 0, 0, 0, 0, 0, 0, 0, 0, 0, 0, 0, 0, 0, 0, 0, 0, 0, 0, 0, 0, 0, 0, 0, 0, 0, 0, 0, 0, 0, 0, 0, 0, 0, 0, 0, 0, 0, 0, 0, 0, 0, 0, 0, 0, 0, 0, 0, 0, 0, 0, 0, 0, 0, 0, 0, 0, 0, 0, 0, 0, 0, 0, 0, 0, 0, 0, 0, 0, 0, 0, 0, 0, 0, 0, 0, 0, 0, 0, 0, 0, 0, 0, 0, 0, 0, 0, 0, 0, 0, 0, 0, 0, 0, 0, 0, 0, 0, 0, 0, 0, 0, 0, 0, 0, 0, 0, 0, 0, 0, 0, 0, 0, 0, 0, 0, 0, 0, 0, 0, 0, 0, 0, 0, 0, 0, 0, 0, 0, 0, 0, 0, 0, 0, 0, 0, 0, 0, 0, 0, 0, 0, 0, 0, 0, 0, 0, 0, 0, 0, 0, 0, 0, 0, 0, 0, 0, 0, 0, 0, 0, 0, 0, 0, 0, 0, 0, 0, 0, 0, 0, 0, 0, 0, 0, 0, 0, 0, 0, 0, 0, 0, 0, 0, 0, 0, 0, 0, 0, 0, 0, 0, 0, 0, 0, 0, 0, 0, 0, 0, 0, 0, 0, 0, 0, 0, 0, 0, 0, 0, 0, 0, 0, 0, 0, 0, 0, 0, 0, 0, 0, 0, 0, 0, 0, 0, 0, 0, 0, 0, 0, 0, 0, 0, 0, 0, 0, 0, 0, 0, 0, 0, 0, 0, 0, 0, 0, 0, 0, 0, 0, 0, 0, 0, 0, 0, 0, 0, 0, 0, 0, 0, 0, 0, 0, 0, 0, 0, 0, 0, 0, 0, 0, 0, 0, 0, 0, 0, 0, 0, 0, 0, 0, 0, 0, 0, 0, 0, 0, 0, 0, 0, 0, 0, 0, 0, 0, 0, 0, 0, 0, 0, 0, 0, 0, 0, 0, 0, 0, 0, 0, 0, 0, 0, 0, 0, 0, 0, 0, 0, 0, 0, 0, 0, 0, 0, 0, 0, 0, 0, 0, 0, 0, 0, 0, 0, 0, 0, 0, 0, 0, 0, 0, 0, 0, 0, 0, 0, 0, 0, 0, 0, 0, 0, 0, 0, 0, 0, 0, 0, 0, 0, 0, 0, 0, 0, 0, 0, 0, 0, 0, 0, 0, 0, 0, 0, 0, 0, 0, 0, 0, 0, 0, 0, 0, 0, 0, 0, 0, 0, 0, 0, 0, 0, 0, 0, 0, 0, 0, 0, 0, 0, 0, 0, 0, 0, 0, 0, 0, 0, 0, 0, 0, 0, 0, 0, 0, 0, 0, 0, 0, 0, 0, 0, 0, 0, 0, 0, 0, 0, 0, 0, 0, 0, 0, 0, 0, 0, 0, 0, 0, 0, 0, 0, 0, 0, 0, 0, 0, 0, 0, 0, 0, 0, 0, 0, 0, 0, 0, 0, 0, 0, 0, 0, 0, 0, 0, 0, 0, 0, 0, 0, 0, 0, 0, 0, 0, 0, 0, 0, 0, 0, 0, 0, 0, 0, 0, 0, 0, 0, 0, 0, 0, 0, 0, 0, 0, 0, 0, 0, 0, 0, 0, 0, 0, 0, 0, 0, 0, 0, 0, 0, 0, 0, 0, 0, 0, 0, 0, 0, 0, 0, 0, 0, 0, 0, 0, 0, 0, 0, 0, 0, 0, 0, 0, 0, 0, 0, 0, 0, 0, 0, 0, 0, 0, 0, 0, 0, 0, 0, 0, 0, 0, 0, 0, 0, 0, 0, 0, 0, 0, 0, 0, 0, 0, 0, 0, 0, 0, 0, 0, 0, 0, 0, 0, 0, 0, 0, 0, 0, 0, 0, 0, 0, 0, 0, 0, 0, 0, 0, 0, 0, 0, 0, 0, 0, 0, 0, 0, 0, 0, 0, 0, 0, 0, 0, 0, 0, 0, 0, 0, 0, 0, 0, 0, 0, 0, 0, 0, 0, 0, 0, 0, 0, 0, 0, 0, 0, 0, 0, 0, 0, 0, 0, 0, 0, 0, 0, 0, 0, 0, 0, 0, 0, 0, 0, 0, 0, 0, 0, 0, 0, 0, 0, 0, 0, 0, 0, 0, 0, 0, 0, 0, 0, 0, 0, 0, 0, 0, 0, 0, 0, 0, 0, 0, 0, 0, 0, 0, 0, 0, 0, 0, 0, 0, 0, 0, 0, 0, 0, 0, 0, 0, 0, 0, 0, 0, 0, 0, 0, 0, 0, 0, 0, 0, 0, 0, 0, 0, 0, 0, 0, 0, 0, 0, 0, 0, 0, 0, 0, 0, 0, 0, 0, 0, 0, 0, 0, 0, 0, 0, 0, 0, 0, 0, 0, 0, 0, 0, 0, 0, 0, 0, 0, 0, 0, 0, 0, 0, 0, 0, 0, 0, 0, 0, 0, 0, 0, 0, 0, 0, 0, 0, 0, 0, 0, 0, 0, 0, 0, 0, 0, 0, 0, 0, 0, 0, 0, 0, 0, 0, 0, 0, 0, 0, 0, 0, 0, 0, 0, 0, 0, 0, 0, 0, 0, 0, 0, 0, 0, 0, 0, 0, 0, 0, 0, 0, 0, 0, 0, 0, 0, 0, 0, 0, 0, 0, 0, 0, 0, 0, 0, 0, 0, 0, 0, 0, 0, 0, 0, 0, 0, 0, 0, 0, 0, 0, 0, 0, 0, 0, 0, 0, 0, 0, 0, 0, 0, 0, 0, 0, 0, 0, 0, 0, 0, 0, 0, 0, 0, 0, 0, 0, 0, 0, 0, 0, 0, 0, 0, 0]}, {"id": 4, "name": "Objects", "type": "objectgroup", "x": 0, "y": 0, "opacity": 1, "visible": true, "draworder": "topdown", "objects": [{"id": 1, "name": "Spawn Point", "type": "", "x": 1280, "y": 1504, "width": 0, "height": 0, "rotation": 0, "visible": true, "point": true}, {"id": 2, "name": "roque-nublo", "type": "zona", "x": 1280, "y": 480, "width": 0, "height": 0, "rotation": 0, "visible": true, "point": true}, {"id": 3, "name": "presa", "type": "zona", "x": 2016, "y": 1088, "width": 0, "height": 0, "rotation": 0, "visible": true, "point": true}, {"id": 4, "name": "casa-canaria", "type": "decor", "x": 416, "y": 864, "width": 0, "height": 0, "rotation": 0, "visible": true, "point": true, "properties": [{"name": "solido", "type": "bool", "value": true}, {"name": "escala", "type": "float", "value": 2.0}]}, {"id": 5, "name": "casa-cueva", "type": "puerta", "x": 416, "y": 876, "width": 0, "height": 0, "rotation": 0, "visible": true, "point": true, "properties": [{"name": "etiqueta", "type": "string", "value": "Entrar en la casa-cueva"}]}, {"id": 6, "name": "pino-canario", "type": "decor", "x": 507, "y": 1377, "width": 0, "height": 0, "rotation": 0, "visible": true, "point": true, "properties": [{"name": "solido", "type": "bool", "value": true}]}, {"id": 7, "name": "pino-canario", "type": "decor", "x": 1777, "y": 1373, "width": 0, "height": 0, "rotation": 0, "visible": true, "point": true, "properties": [{"name": "solido", "type": "bool", "value": true}]}, {"id": 8, "name": "pino-canario", "type": "decor", "x": 1354, "y": 1112, "width": 0, "height": 0, "rotation": 0, "visible": true, "point": true, "properties": [{"name": "solido", "type": "bool", "value": true}]}, {"id": 9, "name": "pino-canario", "type": "decor", "x": 2032, "y": 629, "width": 0, "height": 0, "rotation": 0, "visible": true, "point": true, "properties": [{"name": "solido", "type": "bool", "value": true}]}, {"id": 10, "name": "pino-canario", "type": "decor", "x": 1019, "y": 1418, "width": 0, "height": 0, "rotation": 0, "visible": true, "point": true, "properties": [{"name": "solido", "type": "bool", "value": true}]}, {"id": 11, "name": "pino-canario", "type": "decor", "x": 2250, "y": 128, "width": 0, "height": 0, "rotation": 0, "visible": true, "point": true, "properties": [{"name": "solido", "type": "bool", "value": true}]}, {"id": 12, "name": "pino-canario", "type": "decor", "x": 260, "y": 1404, "width": 0, "height": 0, "rotation": 0, "visible": true, "point": true, "properties": [{"name": "solido", "type": "bool", "value": true}]}, {"id": 13, "name": "pino-canario", "type": "decor", "x": 701, "y": 276, "width": 0, "height": 0, "rotation": 0, "visible": true, "point": true, "properties": [{"name": "solido", "type": "bool", "value": true}]}, {"id": 14, "name": "pino-canario", "type": "decor", "x": 2334, "y": 400, "width": 0, "height": 0, "rotation": 0, "visible": true, "point": true, "properties": [{"name": "solido", "type": "bool", "value": true}]}, {"id": 15, "name": "pino-canario", "type": "decor", "x": 1504, "y": 1234, "width": 0, "height": 0, "rotation": 0, "visible": true, "point": true, "properties": [{"name": "solido", "type": "bool", "value": true}]}, {"id": 16, "name": "pino-canario", "type": "decor", "x": 445, "y": 1444, "width": 0, "height": 0, "rotation": 0, "visible": true, "point": true, "properties": [{"name": "solido", "type": "bool", "value": true}]}, {"id": 17, "name": "pino-canario", "type": "decor", "x": 771, "y": 165, "width": 0, "height": 0, "rotation": 0, "visible": true, "point": true, "properties": [{"name": "solido", "type": "bool", "value": true}]}, {"id": 18, "name": "pino-canario", "type": "decor", "x": 711, "y": 669, "width": 0, "height": 0, "rotation": 0, "visible": true, "point": true, "properties": [{"name": "solido", "type": "bool", "value": true}]}, {"id": 19, "name": "pino-canario", "type": "decor", "x": 1966, "y": 1093, "width": 0, "height": 0, "rotation": 0, "visible": true, "point": true, "properties": [{"name": "solido", "type": "bool", "value": true}]}, {"id": 20, "name": "pino-canario", "type": "decor", "x": 1569, "y": 500, "width": 0, "height": 0, "rotation": 0, "visible": true, "point": true, "properties": [{"name": "solido", "type": "bool", "value": true}]}, {"id": 21, "name": "pino-canario", "type": "decor", "x": 2345, "y": 1296, "width": 0, "height": 0, "rotation": 0, "visible": true, "point": true, "properties": [{"name": "solido", "type": "bool", "value": true}]}, {"id": 22, "name": "pino-canario", "type": "decor", "x": 1352, "y": 1016, "width": 0, "height": 0, "rotation": 0, "visible": true, "point": true, "properties": [{"name": "solido", "type": "bool", "value": true}]}, {"id": 23, "name": "pino-canario", "type": "decor", "x": 2263, "y": 571, "width": 0, "height": 0, "rotation": 0, "visible": true, "point": true, "properties": [{"name": "solido", "type": "bool", "value": true}]}, {"id": 24, "name": "pino-canario", "type": "decor", "x": 2263, "y": 446, "width": 0, "height": 0, "rotation": 0, "visible": true, "point": true, "properties": [{"name": "solido", "type": "bool", "value": true}]}, {"id": 25, "name": "pino-canario", "type": "decor", "x": 558, "y": 312, "width": 0, "height": 0, "rotation": 0, "visible": true, "point": true, "properties": [{"name": "solido", "type": "bool", "value": true}]}, {"id": 26, "name": "pino-canario", "type": "decor", "x": 1804, "y": 310, "width": 0, "height": 0, "rotation": 0, "visible": true, "point": true, "properties": [{"name": "solido", "type": "bool", "value": true}]}, {"id": 27, "name": "pino-canario", "type": "decor", "x": 182, "y": 1433, "width": 0, "height": 0, "rotation": 0, "visible": true, "point": true, "properties": [{"name": "solido", "type": "bool", "value": true}]}, {"id": 28, "name": "pino-canario", "type": "decor", "x": 1974, "y": 1457, "width": 0, "height": 0, "rotation": 0, "visible": true, "point": true, "properties": [{"name": "solido", "type": "bool", "value": true}]}, {"id": 29, "name": "pino-canario", "type": "decor", "x": 2248, "y": 1342, "width": 0, "height": 0, "rotation": 0, "visible": true, "point": true, "properties": [{"name": "solido", "type": "bool", "value": true}]}, {"id": 30, "name": "pino-canario", "type": "decor", "x": 2021, "y": 514, "width": 0, "height": 0, "rotation": 0, "visible": true, "point": true, "properties": [{"name": "solido", "type": "bool", "value": true}]}, {"id": 31, "name": "pino-canario", "type": "decor", "x": 1901, "y": 1267, "width": 0, "height": 0, "rotation": 0, "visible": true, "point": true, "properties": [{"name": "solido", "type": "bool", "value": true}]}, {"id": 32, "name": "pino-canario", "type": "decor", "x": 232, "y": 1282, "width": 0, "height": 0, "rotation": 0, "visible": true, "point": true, "properties": [{"name": "solido", "type": "bool", "value": true}]}, {"id": 33, "name": "pino-canario", "type": "decor", "x": 1632, "y": 596, "width": 0, "height": 0, "rotation": 0, "visible": true, "point": true, "properties": [{"name": "solido", "type": "bool", "value": true}]}, {"id": 34, "name": "pino-canario", "type": "decor", "x": 664, "y": 483, "width": 0, "height": 0, "rotation": 0, "visible": true, "point": true, "properties": [{"name": "solido", "type": "bool", "value": true}]}, {"id": 35, "name": "pino-canario", "type": "decor", "x": 2159, "y": 1440, "width": 0, "height": 0, "rotation": 0, "visible": true, "point": true, "properties": [{"name": "solido", "type": "bool", "value": true}]}, {"id": 36, "name": "pino-canario", "type": "decor", "x": 260, "y": 256, "width": 0, "height": 0, "rotation": 0, "visible": true, "point": true, "properties": [{"name": "solido", "type": "bool", "value": true}]}, {"id": 37, "name": "pino-canario", "type": "decor", "x": 439, "y": 1269, "width": 0, "height": 0, "rotation": 0, "visible": true, "point": true, "properties": [{"name": "solido", "type": "bool", "value": true}]}, {"id": 38, "name": "pino-canario", "type": "decor", "x": 574, "y": 1165, "width": 0, "height": 0, "rotation": 0, "visible": true, "point": true, "properties": [{"name": "solido", "type": "bool", "value": true}]}, {"id": 39, "name": "pino-canario", "type": "decor", "x": 1307, "y": 1182, "width": 0, "height": 0, "rotation": 0, "visible": true, "point": true, "properties": [{"name": "solido", "type": "bool", "value": true}]}, {"id": 40, "name": "pino-canario", "type": "decor", "x": 319, "y": 1190, "width": 0, "height": 0, "rotation": 0, "visible": true, "point": true, "properties": [{"name": "solido", "type": "bool", "value": true}]}, {"id": 41, "name": "pino-canario", "type": "decor", "x": 1366, "y": 1213, "width": 0, "height": 0, "rotation": 0, "visible": true, "point": true, "properties": [{"name": "solido", "type": "bool", "value": true}]}, {"id": 42, "name": "pino-canario", "type": "decor", "x": 1836, "y": 1345, "width": 0, "height": 0, "rotation": 0, "visible": true, "point": true, "properties": [{"name": "solido", "type": "bool", "value": true}]}, {"id": 43, "name": "pino-canario", "type": "decor", "x": 189, "y": 148, "width": 0, "height": 0, "rotation": 0, "visible": true, "point": true, "properties": [{"name": "solido", "type": "bool", "value": true}]}, {"id": 44, "name": "pino-canario", "type": "decor", "x": 1509, "y": 535, "width": 0, "height": 0, "rotation": 0, "visible": true, "point": true, "properties": [{"name": "solido", "type": "bool", "value": true}]}, {"id": 45, "name": "pino-canario", "type": "decor", "x": 908, "y": 438, "width": 0, "height": 0, "rotation": 0, "visible": true, "point": true, "properties": [{"name": "solido", "type": "bool", "value": true}]}, {"id": 46, "name": "pino-canario", "type": "decor", "x": 1523, "y": 1150, "width": 0, "height": 0, "rotation": 0, "visible": true, "point": true, "properties": [{"name": "solido", "type": "bool", "value": true}]}, {"id": 47, "name": "pino-canario", "type": "decor", "x": 2264, "y": 650, "width": 0, "height": 0, "rotation": 0, "visible": true, "point": true, "properties": [{"name": "solido", "type": "bool", "value": true}]}, {"id": 48, "name": "pino-canario", "type": "decor", "x": 1407, "y": 1083, "width": 0, "height": 0, "rotation": 0, "visible": true, "point": true, "properties": [{"name": "solido", "type": "bool", "value": true}]}, {"id": 49, "name": "pino-canario", "type": "decor", "x": 1604, "y": 1298, "width": 0, "height": 0, "rotation": 0, "visible": true, "point": true, "properties": [{"name": "solido", "type": "bool", "value": true}]}, {"id": 50, "name": "pino-canario", "type": "decor", "x": 283, "y": 936, "width": 0, "height": 0, "rotation": 0, "visible": true, "point": true, "properties": [{"name": "solido", "type": "bool", "value": true}]}, {"id": 51, "name": "pino-canario", "type": "decor", "x": 473, "y": 147, "width": 0, "height": 0, "rotation": 0, "visible": true, "point": true, "properties": [{"name": "solido", "type": "bool", "value": true}]}, {"id": 52, "name": "pino-canario", "type": "decor", "x": 1428, "y": 1386, "width": 0, "height": 0, "rotation": 0, "visible": true, "point": true, "properties": [{"name": "solido", "type": "bool", "value": true}]}, {"id": 53, "name": "pino-canario", "type": "decor", "x": 812, "y": 1228, "width": 0, "height": 0, "rotation": 0, "visible": true, "point": true, "properties": [{"name": "solido", "type": "bool", "value": true}]}, {"id": 54, "name": "pino-canario", "type": "decor", "x": 2244, "y": 370, "width": 0, "height": 0, "rotation": 0, "visible": true, "point": true, "properties": [{"name": "solido", "type": "bool", "value": true}]}, {"id": 55, "name": "pino-canario", "type": "decor", "x": 844, "y": 763, "width": 0, "height": 0, "rotation": 0, "visible": true, "point": true, "properties": [{"name": "solido", "type": "bool", "value": true}]}, {"id": 56, "name": "pino-canario", "type": "decor", "x": 770, "y": 610, "width": 0, "height": 0, "rotation": 0, "visible": true, "point": true, "properties": [{"name": "solido", "type": "bool", "value": true}]}, {"id": 57, "name": "pino-canario", "type": "decor", "x": 1883, "y": 1156, "width": 0, "height": 0, "rotation": 0, "visible": true, "point": true, "properties": [{"name": "solido", "type": "bool", "value": true}]}, {"id": 58, "name": "pino-canario", "type": "decor", "x": 2306, "y": 488, "width": 0, "height": 0, "rotation": 0, "visible": true, "point": true, "properties": [{"name": "solido", "type": "bool", "value": true}]}, {"id": 59, "name": "pino-canario", "type": "decor", "x": 2277, "y": 273, "width": 0, "height": 0, "rotation": 0, "visible": true, "point": true, "properties": [{"name": "solido", "type": "bool", "value": true}]}, {"id": 60, "name": "pino-canario", "type": "decor", "x": 1839, "y": 373, "width": 0, "height": 0, "rotation": 0, "visible": true, "point": true, "properties": [{"name": "solido", "type": "bool", "value": true}]}, {"id": 61, "name": "pino-canario", "type": "decor", "x": 632, "y": 1036, "width": 0, "height": 0, "rotation": 0, "visible": true, "point": true, "properties": [{"name": "solido", "type": "bool", "value": true}]}, {"id": 62, "name": "pino-canario", "type": "decor", "x": 951, "y": 831, "width": 0, "height": 0, "rotation": 0, "visible": true, "point": true, "properties": [{"name": "solido", "type": "bool", "value": true}]}, {"id": 63, "name": "pino-canario", "type": "decor", "x": 616, "y": 1113, "width": 0, "height": 0, "rotation": 0, "visible": true, "point": true, "properties": [{"name": "solido", "type": "bool", "value": true}]}, {"id": 64, "name": "pino-canario", "type": "decor", "x": 1904, "y": 285, "width": 0, "height": 0, "rotation": 0, "visible": true, "point": true, "properties": [{"name": "solido", "type": "bool", "value": true}]}, {"id": 65, "name": "pino-canario", "type": "decor", "x": 2087, "y": 1059, "width": 0, "height": 0, "rotation": 0, "visible": true, "point": true, "properties": [{"name": "solido", "type": "bool", "value": true}]}, {"id": 66, "name": "pino-canario", "type": "decor", "x": 2329, "y": 1433, "width": 0, "height": 0, "rotation": 0, "visible": true, "point": true, "properties": [{"name": "solido", "type": "bool", "value": true}]}, {"id": 67, "name": "pino-canario", "type": "decor", "x": 964, "y": 1320, "width": 0, "height": 0, "rotation": 0, "visible": true, "point": true, "properties": [{"name": "solido", "type": "bool", "value": true}]}, {"id": 68, "name": "pino-canario", "type": "decor", "x": 1040, "y": 1282, "width": 0, "height": 0, "rotation": 0, "visible": true, "point": true, "properties": [{"name": "solido", "type": "bool", "value": true}]}, {"id": 69, "name": "pino-canario", "type": "decor", "x": 2341, "y": 736, "width": 0, "height": 0, "rotation": 0, "visible": true, "point": true, "properties": [{"name": "solido", "type": "bool", "value": true}]}, {"id": 70, "name": "pino-canario", "type": "decor", "x": 842, "y": 1378, "width": 0, "height": 0, "rotation": 0, "visible": true, "point": true, "properties": [{"name": "solido", "type": "bool", "value": true}]}, {"id": 71, "name": "pino-canario", "type": "decor", "x": 758, "y": 1336, "width": 0, "height": 0, "rotation": 0, "visible": true, "point": true, "properties": [{"name": "solido", "type": "bool", "value": true}]}, {"id": 72, "name": "pino-canario", "type": "decor", "x": 2170, "y": 400, "width": 0, "height": 0, "rotation": 0, "visible": true, "point": true, "properties": [{"name": "solido", "type": "bool", "value": true}]}, {"id": 73, "name": "pino-canario", "type": "decor", "x": 2354, "y": 555, "width": 0, "height": 0, "rotation": 0, "visible": true, "point": true, "properties": [{"name": "solido", "type": "bool", "value": true}]}, {"id": 74, "name": "pino-canario", "type": "decor", "x": 1897, "y": 468, "width": 0, "height": 0, "rotation": 0, "visible": true, "point": true, "properties": [{"name": "solido", "type": "bool", "value": true}]}, {"id": 75, "name": "pino-canario", "type": "decor", "x": 1988, "y": 367, "width": 0, "height": 0, "rotation": 0, "visible": true, "point": true, "properties": [{"name": "solido", "type": "bool", "value": true}]}, {"id": 76, "name": "pino-canario", "type": "decor", "x": 1251, "y": 1202, "width": 0, "height": 0, "rotation": 0, "visible": true, "point": true, "properties": [{"name": "solido", "type": "bool", "value": true}]}, {"id": 77, "name": "pino-canario", "type": "decor", "x": 2170, "y": 585, "width": 0, "height": 0, "rotation": 0, "visible": true, "point": true, "properties": [{"name": "solido", "type": "bool", "value": true}]}, {"id": 78, "name": "pino-canario", "type": "decor", "x": 597, "y": 426, "width": 0, "height": 0, "rotation": 0, "visible": true, "point": true, "properties": [{"name": "solido", "type": "bool", "value": true}]}, {"id": 79, "name": "pino-canario", "type": "decor", "x": 2417, "y": 741, "width": 0, "height": 0, "rotation": 0, "visible": true, "point": true, "properties": [{"name": "solido", "type": "bool", "value": true}]}, {"id": 80, "name": "pino-canario", "type": "decor", "x": 2156, "y": 1123, "width": 0, "height": 0, "rotation": 0, "visible": true, "point": true, "properties": [{"name": "solido", "type": "bool", "value": true}]}, {"id": 81, "name": "pino-canario", "type": "decor", "x": 578, "y": 1271, "width": 0, "height": 0, "rotation": 0, "visible": true, "point": true, "properties": [{"name": "solido", "type": "bool", "value": true}]}, {"id": 82, "name": "pino-canario", "type": "decor", "x": 182, "y": 682, "width": 0, "height": 0, "rotation": 0, "visible": true, "point": true, "properties": [{"name": "solido", "type": "bool", "value": true}]}, {"id": 83, "name": "pino-canario", "type": "decor", "x": 674, "y": 375, "width": 0, "height": 0, "rotation": 0, "visible": true, "point": true, "properties": [{"name": "solido", "type": "bool", "value": true}]}, {"id": 84, "name": "pino-canario", "type": "decor", "x": 2093, "y": 1250, "width": 0, "height": 0, "rotation": 0, "visible": true, "point": true, "properties": [{"name": "solido", "type": "bool", "value": true}]}, {"id": 85, "name": "pino-canario", "type": "decor", "x": 566, "y": 1369, "width": 0, "height": 0, "rotation": 0, "visible": true, "point": true, "properties": [{"name": "solido", "type": "bool", "value": true}]}, {"id": 86, "name": "pino-canario", "type": "decor", "x": 2339, "y": 1004, "width": 0, "height": 0, "rotation": 0, "visible": true, "point": true, "properties": [{"name": "solido", "type": "bool", "value": true}]}, {"id": 87, "name": "pino-canario", "type": "decor", "x": 1012, "y": 585, "width": 0, "height": 0, "rotation": 0, "visible": true, "point": true, "properties": [{"name": "solido", "type": "bool", "value": true}]}, {"id": 88, "name": "pino-canario", "type": "decor", "x": 2359, "y": 130, "width": 0, "height": 0, "rotation": 0, "visible": true, "point": true, "properties": [{"name": "solido", "type": "bool", "value": true}]}, {"id": 89, "name": "pino-canario", "type": "decor", "x": 813, "y": 679, "width": 0, "height": 0, "rotation": 0, "visible": true, "point": true, "properties": [{"name": "solido", "type": "bool", "value": true}]}, {"id": 90, "name": "pino-canario", "type": "decor", "x": 747, "y": 1180, "width": 0, "height": 0, "rotation": 0, "visible": true, "point": true, "properties": [{"name": "solido", "type": "bool", "value": true}]}, {"id": 91, "name": "pino-canario", "type": "decor", "x": 185, "y": 1195, "width": 0, "height": 0, "rotation": 0, "visible": true, "point": true, "properties": [{"name": "solido", "type": "bool", "value": true}]}, {"id": 92, "name": "pino-canario", "type": "decor", "x": 2425, "y": 910, "width": 0, "height": 0, "rotation": 0, "visible": true, "point": true, "properties": [{"name": "solido", "type": "bool", "value": true}]}, {"id": 93, "name": "pino-canario", "type": "decor", "x": 1693, "y": 600, "width": 0, "height": 0, "rotation": 0, "visible": true, "point": true, "properties": [{"name": "solido", "type": "bool", "value": true}]}, {"id": 94, "name": "pino-canario", "type": "decor", "x": 2402, "y": 247, "width": 0, "height": 0, "rotation": 0, "visible": true, "point": true, "properties": [{"name": "solido", "type": "bool", "value": true}]}, {"id": 95, "name": "pino-canario", "type": "decor", "x": 1631, "y": 435, "width": 0, "height": 0, "rotation": 0, "visible": true, "point": true, "properties": [{"name": "solido", "type": "bool", "value": true}]}, {"id": 96, "name": "pino-canario", "type": "decor", "x": 690, "y": 1038, "width": 0, "height": 0, "rotation": 0, "visible": true, "point": true, "properties": [{"name": "solido", "type": "bool", "value": true}]}, {"id": 97, "name": "pino-canario", "type": "decor", "x": 1607, "y": 667, "width": 0, "height": 0, "rotation": 0, "visible": true, "point": true, "properties": [{"name": "solido", "type": "bool", "value": true}]}, {"id": 98, "name": "pino-canario", "type": "decor", "x": 424, "y": 263, "width": 0, "height": 0, "rotation": 0, "visible": true, "point": true, "properties": [{"name": "solido", "type": "bool", "value": true}]}, {"id": 99, "name": "pino-canario", "type": "decor", "x": 2006, "y": 293, "width": 0, "height": 0, "rotation": 0, "visible": true, "point": true, "properties": [{"name": "solido", "type": "bool", "value": true}]}, {"id": 100, "name": "pino-canario", "type": "decor", "x": 1473, "y": 708, "width": 0, "height": 0, "rotation": 0, "visible": true, "point": true, "properties": [{"name": "solido", "type": "bool", "value": true}]}, {"id": 101, "name": "pino-canario", "type": "decor", "x": 2082, "y": 525, "width": 0, "height": 0, "rotation": 0, "visible": true, "point": true, "properties": [{"name": "solido", "type": "bool", "value": true}]}, {"id": 102, "name": "pino-canario", "type": "decor", "x": 801, "y": 1066, "width": 0, "height": 0, "rotation": 0, "visible": true, "point": true, "properties": [{"name": "solido", "type": "bool", "value": true}]}, {"id": 103, "name": "pino-canario", "type": "decor", "x": 1245, "y": 1126, "width": 0, "height": 0, "rotation": 0, "visible": true, "point": true, "properties": [{"name": "solido", "type": "bool", "value": true}]}, {"id": 104, "name": "pino-canario", "type": "decor", "x": 972, "y": 464, "width": 0, "height": 0, "rotation": 0, "visible": true, "point": true, "properties": [{"name": "solido", "type": "bool", "value": true}]}, {"id": 105, "name": "pino-canario", "type": "decor", "x": 2061, "y": 1385, "width": 0, "height": 0, "rotation": 0, "visible": true, "point": true, "properties": [{"name": "solido", "type": "bool", "value": true}]}, {"id": 106, "name": "pino-canario", "type": "decor", "x": 1847, "y": 526, "width": 0, "height": 0, "rotation": 0, "visible": true, "point": true, "properties": [{"name": "solido", "type": "bool", "value": true}]}, {"id": 107, "name": "pino-canario", "type": "decor", "x": 394, "y": 1335, "width": 0, "height": 0, "rotation": 0, "visible": true, "point": true, "properties": [{"name": "solido", "type": "bool", "value": true}]}, {"id": 108, "name": "pino-canario", "type": "decor", "x": 1398, "y": 1501, "width": 0, "height": 0, "rotation": 0, "visible": true, "point": true, "properties": [{"name": "solido", "type": "bool", "value": true}]}, {"id": 109, "name": "pino-canario", "type": "decor", "x": 875, "y": 1129, "width": 0, "height": 0, "rotation": 0, "visible": true, "point": true, "properties": [{"name": "solido", "type": "bool", "value": true}]}, {"id": 110, "name": "pino-canario", "type": "decor", "x": 2396, "y": 1027, "width": 0, "height": 0, "rotation": 0, "visible": true, "point": true, "properties": [{"name": "solido", "type": "bool", "value": true}]}, {"id": 111, "name": "pino-canario", "type": "decor", "x": 2283, "y": 191, "width": 0, "height": 0, "rotation": 0, "visible": true, "point": true, "properties": [{"name": "solido", "type": "bool", "value": true}]}, {"id": 112, "name": "pino-canario", "type": "decor", "x": 1941, "y": 159, "width": 0, "height": 0, "rotation": 0, "visible": true, "point": true, "properties": [{"name": "solido", "type": "bool", "value": true}]}, {"id": 113, "name": "pino-canario", "type": "decor", "x": 1523, "y": 1339, "width": 0, "height": 0, "rotation": 0, "visible": true, "point": true, "properties": [{"name": "solido", "type": "bool", "value": true}]}, {"id": 114, "name": "pino-canario", "type": "decor", "x": 1962, "y": 516, "width": 0, "height": 0, "rotation": 0, "visible": true, "point": true, "properties": [{"name": "solido", "type": "bool", "value": true}]}, {"id": 115, "name": "pino-canario", "type": "decor", "x": 375, "y": 349, "width": 0, "height": 0, "rotation": 0, "visible": true, "point": true, "properties": [{"name": "solido", "type": "bool", "value": true}]}, {"id": 116, "name": "pino-canario", "type": "decor", "x": 1939, "y": 618, "width": 0, "height": 0, "rotation": 0, "visible": true, "point": true, "properties": [{"name": "solido", "type": "bool", "value": true}]}, {"id": 117, "name": "pino-canario", "type": "decor", "x": 2124, "y": 240, "width": 0, "height": 0, "rotation": 0, "visible": true, "point": true, "properties": [{"name": "solido", "type": "bool", "value": true}]}, {"id": 118, "name": "pino-canario", "type": "decor", "x": 504, "y": 1457, "width": 0, "height": 0, "rotation": 0, "visible": true, "point": true, "properties": [{"name": "solido", "type": "bool", "value": true}]}, {"id": 119, "name": "pino-canario", "type": "decor", "x": 1796, "y": 1226, "width": 0, "height": 0, "rotation": 0, "visible": true, "point": true, "properties": [{"name": "solido", "type": "bool", "value": true}]}, {"id": 120, "name": "pino-canario", "type": "decor", "x": 909, "y": 698, "width": 0, "height": 0, "rotation": 0, "visible": true, "point": true, "properties": [{"name": "solido", "type": "bool", "value": true}]}, {"id": 121, "name": "pino-canario", "type": "decor", "x": 2322, "y": 649, "width": 0, "height": 0, "rotation": 0, "visible": true, "point": true, "properties": [{"name": "solido", "type": "bool", "value": true}]}, {"id": 122, "name": "pino-canario", "type": "decor", "x": 778, "y": 323, "width": 0, "height": 0, "rotation": 0, "visible": true, "point": true, "properties": [{"name": "solido", "type": "bool", "value": true}]}, {"id": 123, "name": "pino-canario", "type": "decor", "x": 1701, "y": 766, "width": 0, "height": 0, "rotation": 0, "visible": true, "point": true, "properties": [{"name": "solido", "type": "bool", "value": true}]}, {"id": 124, "name": "pino-canario", "type": "decor", "x": 1271, "y": 1011, "width": 0, "height": 0, "rotation": 0, "visible": true, "point": true, "properties": [{"name": "solido", "type": "bool", "value": true}]}, {"id": 125, "name": "pino-canario", "type": "decor", "x": 334, "y": 419, "width": 0, "height": 0, "rotation": 0, "visible": true, "point": true, "properties": [{"name": "solido", "type": "bool", "value": true}]}, {"id": 126, "name": "pino-canario", "type": "decor", "x": 739, "y": 769, "width": 0, "height": 0, "rotation": 0, "visible": true, "point": true, "properties": [{"name": "solido", "type": "bool", "value": true}]}, {"id": 127, "name": "pino-canario", "type": "decor", "x": 1522, "y": 467, "width": 0, "height": 0, "rotation": 0, "visible": true, "point": true, "properties": [{"name": "solido", "type": "bool", "value": true}]}, {"id": 128, "name": "pino-canario", "type": "decor", "x": 2247, "y": 1406, "width": 0, "height": 0, "rotation": 0, "visible": true, "point": true, "properties": [{"name": "solido", "type": "bool", "value": true}]}, {"id": 129, "name": "pino-canario", "type": "decor", "x": 1877, "y": 1422, "width": 0, "height": 0, "rotation": 0, "visible": true, "point": true, "properties": [{"name": "solido", "type": "bool", "value": true}]}, {"id": 130, "name": "pino-canario", "type": "decor", "x": 750, "y": 99, "width": 0, "height": 0, "rotation": 0, "visible": true, "point": true, "properties": [{"name": "solido", "type": "bool", "value": true}]}, {"id": 131, "name": "pino-canario", "type": "decor", "x": 191, "y": 405, "width": 0, "height": 0, "rotation": 0, "visible": true, "point": true, "properties": [{"name": "solido", "type": "bool", "value": true}]}, {"id": 132, "name": "pino-canario", "type": "decor", "x": 891, "y": 862, "width": 0, "height": 0, "rotation": 0, "visible": true, "point": true, "properties": [{"name": "solido", "type": "bool", "value": true}]}, {"id": 133, "name": "pino-canario", "type": "decor", "x": 1783, "y": 436, "width": 0, "height": 0, "rotation": 0, "visible": true, "point": true, "properties": [{"name": "solido", "type": "bool", "value": true}]}, {"id": 134, "name": "pino-canario", "type": "decor", "x": 1433, "y": 1227, "width": 0, "height": 0, "rotation": 0, "visible": true, "point": true, "properties": [{"name": "solido", "type": "bool", "value": true}]}, {"id": 135, "name": "pino-canario", "type": "decor", "x": 990, "y": 740, "width": 0, "height": 0, "rotation": 0, "visible": true, "point": true, "properties": [{"name": "solido", "type": "bool", "value": true}]}, {"id": 136, "name": "pino-canario", "type": "decor", "x": 2186, "y": 1305, "width": 0, "height": 0, "rotation": 0, "visible": true, "point": true, "properties": [{"name": "solido", "type": "bool", "value": true}]}, {"id": 137, "name": "pino-canario", "type": "decor", "x": 2046, "y": 217, "width": 0, "height": 0, "rotation": 0, "visible": true, "point": true, "properties": [{"name": "solido", "type": "bool", "value": true}]}, {"id": 138, "name": "pino-canario", "type": "decor", "x": 1589, "y": 811, "width": 0, "height": 0, "rotation": 0, "visible": true, "point": true, "properties": [{"name": "solido", "type": "bool", "value": true}]}, {"id": 139, "name": "pino-canario", "type": "decor", "x": 363, "y": 1285, "width": 0, "height": 0, "rotation": 0, "visible": true, "point": true, "properties": [{"name": "solido", "type": "bool", "value": true}]}, {"id": 140, "name": "pino-canario", "type": "decor", "x": 251, "y": 500, "width": 0, "height": 0, "rotation": 0, "visible": true, "point": true, "properties": [{"name": "solido", "type": "bool", "value": true}]}, {"id": 141, "name": "pino-canario", "type": "decor", "x": 205, "y": 822, "width": 0, "height": 0, "rotation": 0, "visible": true, "point": true, "properties": [{"name": "solido", "type": "bool", "value": true}]}, {"id": 142, "name": "pino-canario", "type": "decor", "x": 2391, "y": 632, "width": 0, "height": 0, "rotation": 0, "visible": true, "point": true, "properties": [{"name": "solido", "type": "bool", "value": true}]}, {"id": 143, "name": "pino-canario", "type": "decor", "x": 249, "y": 377, "width": 0, "height": 0, "rotation": 0, "visible": true, "point": true, "properties": [{"name": "solido", "type": "bool", "value": true}]}, {"id": 144, "name": "pino-canario", "type": "decor", "x": 410, "y": 1173, "width": 0, "height": 0, "rotation": 0, "visible": true, "point": true, "properties": [{"name": "solido", "type": "bool", "value": true}]}, {"id": 145, "name": "pino-canario", "type": "decor", "x": 516, "y": 229, "width": 0, "height": 0, "rotation": 0, "visible": true, "point": true, "properties": [{"name": "solido", "type": "bool", "value": true}]}, {"id": 146, "name": "pino-canario", "type": "decor", "x": 1745, "y": 1436, "width": 0, "height": 0, "rotation": 0, "visible": true, "point": true, "properties": [{"name": "solido", "type": "bool", "value": true}]}, {"id": 147, "name": "pino-canario", "type": "decor", "x": 2054, "y": 1112, "width": 0, "height": 0, "rotation": 0, "visible": true, "point": true, "properties": [{"name": "solido", "type": "bool", "value": true}]}, {"id": 148, "name": "pino-canario", "type": "decor", "x": 697, "y": 1254, "width": 0, "height": 0, "rotation": 0, "visible": true, "point": true, "properties": [{"name": "solido", "type": "bool", "value": true}]}, {"id": 149, "name": "pino-canario", "type": "decor", "x": 1684, "y": 489, "width": 0, "height": 0, "rotation": 0, "visible": true, "point": true, "properties": [{"name": "solido", "type": "bool", "value": true}]}, {"id": 150, "name": "pino-canario", "type": "decor", "x": 632, "y": 177, "width": 0, "height": 0, "rotation": 0, "visible": true, "point": true, "properties": [{"name": "solido", "type": "bool", "value": true}]}, {"id": 151, "name": "pino-canario", "type": "decor", "x": 1565, "y": 1025, "width": 0, "height": 0, "rotation": 0, "visible": true, "point": true, "properties": [{"name": "solido", "type": "bool", "value": true}]}, {"id": 152, "name": "pino-canario", "type": "decor", "x": 1913, "y": 1362, "width": 0, "height": 0, "rotation": 0, "visible": true, "point": true, "properties": [{"name": "solido", "type": "bool", "value": true}]}, {"id": 153, "name": "pino-canario", "type": "decor", "x": 1466, "y": 1118, "width": 0, "height": 0, "rotation": 0, "visible": true, "point": true, "properties": [{"name": "solido", "type": "bool", "value": true}]}, {"id": 154, "name": "pino-canario", "type": "decor", "x": 1512, "y": 1062, "width": 0, "height": 0, "rotation": 0, "visible": true, "point": true, "properties": [{"name": "solido", "type": "bool", "value": true}]}, {"id": 155, "name": "pino-canario", "type": "decor", "x": 1544, "y": 655, "width": 0, "height": 0, "rotation": 0, "visible": true, "point": true, "properties": [{"name": "solido", "type": "bool", "value": true}]}, {"id": 156, "name": "pino-canario", "type": "decor", "x": 1697, "y": 1303, "width": 0, "height": 0, "rotation": 0, "visible": true, "point": true, "properties": [{"name": "solido", "type": "bool", "value": true}]}, {"id": 157, "name": "pino-canario", "type": "decor", "x": 211, "y": 1134, "width": 0, "height": 0, "rotation": 0, "visible": true, "point": true, "properties": [{"name": "solido", "type": "bool", "value": true}]}, {"id": 158, "name": "pino-canario", "type": "decor", "x": 324, "y": 1360, "width": 0, "height": 0, "rotation": 0, "visible": true, "point": true, "properties": [{"name": "solido", "type": "bool", "value": true}]}, {"id": 159, "name": "pino-canario", "type": "decor", "x": 889, "y": 603, "width": 0, "height": 0, "rotation": 0, "visible": true, "point": true, "properties": [{"name": "solido", "type": "bool", "value": true}]}, {"id": 160, "name": "pino-canario", "type": "decor", "x": 701, "y": 1144, "width": 0, "height": 0, "rotation": 0, "visible": true, "point": true, "properties": [{"name": "solido", "type": "bool", "value": true}]}, {"id": 161, "name": "pino-canario", "type": "decor", "x": 2244, "y": 1127, "width": 0, "height": 0, "rotation": 0, "visible": true, "point": true, "properties": [{"name": "solido", "type": "bool", "value": true}]}, {"id": 162, "name": "pino-canario", "type": "decor", "x": 2254, "y": 1207, "width": 0, "height": 0, "rotation": 0, "visible": true, "point": true, "properties": [{"name": "solido", "type": "bool", "value": true}]}, {"id": 163, "name": "pino-canario", "type": "decor", "x": 1455, "y": 591, "width": 0, "height": 0, "rotation": 0, "visible": true, "point": true, "properties": [{"name": "solido", "type": "bool", "value": true}]}, {"id": 164, "name": "pino-canario", "type": "decor", "x": 856, "y": 530, "width": 0, "height": 0, "rotation": 0, "visible": true, "point": true, "properties": [{"name": "solido", "type": "bool", "value": true}]}, {"id": 165, "name": "pino-canario", "type": "decor", "x": 239, "y": 879, "width": 0, "height": 0, "rotation": 0, "visible": true, "point": true, "properties": [{"name": "solido", "type": "bool", "value": true}]}, {"id": 166, "name": "pino-canario", "type": "decor", "x": 156, "y": 1042, "width": 0, "height": 0, "rotation": 0, "visible": true, "point": true, "properties": [{"name": "solido", "type": "bool", "value": true}]}, {"id": 167, "name": "pino-canario", "type": "decor", "x": 941, "y": 1453, "width": 0, "height": 0, "rotation": 0, "visible": true, "point": true, "properties": [{"name": "solido", "type": "bool", "value": true}]}, {"id": 168, "name": "pino-canario", "type": "decor", "x": 131, "y": 890, "width": 0, "height": 0, "rotation": 0, "visible": true, "point": true, "properties": [{"name": "solido", "type": "bool", "value": true}]}, {"id": 169, "name": "pino-canario", "type": "decor", "x": 1133, "y": 970, "width": 0, "height": 0, "rotation": 0, "visible": true, "point": true, "properties": [{"name": "solido", "type": "bool", "value": true}]}, {"id": 170, "name": "pino-canario", "type": "decor", "x": 946, "y": 554, "width": 0, "height": 0, "rotation": 0, "visible": true, "point": true, "properties": [{"name": "solido", "type": "bool", "value": true}]}, {"id": 171, "name": "pino-canario", "type": "decor", "x": 1466, "y": 1464, "width": 0, "height": 0, "rotation": 0, "visible": true, "point": true, "properties": [{"name": "solido", "type": "bool", "value": true}]}, {"id": 172, "name": "pino-canario", "type": "decor", "x": 1666, "y": 711, "width": 0, "height": 0, "rotation": 0, "visible": true, "point": true, "properties": [{"name": "solido", "type": "bool", "value": true}]}, {"id": 173, "name": "pino-canario", "type": "decor", "x": 1036, "y": 658, "width": 0, "height": 0, "rotation": 0, "visible": true, "point": true, "properties": [{"name": "solido", "type": "bool", "value": true}]}, {"id": 174, "name": "pino-canario", "type": "decor", "x": 447, "y": 348, "width": 0, "height": 0, "rotation": 0, "visible": true, "point": true, "properties": [{"name": "solido", "type": "bool", "value": true}]}, {"id": 175, "name": "pino-canario", "type": "decor", "x": 315, "y": 1001, "width": 0, "height": 0, "rotation": 0, "visible": true, "point": true, "properties": [{"name": "solido", "type": "bool", "value": true}]}, {"id": 176, "name": "pino-canario", "type": "decor", "x": 1891, "y": 209, "width": 0, "height": 0, "rotation": 0, "visible": true, "point": true, "properties": [{"name": "solido", "type": "bool", "value": true}]}, {"id": 177, "name": "pino-canario", "type": "decor", "x": 2142, "y": 1355, "width": 0, "height": 0, "rotation": 0, "visible": true, "point": true, "properties": [{"name": "solido", "type": "bool", "value": true}]}, {"id": 178, "name": "pino-canario", "type": "decor", "x": 754, "y": 1242, "width": 0, "height": 0, "rotation": 0, "visible": true, "point": true, "properties": [{"name": "solido", "type": "bool", "value": true}]}, {"id": 179, "name": "pino-canario", "type": "decor", "x": 755, "y": 1108, "width": 0, "height": 0, "rotation": 0, "visible": true, "point": true, "properties": [{"name": "solido", "type": "bool", "value": true}]}, {"id": 180, "name": "pino-canario", "type": "decor", "x": 533, "y": 424, "width": 0, "height": 0, "rotation": 0, "visible": true, "point": true, "properties": [{"name": "solido", "type": "bool", "value": true}]}, {"id": 181, "name": "pino-canario", "type": "decor", "x": 568, "y": 187, "width": 0, "height": 0, "rotation": 0, "visible": true, "point": true, "properties": [{"name": "solido", "type": "bool", "value": true}]}, {"id": 182, "name": "pino-canario", "type": "decor", "x": 2333, "y": 1122, "width": 0, "height": 0, "rotation": 0, "visible": true, "point": true, "properties": [{"name": "solido", "type": "bool", "value": true}]}, {"id": 183, "name": "pino-canario", "type": "decor", "x": 1713, "y": 1232, "width": 0, "height": 0, "rotation": 0, "visible": true, "point": true, "properties": [{"name": "solido", "type": "bool", "value": true}]}, {"id": 184, "name": "pino-canario", "type": "decor", "x": 2166, "y": 646, "width": 0, "height": 0, "rotation": 0, "visible": true, "point": true, "properties": [{"name": "solido", "type": "bool", "value": true}]}, {"id": 185, "name": "pino-canario", "type": "decor", "x": 411, "y": 131, "width": 0, "height": 0, "rotation": 0, "visible": true, "point": true, "properties": [{"name": "solido", "type": "bool", "value": true}]}, {"id": 186, "name": "pino-canario", "type": "decor", "x": 2207, "y": 495, "width": 0, "height": 0, "rotation": 0, "visible": true, "point": true, "properties": [{"name": "solido", "type": "bool", "value": true}]}, {"id": 187, "name": "pino-canario", "type": "decor", "x": 1592, "y": 1405, "width": 0, "height": 0, "rotation": 0, "visible": true, "point": true, "properties": [{"name": "solido", "type": "bool", "value": true}]}, {"id": 188, "name": "pino-canario", "type": "decor", "x": 248, "y": 1048, "width": 0, "height": 0, "rotation": 0, "visible": true, "point": true, "properties": [{"name": "solido", "type": "bool", "value": true}]}, {"id": 189, "name": "pino-canario", "type": "decor", "x": 1672, "y": 1175, "width": 0, "height": 0, "rotation": 0, "visible": true, "point": true, "properties": [{"name": "solido", "type": "bool", "value": true}]}, {"id": 190, "name": "pino-canario", "type": "decor", "x": 782, "y": 265, "width": 0, "height": 0, "rotation": 0, "visible": true, "point": true, "properties": [{"name": "solido", "type": "bool", "value": true}]}, {"id": 191, "name": "pino-canario", "type": "decor", "x": 1771, "y": 493, "width": 0, "height": 0, "rotation": 0, "visible": true, "point": true, "properties": [{"name": "solido", "type": "bool", "value": true}]}, {"id": 192, "name": "pino-canario", "type": "decor", "x": 2402, "y": 1320, "width": 0, "height": 0, "rotation": 0, "visible": true, "point": true, "properties": [{"name": "solido", "type": "bool", "value": true}]}, {"id": 193, "name": "pino-canario", "type": "decor", "x": 1749, "y": 623, "width": 0, "height": 0, "rotation": 0, "visible": true, "point": true, "properties": [{"name": "solido", "type": "bool", "value": true}]}, {"id": 194, "name": "pino-canario", "type": "decor", "x": 510, "y": 1258, "width": 0, "height": 0, "rotation": 0, "visible": true, "point": true, "properties": [{"name": "solido", "type": "bool", "value": true}]}, {"id": 195, "name": "pino-canario", "type": "decor", "x": 1253, "y": 945, "width": 0, "height": 0, "rotation": 0, "visible": true, "point": true, "properties": [{"name": "solido", "type": "bool", "value": true}]}, {"id": 196, "name": "pino-canario", "type": "decor", "x": 491, "y": 283, "width": 0, "height": 0, "rotation": 0, "visible": true, "point": true, "properties": [{"name": "solido", "type": "bool", "value": true}]}, {"id": 197, "name": "pino-canario", "type": "decor", "x": 184, "y": 244, "width": 0, "height": 0, "rotation": 0, "visible": true, "point": true, "properties": [{"name": "solido", "type": "bool", "value": true}]}, {"id": 198, "name": "pino-canario", "type": "decor", "x": 893, "y": 1344, "width": 0, "height": 0, "rotation": 0, "visible": true, "point": true, "properties": [{"name": "solido", "type": "bool", "value": true}]}, {"id": 199, "name": "pino-canario", "type": "decor", "x": 1598, "y": 1136, "width": 0, "height": 0, "rotation": 0, "visible": true, "point": true, "properties": [{"name": "solido", "type": "bool", "value": true}]}, {"id": 200, "name": "pino-canario", "type": "decor", "x": 1632, "y": 523, "width": 0, "height": 0, "rotation": 0, "visible": true, "point": true, "properties": [{"name": "solido", "type": "bool", "value": true}]}, {"id": 201, "name": "pino-canario", "type": "decor", "x": 2048, "y": 400, "width": 0, "height": 0, "rotation": 0, "visible": true, "point": true, "properties": [{"name": "solido", "type": "bool", "value": true}]}, {"id": 202, "name": "pino-canario", "type": "decor", "x": 1158, "y": 1079, "width": 0, "height": 0, "rotation": 0, "visible": true, "point": true, "properties": [{"name": "solido", "type": "bool", "value": true}]}, {"id": 203, "name": "pino-canario", "type": "decor", "x": 1983, "y": 432, "width": 0, "height": 0, "rotation": 0, "visible": true, "point": true, "properties": [{"name": "solido", "type": "bool", "value": true}]}, {"id": 204, "name": "pino-canario", "type": "decor", "x": 1961, "y": 1282, "width": 0, "height": 0, "rotation": 0, "visible": true, "point": true, "properties": [{"name": "solido", "type": "bool", "value": true}]}, {"id": 205, "name": "pino-canario", "type": "decor", "x": 2347, "y": 848, "width": 0, "height": 0, "rotation": 0, "visible": true, "point": true, "properties": [{"name": "solido", "type": "bool", "value": true}]}, {"id": 206, "name": "pino-canario", "type": "decor", "x": 2430, "y": 141, "width": 0, "height": 0, "rotation": 0, "visible": true, "point": true, "properties": [{"name": "solido", "type": "bool", "value": true}]}, {"id": 207, "name": "pino-canario", "type": "decor", "x": 512, "y": 1176, "width": 0, "height": 0, "rotation": 0, "visible": true, "point": true, "properties": [{"name": "solido", "type": "bool", "value": true}]}, {"id": 208, "name": "pino-canario", "type": "decor", "x": 261, "y": 1218, "width": 0, "height": 0, "rotation": 0, "visible": true, "point": true, "properties": [{"name": "solido", "type": "bool", "value": true}]}, {"id": 209, "name": "pino-canario", "type": "decor", "x": 1834, "y": 627, "width": 0, "height": 0, "rotation": 0, "visible": true, "point": true, "properties": [{"name": "solido", "type": "bool", "value": true}]}, {"id": 210, "name": "pino-canario", "type": "decor", "x": 566, "y": 1460, "width": 0, "height": 0, "rotation": 0, "visible": true, "point": true, "properties": [{"name": "solido", "type": "bool", "value": true}]}, {"id": 211, "name": "pino-canario", "type": "decor", "x": 1405, "y": 1288, "width": 0, "height": 0, "rotation": 0, "visible": true, "point": true, "properties": [{"name": "solido", "type": "bool", "value": true}]}, {"id": 212, "name": "pino-canario", "type": "decor", "x": 1970, "y": 1342, "width": 0, "height": 0, "rotation": 0, "visible": true, "point": true, "properties": [{"name": "solido", "type": "bool", "value": true}]}, {"id": 213, "name": "pino-canario", "type": "decor", "x": 2189, "y": 136, "width": 0, "height": 0, "rotation": 0, "visible": true, "point": true, "properties": [{"name": "solido", "type": "bool", "value": true}]}, {"id": 214, "name": "pino-canario", "type": "decor", "x": 1346, "y": 1274, "width": 0, "height": 0, "rotation": 0, "visible": true, "point": true, "properties": [{"name": "solido", "type": "bool", "value": true}]}, {"id": 215, "name": "pino-canario", "type": "decor", "x": 1649, "y": 1385, "width": 0, "height": 0, "rotation": 0, "visible": true, "point": true, "properties": [{"name": "solido", "type": "bool", "value": true}]}, {"id": 216, "name": "pino-canario", "type": "decor", "x": 627, "y": 1314, "width": 0, "height": 0, "rotation": 0, "visible": true, "point": true, "properties": [{"name": "solido", "type": "bool", "value": true}]}, {"id": 217, "name": "pino-canario", "type": "decor", "x": 535, "y": 1318, "width": 0, "height": 0, "rotation": 0, "visible": true, "point": true, "properties": [{"name": "solido", "type": "bool", "value": true}]}, {"id": 218, "name": "pino-canario", "type": "decor", "x": 750, "y": 511, "width": 0, "height": 0, "rotation": 0, "visible": true, "point": true, "properties": [{"name": "solido", "type": "bool", "value": true}]}, {"id": 219, "name": "pino-canario", "type": "decor", "x": 2059, "y": 460, "width": 0, "height": 0, "rotation": 0, "visible": true, "point": true, "properties": [{"name": "solido", "type": "bool", "value": true}]}, {"id": 220, "name": "pino-canario", "type": "decor", "x": 171, "y": 565, "width": 0, "height": 0, "rotation": 0, "visible": true, "point": true, "properties": [{"name": "solido", "type": "bool", "value": true}]}, {"id": 221, "name": "pino-canario", "type": "decor", "x": 1108, "y": 528, "width": 0, "height": 0, "rotation": 0, "visible": true, "point": true, "properties": [{"name": "solido", "type": "bool", "value": true}]}, {"id": 222, "name": "pino-canario", "type": "decor", "x": 1731, "y": 334, "width": 0, "height": 0, "rotation": 0, "visible": true, "point": true, "properties": [{"name": "solido", "type": "bool", "value": true}]}, {"id": 223, "name": "pino-canario", "type": "decor", "x": 150, "y": 1112, "width": 0, "height": 0, "rotation": 0, "visible": true, "point": true, "properties": [{"name": "solido", "type": "bool", "value": true}]}, {"id": 224, "name": "pino-canario", "type": "decor", "x": 225, "y": 203, "width": 0, "height": 0, "rotation": 0, "visible": true, "point": true, "properties": [{"name": "solido", "type": "bool", "value": true}]}, {"id": 225, "name": "pino-canario", "type": "decor", "x": 2132, "y": 353, "width": 0, "height": 0, "rotation": 0, "visible": true, "point": true, "properties": [{"name": "solido", "type": "bool", "value": true}]}, {"id": 226, "name": "pino-canario", "type": "decor", "x": 2120, "y": 1180, "width": 0, "height": 0, "rotation": 0, "visible": true, "point": true, "properties": [{"name": "solido", "type": "bool", "value": true}]}, {"id": 227, "name": "pino-canario", "type": "decor", "x": 2015, "y": 1227, "width": 0, "height": 0, "rotation": 0, "visible": true, "point": true, "properties": [{"name": "solido", "type": "bool", "value": true}]}, {"id": 228, "name": "pino-canario", "type": "decor", "x": 1045, "y": 1347, "width": 0, "height": 0, "rotation": 0, "visible": true, "point": true, "properties": [{"name": "solido", "type": "bool", "value": true}]}, {"id": 229, "name": "pino-canario", "type": "decor", "x": 887, "y": 377, "width": 0, "height": 0, "rotation": 0, "visible": true, "point": true, "properties": [{"name": "solido", "type": "bool", "value": true}]}, {"id": 230, "name": "pino-canario", "type": "decor", "x": 2038, "y": 1324, "width": 0, "height": 0, "rotation": 0, "visible": true, "point": true, "properties": [{"name": "solido", "type": "bool", "value": true}]}, {"id": 231, "name": "pino-canario", "type": "decor", "x": 156, "y": 353, "width": 0, "height": 0, "rotation": 0, "visible": true, "point": true, "properties": [{"name": "solido", "type": "bool", "value": true}]}, {"id": 232, "name": "pino-canario", "type": "decor", "x": 1039, "y": 488, "width": 0, "height": 0, "rotation": 0, "visible": true, "point": true, "properties": [{"name": "solido", "type": "bool", "value": true}]}, {"id": 233, "name": "pino-canario", "type": "decor", "x": 1616, "y": 1236, "width": 0, "height": 0, "rotation": 0, "visible": true, "point": true, "properties": [{"name": "solido", "type": "bool", "value": true}]}, {"id": 234, "name": "pino-canario", "type": "decor", "x": 1895, "y": 658, "width": 0, "height": 0, "rotation": 0, "visible": true, "point": true, "properties": [{"name": "solido", "type": "bool", "value": true}]}, {"id": 235, "name": "pino-canario", "type": "decor", "x": 796, "y": 407, "width": 0, "height": 0, "rotation": 0, "visible": true, "point": true, "properties": [{"name": "solido", "type": "bool", "value": true}]}, {"id": 236, "name": "pino-canario", "type": "decor", "x": 555, "y": 479, "width": 0, "height": 0, "rotation": 0, "visible": true, "point": true, "properties": [{"name": "solido", "type": "bool", "value": true}]}, {"id": 237, "name": "pino-canario", "type": "decor", "x": 1401, "y": 708, "width": 0, "height": 0, "rotation": 0, "visible": true, "point": true, "properties": [{"name": "solido", "type": "bool", "value": true}]}, {"id": 238, "name": "pino-canario", "type": "decor", "x": 923, "y": 1269, "width": 0, "height": 0, "rotation": 0, "visible": true, "point": true, "properties": [{"name": "solido", "type": "bool", "value": true}]}, {"id": 239, "name": "pino-canario", "type": "decor", "x": 1735, "y": 708, "width": 0, "height": 0, "rotation": 0, "visible": true, "point": true, "properties": [{"name": "solido", "type": "bool", "value": true}]}, {"id": 240, "name": "pino-canario", "type": "decor", "x": 301, "y": 339, "width": 0, "height": 0, "rotation": 0, "visible": true, "point": true, "properties": [{"name": "solido", "type": "bool", "value": true}]}, {"id": 241, "name": "pino-canario", "type": "decor", "x": 1775, "y": 562, "width": 0, "height": 0, "rotation": 0, "visible": true, "point": true, "properties": [{"name": "solido", "type": "bool", "value": true}]}, {"id": 242, "name": "pino-canario", "type": "decor", "x": 2309, "y": 331, "width": 0, "height": 0, "rotation": 0, "visible": true, "point": true, "properties": [{"name": "solido", "type": "bool", "value": true}]}, {"id": 243, "name": "pino-canario", "type": "decor", "x": 731, "y": 208, "width": 0, "height": 0, "rotation": 0, "visible": true, "point": true, "properties": [{"name": "solido", "type": "bool", "value": true}]}, {"id": 244, "name": "pino-canario", "type": "decor", "x": 1963, "y": 224, "width": 0, "height": 0, "rotation": 0, "visible": true, "point": true, "properties": [{"name": "solido", "type": "bool", "value": true}]}, {"id": 245, "name": "pino-canario", "type": "decor", "x": 1535, "y": 1419, "width": 0, "height": 0, "rotation": 0, "visible": true, "point": true, "properties": [{"name": "solido", "type": "bool", "value": true}]}, {"id": 246, "name": "pino-canario", "type": "decor", "x": 1089, "y": 1446, "width": 0, "height": 0, "rotation": 0, "visible": true, "point": true, "properties": [{"name": "solido", "type": "bool", "value": true}]}, {"id": 247, "name": "pino-canario", "type": "decor", "x": 1918, "y": 413, "width": 0, "height": 0, "rotation": 0, "visible": true, "point": true, "properties": [{"name": "solido", "type": "bool", "value": true}]}, {"id": 248, "name": "pino-canario", "type": "decor", "x": 699, "y": 1463, "width": 0, "height": 0, "rotation": 0, "visible": true, "point": true, "properties": [{"name": "solido", "type": "bool", "value": true}]}, {"id": 249, "name": "pino-canario", "type": "decor", "x": 2211, "y": 322, "width": 0, "height": 0, "rotation": 0, "visible": true, "point": true, "properties": [{"name": "solido", "type": "bool", "value": true}]}, {"id": 250, "name": "pino-canario", "type": "decor", "x": 615, "y": 519, "width": 0, "height": 0, "rotation": 0, "visible": true, "point": true, "properties": [{"name": "solido", "type": "bool", "value": true}]}, {"id": 251, "name": "pino-canario", "type": "decor", "x": 535, "y": 1109, "width": 0, "height": 0, "rotation": 0, "visible": true, "point": true, "properties": [{"name": "solido", "type": "bool", "value": true}]}, {"id": 252, "name": "pino-canario", "type": "decor", "x": 1115, "y": 1369, "width": 0, "height": 0, "rotation": 0, "visible": true, "point": true, "properties": [{"name": "solido", "type": "bool", "value": true}]}, {"id": 253, "name": "pino-canario", "type": "decor", "x": 625, "y": 320, "width": 0, "height": 0, "rotation": 0, "visible": true, "point": true, "properties": [{"name": "solido", "type": "bool", "value": true}]}, {"id": 254, "name": "pino-canario", "type": "decor", "x": 226, "y": 317, "width": 0, "height": 0, "rotation": 0, "visible": true, "point": true, "properties": [{"name": "solido", "type": "bool", "value": true}]}, {"id": 255, "name": "pino-canario", "type": "decor", "x": 1683, "y": 857, "width": 0, "height": 0, "rotation": 0, "visible": true, "point": true, "properties": [{"name": "solido", "type": "bool", "value": true}]}, {"id": 256, "name": "pino-canario", "type": "decor", "x": 1761, "y": 136, "width": 0, "height": 0, "rotation": 0, "visible": true, "point": true, "properties": [{"name": "solido", "type": "bool", "value": true}]}, {"id": 257, "name": "pino-canario", "type": "decor", "x": 283, "y": 192, "width": 0, "height": 0, "rotation": 0, "visible": true, "point": true, "properties": [{"name": "solido", "type": "bool", "value": true}]}, {"id": 258, "name": "pino-canario", "type": "decor", "x": 421, "y": 418, "width": 0, "height": 0, "rotation": 0, "visible": true, "point": true, "properties": [{"name": "solido", "type": "bool", "value": true}]}, {"id": 259, "name": "pino-canario", "type": "decor", "x": 830, "y": 474, "width": 0, "height": 0, "rotation": 0, "visible": true, "point": true, "properties": [{"name": "solido", "type": "bool", "value": true}]}, {"id": 260, "name": "pino-canario", "type": "decor", "x": 2418, "y": 1468, "width": 0, "height": 0, "rotation": 0, "visible": true, "point": true, "properties": [{"name": "solido", "type": "bool", "value": true}]}, {"id": 261, "name": "pino-canario", "type": "decor", "x": 178, "y": 936, "width": 0, "height": 0, "rotation": 0, "visible": true, "point": true, "properties": [{"name": "solido", "type": "bool", "value": true}]}, {"id": 262, "name": "pino-canario", "type": "decor", "x": 760, "y": 1404, "width": 0, "height": 0, "rotation": 0, "visible": true, "point": true, "properties": [{"name": "solido", "type": "bool", "value": true}]}, {"id": 263, "name": "pino-canario", "type": "decor", "x": 984, "y": 1227, "width": 0, "height": 0, "rotation": 0, "visible": true, "point": true, "properties": [{"name": "solido", "type": "bool", "value": true}]}, {"id": 264, "name": "pino-canario", "type": "decor", "x": 1911, "y": 1070, "width": 0, "height": 0, "rotation": 0, "visible": true, "point": true, "properties": [{"name": "solido", "type": "bool", "value": true}]}, {"id": 265, "name": "pino-canario", "type": "decor", "x": 2410, "y": 827, "width": 0, "height": 0, "rotation": 0, "visible": true, "point": true, "properties": [{"name": "solido", "type": "bool", "value": true}]}, {"id": 266, "name": "pino-canario", "type": "decor", "x": 208, "y": 1349, "width": 0, "height": 0, "rotation": 0, "visible": true, "point": true, "properties": [{"name": "solido", "type": "bool", "value": true}]}, {"id": 267, "name": "pino-canario", "type": "decor", "x": 1451, "y": 1325, "width": 0, "height": 0, "rotation": 0, "visible": true, "point": true, "properties": [{"name": "solido", "type": "bool", "value": true}]}, {"id": 268, "name": "pino-canario", "type": "decor", "x": 2197, "y": 1174, "width": 0, "height": 0, "rotation": 0, "visible": true, "point": true, "properties": [{"name": "solido", "type": "bool", "value": true}]}, {"id": 269, "name": "pino-canario", "type": "decor", "x": 815, "y": 1438, "width": 0, "height": 0, "rotation": 0, "visible": true, "point": true, "properties": [{"name": "solido", "type": "bool", "value": true}]}, {"id": 270, "name": "pino-canario", "type": "decor", "x": 349, "y": 1097, "width": 0, "height": 0, "rotation": 0, "visible": true, "point": true, "properties": [{"name": "solido", "type": "bool", "value": true}]}, {"id": 271, "name": "pino-canario", "type": "decor", "x": 1939, "y": 1185, "width": 0, "height": 0, "rotation": 0, "visible": true, "point": true, "properties": [{"name": "solido", "type": "bool", "value": true}]}, {"id": 272, "name": "pino-canario", "type": "decor", "x": 1576, "y": 1192, "width": 0, "height": 0, "rotation": 0, "visible": true, "point": true, "properties": [{"name": "solido", "type": "bool", "value": true}]}, {"id": 273, "name": "pino-canario", "type": "decor", "x": 1773, "y": 1294, "width": 0, "height": 0, "rotation": 0, "visible": true, "point": true, "properties": [{"name": "solido", "type": "bool", "value": true}]}, {"id": 274, "name": "pino-canario", "type": "decor", "x": 664, "y": 1413, "width": 0, "height": 0, "rotation": 0, "visible": true, "point": true, "properties": [{"name": "solido", "type": "bool", "value": true}]}, {"id": 275, "name": "pino-canario", "type": "decor", "x": 2335, "y": 1190, "width": 0, "height": 0, "rotation": 0, "visible": true, "point": true, "properties": [{"name": "solido", "type": "bool", "value": true}]}, {"id": 276, "name": "pino-canario", "type": "decor", "x": 791, "y": 803, "width": 0, "height": 0, "rotation": 0, "visible": true, "point": true, "properties": [{"name": "solido", "type": "bool", "value": true}]}, {"id": 277, "name": "pino-canario", "type": "decor", "x": 2346, "y": 215, "width": 0, "height": 0, "rotation": 0, "visible": true, "point": true, "properties": [{"name": "solido", "type": "bool", "value": true}]}, {"id": 278, "name": "pino-canario", "type": "decor", "x": 2282, "y": 725, "width": 0, "height": 0, "rotation": 0, "visible": true, "point": true, "properties": [{"name": "solido", "type": "bool", "value": true}]}, {"id": 279, "name": "pino-canario", "type": "decor", "x": 284, "y": 1318, "width": 0, "height": 0, "rotation": 0, "visible": true, "point": true, "properties": [{"name": "solido", "type": "bool", "value": true}]}, {"id": 280, "name": "pino-canario", "type": "decor", "x": 884, "y": 1199, "width": 0, "height": 0, "rotation": 0, "visible": true, "point": true, "properties": [{"name": "solido", "type": "bool", "value": true}]}, {"id": 281, "name": "pino-canario", "type": "decor", "x": 1532, "y": 794, "width": 0, "height": 0, "rotation": 0, "visible": true, "point": true, "properties": [{"name": "solido", "type": "bool", "value": true}]}, {"id": 282, "name": "pino-canario", "type": "decor", "x": 662, "y": 599, "width": 0, "height": 0, "rotation": 0, "visible": true, "point": true, "properties": [{"name": "solido", "type": "bool", "value": true}]}, {"id": 283, "name": "pino-canario", "type": "decor", "x": 387, "y": 1432, "width": 0, "height": 0, "rotation": 0, "visible": true, "point": true, "properties": [{"name": "solido", "type": "bool", "value": true}]}, {"id": 284, "name": "pino-canario", "type": "decor", "x": 2109, "y": 625, "width": 0, "height": 0, "rotation": 0, "visible": true, "point": true, "properties": [{"name": "solido", "type": "bool", "value": true}]}, {"id": 285, "name": "pino-canario", "type": "decor", "x": 315, "y": 868, "width": 0, "height": 0, "rotation": 0, "visible": true, "point": true, "properties": [{"name": "solido", "type": "bool", "value": true}]}, {"id": 286, "name": "pino-canario", "type": "decor", "x": 2380, "y": 314, "width": 0, "height": 0, "rotation": 0, "visible": true, "point": true, "properties": [{"name": "solido", "type": "bool", "value": true}]}, {"id": 287, "name": "pino-canario", "type": "decor", "x": 2400, "y": 373, "width": 0, "height": 0, "rotation": 0, "visible": true, "point": true, "properties": [{"name": "solido", "type": "bool", "value": true}]}, {"id": 288, "name": "pino-canario", "type": "decor", "x": 2263, "y": 1069, "width": 0, "height": 0, "rotation": 0, "visible": true, "point": true, "properties": [{"name": "solido", "type": "bool", "value": true}]}, {"id": 289, "name": "pino-canario", "type": "decor", "x": 936, "y": 1154, "width": 0, "height": 0, "rotation": 0, "visible": true, "point": true, "properties": [{"name": "solido", "type": "bool", "value": true}]}, {"id": 290, "name": "pino-canario", "type": "decor", "x": 2198, "y": 202, "width": 0, "height": 0, "rotation": 0, "visible": true, "point": true, "properties": [{"name": "solido", "type": "bool", "value": true}]}, {"id": 291, "name": "pino-canario", "type": "decor", "x": 2376, "y": 463, "width": 0, "height": 0, "rotation": 0, "visible": true, "point": true, "properties": [{"name": "solido", "type": "bool", "value": true}]}, {"id": 292, "name": "pino-canario", "type": "decor", "x": 380, "y": 190, "width": 0, "height": 0, "rotation": 0, "visible": true, "point": true, "properties": [{"name": "solido", "type": "bool", "value": true}]}, {"id": 293, "name": "pino-canario", "type": "decor", "x": 340, "y": 270, "width": 0, "height": 0, "rotation": 0, "visible": true, "point": true, "properties": [{"name": "solido", "type": "bool", "value": true}]}, {"id": 294, "name": "pino-canario", "type": "decor", "x": 278, "y": 432, "width": 0, "height": 0, "rotation": 0, "visible": true, "point": true, "properties": [{"name": "solido", "type": "bool", "value": true}]}, {"id": 295, "name": "pino-canario", "type": "decor", "x": 1085, "y": 606, "width": 0, "height": 0, "rotation": 0, "visible": true, "point": true, "properties": [{"name": "solido", "type": "bool", "value": true}]}, {"id": 296, "name": "pino-canario", "type": "decor", "x": 1296, "y": 1084, "width": 0, "height": 0, "rotation": 0, "visible": true, "point": true, "properties": [{"name": "solido", "type": "bool", "value": true}]}, {"id": 297, "name": "pino-canario", "type": "decor", "x": 2286, "y": 1272, "width": 0, "height": 0, "rotation": 0, "visible": true, "point": true, "properties": [{"name": "solido", "type": "bool", "value": true}]}, {"id": 298, "name": "pino-canario", "type": "decor", "x": 1793, "y": 686, "width": 0, "height": 0, "rotation": 0, "visible": true, "point": true, "properties": [{"name": "solido", "type": "bool", "value": true}]}, {"id": 299, "name": "pino-canario", "type": "decor", "x": 1857, "y": 1222, "width": 0, "height": 0, "rotation": 0, "visible": true, "point": true, "properties": [{"name": "solido", "type": "bool", "value": true}]}, {"id": 300, "name": "pino-canario", "type": "decor", "x": 1180, "y": 1520, "width": 0, "height": 0, "rotation": 0, "visible": true, "point": true, "properties": [{"name": "solido", "type": "bool", "value": true}]}, {"id": 301, "name": "pino-canario", "type": "decor", "x": 736, "y": 445, "width": 0, "height": 0, "rotation": 0, "visible": true, "point": true, "properties": [{"name": "solido", "type": "bool", "value": true}]}, {"id": 302, "name": "pino-canario", "type": "decor", "x": 2388, "y": 1385, "width": 0, "height": 0, "rotation": 0, "visible": true, "point": true, "properties": [{"name": "solido", "type": "bool", "value": true}]}, {"id": 303, "name": "pino-canario", "type": "decor", "x": 2065, "y": 304, "width": 0, "height": 0, "rotation": 0, "visible": true, "point": true, "properties": [{"name": "solido", "type": "bool", "value": true}]}, {"id": 304, "name": "pino-canario", "type": "decor", "x": 1806, "y": 231, "width": 0, "height": 0, "rotation": 0, "visible": true, "point": true, "properties": [{"name": "solido", "type": "bool", "value": true}]}, {"id": 305, "name": "pino-canario", "type": "decor", "x": 172, "y": 741, "width": 0, "height": 0, "rotation": 0, "visible": true, "point": true, "properties": [{"name": "solido", "type": "bool", "value": true}]}, {"id": 306, "name": "pino-canario", "type": "decor", "x": 954, "y": 1394, "width": 0, "height": 0, "rotation": 0, "visible": true, "point": true, "properties": [{"name": "solido", "type": "bool", "value": true}]}, {"id": 307, "name": "pino-canario", "type": "decor", "x": 1624, "y": 1471, "width": 0, "height": 0, "rotation": 0, "visible": true, "point": true, "properties": [{"name": "solido", "type": "bool", "value": true}]}, {"id": 308, "name": "pino-canario", "type": "decor", "x": 688, "y": 1350, "width": 0, "height": 0, "rotation": 0, "visible": true, "point": true, "properties": [{"name": "solido", "type": "bool", "value": true}]}, {"id": 309, "name": "pino-canario", "type": "decor", "x": 920, "y": 1090, "width": 0, "height": 0, "rotation": 0, "visible": true, "point": true, "properties": [{"name": "solido", "type": "bool", "value": true}]}, {"id": 310, "name": "pino-canario", "type": "decor", "x": 1191, "y": 968, "width": 0, "height": 0, "rotation": 0, "visible": true, "point": true, "properties": [{"name": "solido", "type": "bool", "value": true}]}, {"id": 311, "name": "pino-canario", "type": "decor", "x": 1023, "y": 1486, "width": 0, "height": 0, "rotation": 0, "visible": true, "point": true, "properties": [{"name": "solido", "type": "bool", "value": true}]}, {"id": 312, "name": "pino-canario", "type": "decor", "x": 1872, "y": 582, "width": 0, "height": 0, "rotation": 0, "visible": true, "point": true, "properties": [{"name": "solido", "type": "bool", "value": true}]}, {"id": 313, "name": "pino-canario", "type": "decor", "x": 290, "y": 1122, "width": 0, "height": 0, "rotation": 0, "visible": true, "point": true, "properties": [{"name": "solido", "type": "bool", "value": true}]}, {"id": 314, "name": "pino-canario", "type": "decor", "x": 230, "y": 984, "width": 0, "height": 0, "rotation": 0, "visible": true, "point": true, "properties": [{"name": "solido", "type": "bool", "value": true}]}, {"id": 315, "name": "pino-canario", "type": "decor", "x": 459, "y": 1329, "width": 0, "height": 0, "rotation": 0, "visible": true, "point": true, "properties": [{"name": "solido", "type": "bool", "value": true}]}, {"id": 316, "name": "pino-canario", "type": "decor", "x": 2358, "y": 937, "width": 0, "height": 0, "rotation": 0, "visible": true, "point": true, "properties": [{"name": "solido", "type": "bool", "value": true}]}, {"id": 317, "name": "pino-canario", "type": "decor", "x": 165, "y": 467, "width": 0, "height": 0, "rotation": 0, "visible": true, "point": true, "properties": [{"name": "solido", "type": "bool", "value": true}]}, {"id": 318, "name": "pino-canario", "type": "decor", "x": 1686, "y": 418, "width": 0, "height": 0, "rotation": 0, "visible": true, "point": true, "properties": [{"name": "solido", "type": "bool", "value": true}]}, {"id": 319, "name": "pino-canario", "type": "decor", "x": 2147, "y": 1059, "width": 0, "height": 0, "rotation": 0, "visible": true, "point": true, "properties": [{"name": "solido", "type": "bool", "value": true}]}, {"id": 320, "name": "pino-canario", "type": "decor", "x": 1933, "y": 343, "width": 0, "height": 0, "rotation": 0, "visible": true, "point": true, "properties": [{"name": "solido", "type": "bool", "value": true}]}, {"id": 321, "name": "pino-canario", "type": "decor", "x": 2001, "y": 1156, "width": 0, "height": 0, "rotation": 0, "visible": true, "point": true, "properties": [{"name": "solido", "type": "bool", "value": true}]}, {"id": 322, "name": "pino-canario", "type": "decor", "x": 1830, "y": 143, "width": 0, "height": 0, "rotation": 0, "visible": true, "point": true, "properties": [{"name": "solido", "type": "bool", "value": true}]}, {"id": 323, "name": "pino-canario", "type": "decor", "x": 1335, "y": 728, "width": 0, "height": 0, "rotation": 0, "visible": true, "point": true, "properties": [{"name": "solido", "type": "bool", "value": true}]}, {"id": 324, "name": "pino-canario", "type": "decor", "x": 1416, "y": 764, "width": 0, "height": 0, "rotation": 0, "visible": true, "point": true, "properties": [{"name": "solido", "type": "bool", "value": true}]}, {"id": 325, "name": "pino-canario", "type": "decor", "x": 694, "y": 816, "width": 0, "height": 0, "rotation": 0, "visible": true, "point": true, "properties": [{"name": "solido", "type": "bool", "value": true}]}, {"id": 326, "name": "pino-canario", "type": "decor", "x": 2179, "y": 1238, "width": 0, "height": 0, "rotation": 0, "visible": true, "point": true, "properties": [{"name": "solido", "type": "bool", "value": true}]}, {"id": 327, "name": "pino-canario", "type": "decor", "x": 1155, "y": 900, "width": 0, "height": 0, "rotation": 0, "visible": true, "point": true, "properties": [{"name": "solido", "type": "bool", "value": true}]}, {"id": 328, "name": "pino-canario", "type": "decor", "x": 459, "y": 1134, "width": 0, "height": 0, "rotation": 0, "visible": true, "point": true, "properties": [{"name": "solido", "type": "bool", "value": true}]}, {"id": 329, "name": "pino-canario", "type": "decor", "x": 2376, "y": 1233, "width": 0, "height": 0, "rotation": 0, "visible": true, "point": true, "properties": [{"name": "solido", "type": "bool", "value": true}]}, {"id": 330, "name": "pino-canario", "type": "decor", "x": 753, "y": 1034, "width": 0, "height": 0, "rotation": 0, "visible": true, "point": true, "properties": [{"name": "solido", "type": "bool", "value": true}]}, {"id": 331, "name": "pino-canario", "type": "decor", "x": 1994, "y": 567, "width": 0, "height": 0, "rotation": 0, "visible": true, "point": true, "properties": [{"name": "solido", "type": "bool", "value": true}]}, {"id": 332, "name": "pino-canario", "type": "decor", "x": 2396, "y": 1137, "width": 0, "height": 0, "rotation": 0, "visible": true, "point": true, "properties": [{"name": "solido", "type": "bool", "value": true}]}, {"id": 333, "name": "pino-canario", "type": "decor", "x": 164, "y": 1309, "width": 0, "height": 0, "rotation": 0, "visible": true, "point": true, "properties": [{"name": "solido", "type": "bool", "value": true}]}, {"id": 334, "name": "pino-canario", "type": "decor", "x": 621, "y": 254, "width": 0, "height": 0, "rotation": 0, "visible": true, "point": true, "properties": [{"name": "solido", "type": "bool", "value": true}]}, {"id": 335, "name": "pino-canario", "type": "decor", "x": 2223, "y": 693, "width": 0, "height": 0, "rotation": 0, "visible": true, "point": true, "properties": [{"name": "solido", "type": "bool", "value": true}]}, {"id": 336, "name": "pino-canario", "type": "decor", "x": 642, "y": 1215, "width": 0, "height": 0, "rotation": 0, "visible": true, "point": true, "properties": [{"name": "solido", "type": "bool", "value": true}]}, {"id": 337, "name": "pino-canario", "type": "decor", "x": 2326, "y": 1357, "width": 0, "height": 0, "rotation": 0, "visible": true, "point": true, "properties": [{"name": "solido", "type": "bool", "value": true}]}, {"id": 338, "name": "pino-canario", "type": "decor", "x": 1433, "y": 527, "width": 0, "height": 0, "rotation": 0, "visible": true, "point": true, "properties": [{"name": "solido", "type": "bool", "value": true}]}, {"id": 339, "name": "pino-canario", "type": "decor", "x": 642, "y": 788, "width": 0, "height": 0, "rotation": 0, "visible": true, "point": true, "properties": [{"name": "solido", "type": "bool", "value": true}]}]}]}