{"compressionlevel": -1, "type": "map", "version": "1.10", "tiledversion": "1.10.2", "orientation": "orthogonal", "renderorder": "right-down", "infinite": false, "width": 70, "height": 45, "tilewidth": 32, "tileheight": 32, "nextlayerid": 7, "nextobjectid": 112, "tilesets": [{"firstgid": 1, "name": "lpc-tierra-roja", "image": "../tilesets/lpc-tierra-roja-32.png", "imagewidth": 128, "imageheight": 160, "tilewidth": 32, "tileheight": 32, "tilecount": 19, "columns": 4, "margin": 0, "spacing": 0, "tiles": [{"id": 0, "properties": [{"name": "collides", "type": "bool", "value": false}]}, {"id": 1, "properties": [{"name": "collides", "type": "bool", "value": false}]}, {"id": 2, "properties": [{"name": "collides", "type": "bool", "value": false}]}, {"id": 3, "properties": [{"name": "collides", "type": "bool", "value": false}]}, {"id": 4, "properties": [{"name": "collides", "type": "bool", "value": false}]}, {"id": 5, "properties": [{"name": "collides", "type": "bool", "value": false}]}, {"id": 6, "properties": [{"name": "collides", "type": "bool", "value": false}]}, {"id": 7, "properties": [{"name": "collides", "type": "bool", "value": false}]}, {"id": 8, "properties": [{"name": "collides", "type": "bool", "value": false}]}, {"id": 9, "properties": [{"name": "collides", "type": "bool", "value": false}]}, {"id": 10, "properties": [{"name": "collides", "type": "bool", "value": false}]}, {"id": 11, "properties": [{"name": "collides", "type": "bool", "value": false}]}, {"id": 12, "properties": [{"name": "collides", "type": "bool", "value": false}]}, {"id": 13, "properties": [{"name": "collides", "type": "bool", "value": false}]}, {"id": 14, "properties": [{"name": "collides", "type": "bool", "value": false}]}, {"id": 15, "properties": [{"name": "collides", "type": "bool", "value": false}]}, {"id": 16, "properties": [{"name": "collides", "type": "bool", "value": false}]}, {"id": 17, "properties": [{"name": "collides", "type": "bool", "value": false}]}, {"id": 18, "properties": [{"name": "collides", "type": "bool", "value": false}]}], "wangsets": [{"name": "lpc-tierra-roja", "type": "corner", "tile": -1, "colors": [{"name": "vac\u00edo", "color": "#3a9d23", "tile": -1, "probability": 1}, {"name": "base", "color": "#8b5a2b", "tile": -1, "probability": 1}], "wangtiles": [{"tileid": 0, "wangid": [0, 1, 0, 1, 0, 1, 0, 1]}, {"tileid": 1, "wangid": [0, 1, 0, 2, 0, 1, 0, 1]}, {"tileid": 2, "wangid": [0, 1, 0, 1, 0, 2, 0, 1]}, {"tileid": 3, "wangid": [0, 1, 0, 2, 0, 2, 0, 1]}, {"tileid": 4, "wangid": [0, 2, 0, 1, 0, 1, 0, 1]}, {"tileid": 5, "wangid": [0, 2, 0, 2, 0, 1, 0, 1]}, {"tileid": 6, "wangid": [0, 2, 0, 1, 0, 2, 0, 1]}, {"tileid": 7, "wangid": [0, 2, 0, 2, 0, 2, 0, 1]}, {"tileid": 8, "wangid": [0, 1, 0, 1, 0, 1, 0, 2]}, {"tileid": 9, "wangid": [0, 1, 0, 2, 0, 1, 0, 2]}, {"tileid": 10, "wangid": [0, 1, 0, 1, 0, 2, 0, 2]}, {"tileid": 11, "wangid": [0, 1, 0, 2, 0, 2, 0, 2]}, {"tileid": 12, "wangid": [0, 2, 0, 1, 0, 1, 0, 2]}, {"tileid": 13, "wangid": [0, 2, 0, 2, 0, 1, 0, 2]}, {"tileid": 14, "wangid": [0, 2, 0, 1, 0, 2, 0, 2]}, {"tileid": 15, "wangid": [0, 2, 0, 2, 0, 2, 0, 2]}, {"tileid": 16, "wangid": [0, 2, 0, 2, 0, 2, 0, 2]}, {"tileid": 17, "wangid": [0, 2, 0, 2, 0, 2, 0, 2]}, {"tileid": 18, "wangid": [0, 2, 0, 2, 0, 2, 0, 2]}]}]}, {"firstgid": 20, "name": "lpc-picon", "image": "../tilesets/lpc-picon-32.png", "imagewidth": 128, "imageheight": 160, "tilewidth": 32, "tileheight": 32, "tilecount": 19, "columns": 4, "margin": 0, "spacing": 0, "tiles": [{"id": 0, "properties": [{"name": "collides", "type": "bool", "value": false}]}, {"id": 1, "properties": [{"name": "collides", "type": "bool", "value": false}]}, {"id": 2, "properties": [{"name": "collides", "type": "bool", "value": false}]}, {"id": 3, "properties": [{"name": "collides", "type": "bool", "value": false}]}, {"id": 4, "properties": [{"name": "collides", "type": "bool", "value": false}]}, {"id": 5, "properties": [{"name": "collides", "type": "bool", "value": false}]}, {"id": 6, "properties": [{"name": "collides", "type": "bool", "value": false}]}, {"id": 7, "properties": [{"name": "collides", "type": "bool", "value": false}]}, {"id": 8, "properties": [{"name": "collides", "type": "bool", "value": false}]}, {"id": 9, "properties": [{"name": "collides", "type": "bool", "value": false}]}, {"id": 10, "properties": [{"name": "collides", "type": "bool", "value": false}]}, {"id": 11, "properties": [{"name": "collides", "type": "bool", "value": false}]}, {"id": 12, "properties": [{"name": "collides", "type": "bool", "value": false}]}, {"id": 13, "properties": [{"name": "collides", "type": "bool", "value": false}]}, {"id": 14, "properties": [{"name": "collides", "type": "bool", "value": false}]}, {"id": 15, "properties": [{"name": "collides", "type": "bool", "value": false}]}, {"id": 16, "properties": [{"name": "collides", "type": "bool", "value": false}]}, {"id": 17, "properties": [{"name": "collides", "type": "bool", "value": false}]}, {"id": 18, "properties": [{"name": "collides", "type": "bool", "value": false}]}], "wangsets": [{"name": "lpc-picon", "type": "corner", "tile": -1, "colors": [{"name": "vac\u00edo", "color": "#3a9d23", "tile": -1, "probability": 1}, {"name": "malpa\u00eds", "color": "#8b5a2b", "tile": -1, "probability": 1}], "wangtiles": [{"tileid": 0, "wangid": [0, 1, 0, 1, 0, 1, 0, 1]}, {"tileid": 1, "wangid": [0, 1, 0, 2, 0, 1, 0, 1]}, {"tileid": 2, "wangid": [0, 1, 0, 1, 0, 2, 0, 1]}, {"tileid": 3, "wangid": [0, 1, 0, 2, 0, 2, 0, 1]}, {"tileid": 4, "wangid": [0, 2, 0, 1, 0, 1, 0, 1]}, {"tileid": 5, "wangid": [0, 2, 0, 2, 0, 1, 0, 1]}, {"tileid": 6, "wangid": [0, 2, 0, 1, 0, 2, 0, 1]}, {"tileid": 7, "wangid": [0, 2, 0, 2, 0, 2, 0, 1]}, {"tileid": 8, "wangid": [0, 1, 0, 1, 0, 1, 0, 2]}, {"tileid": 9, "wangid": [0, 1, 0, 2, 0, 1, 0, 2]}, {"tileid": 10, "wangid": [0, 1, 0, 1, 0, 2, 0, 2]}, {"tileid": 11, "wangid": [0, 1, 0, 2, 0, 2, 0, 2]}, {"tileid": 12, "wangid": [0, 2, 0, 1, 0, 1, 0, 2]}, {"tileid": 13, "wangid": [0, 2, 0, 2, 0, 1, 0, 2]}, {"tileid": 14, "wangid": [0, 2, 0, 1, 0, 2, 0, 2]}, {"tileid": 15, "wangid": [0, 2, 0, 2, 0, 2, 0, 2]}, {"tileid": 16, "wangid": [0, 2, 0, 2, 0, 2, 0, 2]}, {"tileid": 17, "wangid": [0, 2, 0, 2, 0, 2, 0, 2]}, {"tileid": 18, "wangid": [0, 2, 0, 2, 0, 2, 0, 2]}]}]}, {"firstgid": 39, "name": "lpc-camino", "image": "../tilesets/lpc-camino-32.png", "imagewidth": 128, "imageheight": 160, "tilewidth": 32, "tileheight": 32, "tilecount": 19, "columns": 4, "margin": 0, "spacing": 0, "tiles": [{"id": 0, "properties": [{"name": "collides", "type": "bool", "value": false}]}, {"id": 1, "properties": [{"name": "collides", "type": "bool", "value": false}]}, {"id": 2, "properties": [{"name": "collides", "type": "bool", "value": false}]}, {"id": 3, "properties": [{"name": "collides", "type": "bool", "value": false}]}, {"id": 4, "properties": [{"name": "collides", "type": "bool", "value": false}]}, {"id": 5, "properties": [{"name": "collides", "type": "bool", "value": false}]}, {"id": 6, "properties": [{"name": "collides", "type": "bool", "value": false}]}, {"id": 7, "properties": [{"name": "collides", "type": "bool", "value": false}]}, {"id": 8, "properties": [{"name": "collides", "type": "bool", "value": false}]}, {"id": 9, "properties": [{"name": "collides", "type": "bool", "value": false}]}, {"id": 10, "properties": [{"name": "collides", "type": "bool", "value": false}]}, {"id": 11, "properties": [{"name": "collides", "type": "bool", "value": false}]}, {"id": 12, "properties": [{"name": "collides", "type": "bool", "value": false}]}, {"id": 13, "properties": [{"name": "collides", "type": "bool", "value": false}]}, {"id": 14, "properties": [{"name": "collides", "type": "bool", "value": false}]}, {"id": 15, "properties": [{"name": "collides", "type": "bool", "value": false}]}, {"id": 16, "properties": [{"name": "collides", "type": "bool", "value": false}]}, {"id": 17, "properties": [{"name": "collides", "type": "bool", "value": false}]}, {"id": 18, "properties": [{"name": "collides", "type": "bool", "value": false}]}], "wangsets": [{"name": "lpc-camino", "type": "corner", "tile": -1, "colors": [{"name": "vac\u00edo", "color": "#3a9d23", "tile": -1, "probability": 1}, {"name": "camino", "color": "#8b5a2b", "tile": -1, "probability": 1}], "wangtiles": [{"tileid": 0, "wangid": [0, 1, 0, 1, 0, 1, 0, 1]}, {"tileid": 1, "wangid": [0, 1, 0, 2, 0, 1, 0, 1]}, {"tileid": 2, "wangid": [0, 1, 0, 1, 0, 2, 0, 1]}, {"tileid": 3, "wangid": [0, 1, 0, 2, 0, 2, 0, 1]}, {"tileid": 4, "wangid": [0, 2, 0, 1, 0, 1, 0, 1]}, {"tileid": 5, "wangid": [0, 2, 0, 2, 0, 1, 0, 1]}, {"tileid": 6, "wangid": [0, 2, 0, 1, 0, 2, 0, 1]}, {"tileid": 7, "wangid": [0, 2, 0, 2, 0, 2, 0, 1]}, {"tileid": 8, "wangid": [0, 1, 0, 1, 0, 1, 0, 2]}, {"tileid": 9, "wangid": [0, 1, 0, 2, 0, 1, 0, 2]}, {"tileid": 10, "wangid": [0, 1, 0, 1, 0, 2, 0, 2]}, {"tileid": 11, "wangid": [0, 1, 0, 2, 0, 2, 0, 2]}, {"tileid": 12, "wangid": [0, 2, 0, 1, 0, 1, 0, 2]}, {"tileid": 13, "wangid": [0, 2, 0, 2, 0, 1, 0, 2]}, {"tileid": 14, "wangid": [0, 2, 0, 1, 0, 2, 0, 2]}, {"tileid": 15, "wangid": [0, 2, 0, 2, 0, 2, 0, 2]}, {"tileid": 16, "wangid": [0, 2, 0, 2, 0, 2, 0, 2]}, {"tileid": 17, "wangid": [0, 2, 0, 2, 0, 2, 0, 2]}, {"tileid": 18, "wangid": [0, 2, 0, 2, 0, 2, 0, 2]}]}]}, {"firstgid": 58, "name": "lpc-lava", "image": "../tilesets/lpc-lava-32.png", "imagewidth": 128, "imageheight": 160, "tilewidth": 32, "tileheight": 32, "tilecount": 19, "columns": 4, "margin": 0, "spacing": 0, "tiles": [{"id": 0, "properties": [{"name": "collides", "type": "bool", "value": false}]}, {"id": 1, "properties": [{"name": "collides", "type": "bool", "value": false}]}, {"id": 2, "properties": [{"name": "collides", "type": "bool", "value": false}]}, {"id": 3, "properties": [{"name": "collides", "type": "bool", "value": true}]}, {"id": 4, "properties": [{"name": "collides", "type": "bool", "value": false}]}, {"id": 5, "properties": [{"name": "collides", "type": "bool", "value": true}]}, {"id": 6, "properties": [{"name": "collides", "type": "bool", "value": true}]}, {"id": 7, "properties": [{"name": "collides", "type": "bool", "value": true}]}, {"id": 8, "properties": [{"name": "collides", "type": "bool", "value": false}]}, {"id": 9, "properties": [{"name": "collides", "type": "bool", "value": true}]}, {"id": 10, "properties": [{"name": "collides", "type": "bool", "value": true}]}, {"id": 11, "properties": [{"name": "collides", "type": "bool", "value": true}]}, {"id": 12, "properties": [{"name": "collides", "type": "bool", "value": true}]}, {"id": 13, "properties": [{"name": "collides", "type": "bool", "value": true}]}, {"id": 14, "properties": [{"name": "collides", "type": "bool", "value": true}]}, {"id": 15, "properties": [{"name": "collides", "type": "bool", "value": true}]}, {"id": 16, "properties": [{"name": "collides", "type": "bool", "value": true}]}, {"id": 17, "properties": [{"name": "collides", "type": "bool", "value": true}]}, {"id": 18, "properties": [{"name": "collides", "type": "bool", "value": true}]}], "wangsets": [{"name": "lpc-lava", "type": "corner", "tile": -1, "colors": [{"name": "vac\u00edo", "color": "#3a9d23", "tile": -1, "probability": 1}, {"name": "lava", "color": "#8b5a2b", "tile": -1, "probability": 1}], "wangtiles": [{"tileid": 0, "wangid": [0, 1, 0, 1, 0, 1, 0, 1]}, {"tileid": 1, "wangid": [0, 1, 0, 2, 0, 1, 0, 1]}, {"tileid": 2, "wangid": [0, 1, 0, 1, 0, 2, 0, 1]}, {"tileid": 3, "wangid": [0, 1, 0, 2, 0, 2, 0, 1]}, {"tileid": 4, "wangid": [0, 2, 0, 1, 0, 1, 0, 1]}, {"tileid": 5, "wangid": [0, 2, 0, 2, 0, 1, 0, 1]}, {"tileid": 6, "wangid": [0, 2, 0, 1, 0, 2, 0, 1]}, {"tileid": 7, "wangid": [0, 2, 0, 2, 0, 2, 0, 1]}, {"tileid": 8, "wangid": [0, 1, 0, 1, 0, 1, 0, 2]}, {"tileid": 9, "wangid": [0, 1, 0, 2, 0, 1, 0, 2]}, {"tileid": 10, "wangid": [0, 1, 0, 1, 0, 2, 0, 2]}, {"tileid": 11, "wangid": [0, 1, 0, 2, 0, 2, 0, 2]}, {"tileid": 12, "wangid": [0, 2, 0, 1, 0, 1, 0, 2]}, {"tileid": 13, "wangid": [0, 2, 0, 2, 0, 1, 0, 2]}, {"tileid": 14, "wangid": [0, 2, 0, 1, 0, 2, 0, 2]}, {"tileid": 15, "wangid": [0, 2, 0, 2, 0, 2, 0, 2]}, {"tileid": 16, "wangid": [0, 2, 0, 2, 0, 2, 0, 2]}, {"tileid": 17, "wangid": [0, 2, 0, 2, 0, 2, 0, 2]}, {"tileid": 18, "wangid": [0, 2, 0, 2, 0, 2, 0, 2]}]}]}], "layers": [{"id": 1, "name": "Below Player", "type": "tilelayer", "x": 0, "y": 0, "width": 70, "height": 45, "opacity": 1, "visible": true, "data": [17, 16, 18, 16, 16, 16, 16, 18, 16, 16, 16, 16, 16, 17, 17, 19, 16, 16, 16, 16, 19, 18, 16, 16, 19, 16, 16, 16, 16, 16, 16, 16, 17, 16, 16, 16, 16, 16, 17, 19, 18, 18, 16, 16, 16, 16, 16, 16, 16, 16, 16, 18, 16, 16, 16, 19, 16, 18, 16, 16, 16, 19, 16, 16, 17, 16, 16, 18, 16, 19, 19, 16, 16, 16, 16, 16, 19, 18, 18, 16, 16, 17, 16, 16, 16, 16, 17, 16, 19, 16, 16, 16, 16, 16, 19, 18, 18, 16, 19, 18, 16, 16, 16, 18, 16, 17, 16, 18, 19, 19, 16, 16, 16, 16, 16, 16, 16, 16, 16, 17, 16, 16, 17, 16, 16, 16, 19, 16, 16, 18, 16, 16, 16, 16, 16, 16, 18, 16, 17, 16, 16, 16, 17, 16, 16, 16, 19, 16, 16, 16, 16, 16, 19, 16, 16, 16, 18, 16, 16, 16, 16, 16, 17, 16, 16, 16, 16, 16, 18, 18, 19, 16, 19, 16, 16, 16, 16, 16, 16, 17, 17, 18, 17, 18, 16, 16, 16, 16, 16, 19, 16, 16, 19, 18, 16, 16, 16, 18, 16, 18, 16, 18, 16, 17, 19, 19, 18, 16, 16, 16, 18, 16, 16, 16, 19, 18, 19, 17, 16, 16, 16, 17, 16, 16, 19, 16, 16, 18, 16, 16, 17, 18, 16, 16, 16, 16, 16, 16, 16, 16, 16, 18, 16, 16, 18, 16, 17, 16, 16, 16, 16, 16, 16, 16, 16, 16, 16, 16, 18, 16, 16, 16, 16, 16, 16, 16, 19, 16, 16, 16, 16, 19, 19, 16, 16, 18, 16, 16, 16, 16, 19, 16, 16, 16, 16, 18, 16, 16, 18, 16, 16, 18, 18, 16, 19, 17, 18, 16, 19, 18, 16, 16, 16, 16, 18, 16, 19, 16, 16, 17, 16, 16, 18, 19, 19, 16, 16, 16, 16, 16, 18, 16, 18, 16, 16, 16, 18, 16, 17, 16, 19, 16, 17, 16, 16, 17, 16, 19, 19, 16, 16, 16, 16, 16, 18, 16, 16, 18, 17, 17, 19, 17, 16, 16, 16, 17, 16, 16, 16, 19, 19, 19, 19, 16, 18, 18, 19, 16, 18, 16, 16, 19, 16, 17, 16, 17, 16, 18, 18, 16, 16, 19, 16, 17, 19, 19, 18, 16, 19, 19, 16, 16, 18, 16, 17, 16, 19, 18, 16, 18, 18, 19, 19, 18, 16, 16, 16, 16, 16, 16, 16, 16, 16, 16, 18, 16, 19, 17, 16, 16, 16, 16, 16, 16, 16, 18, 16, 16, 16, 16, 16, 16, 19, 18, 16, 16, 16, 16, 16, 16, 16, 16, 16, 16, 18, 19, 16, 16, 16, 16, 17, 18, 17, 19, 16, 16, 16, 16, 19, 16, 16, 19, 16, 19, 18, 16, 17, 16, 16, 16, 16, 16, 16, 16, 16, 16, 18, 16, 16, 16, 16, 17, 16, 16, 16, 18, 16, 16, 16, 16, 16, 16, 16, 16, 16, 16, 16, 19, 16, 16, 16, 16, 16, 18, 16, 17, 16, 16, 16, 17, 17, 16, 16, 17, 16, 16, 18, 16, 16, 16, 16, 17, 16, 16, 19, 16, 16, 19, 16, 16, 18, 16, 17, 17, 16, 16, 16, 17, 16, 16, 16, 17, 18, 16, 16, 18, 16, 19, 16, 17, 16, 17, 19, 16, 16, 16, 19, 17, 16, 16, 18, 16, 16, 16, 18, 16, 17, 16, 16, 16, 16, 16, 18, 17, 16, 16, 16, 16, 18, 16, 16, 16, 16, 18, 16, 16, 16, 16, 16, 16, 16, 16, 18, 19, 16, 16, 16, 16, 16, 19, 16, 19, 16, 16, 16, 17, 16, 16, 16, 16, 16, 17, 16, 16, 17, 19, 16, 16, 16, 16, 16, 18, 16, 17, 16, 19, 17, 16, 16, 16, 16, 16, 16, 16, 19, 16, 18, 18, 16, 17, 17, 16, 16, 19, 16, 16, 18, 16, 17, 16, 16, 19, 19, 19, 18, 16, 17, 16, 18, 16, 16, 16, 16, 16, 16, 16, 16, 16, 16, 19, 16, 16, 16, 16, 16, 16, 19, 16, 18, 17, 16, 16, 16, 16, 19, 16, 16, 16, 16, 17, 18, 16, 18, 16, 16, 16, 17, 18, 16, 19, 16, 16, 16, 16, 18, 16, 16, 16, 16, 16, 16, 16, 16, 19, 16, 16, 16, 16, 16, 18, 16, 16, 17, 16, 16, 16, 16, 16, 16, 19, 16, 17, 16, 16, 16, 16, 18, 19, 16, 16, 16, 17, 16, 16, 16, 19, 16, 16, 18, 16, 16, 19, 18, 16, 16, 16, 18, 16, 16, 16, 16, 18, 19, 16, 16, 19, 16, 16, 16, 17, 18, 16, 17, 16, 16, 17, 19, 16, 16, 19, 16, 16, 19, 18, 16, 19, 16, 16, 16, 16, 16, 18, 19, 19, 17, 16, 16, 16, 16, 16, 16, 16, 16, 18, 16, 16, 16, 18, 16, 16, 16, 16, 16, 17, 16, 18, 16, 16, 16, 16, 18, 16, 16, 16, 16, 17, 16, 16, 17, 16, 16, 18, 17, 18, 16, 19, 19, 19, 17, 16, 16, 16, 16, 16, 16, 16, 16, 16, 16, 19, 16, 16, 16, 16, 17, 16, 16, 19, 19, 16, 16, 18, 18, 16, 19, 16, 18, 16, 16, 16, 16, 16, 18, 16, 16, 16, 17, 16, 16, 18, 17, 16, 16, 17, 16, 16, 19, 19, 16, 18, 16, 16, 16, 17, 17, 18, 16, 19, 16, 16, 16, 16, 16, 17, 17, 16, 16, 16, 16, 16, 17, 16, 16, 16, 16, 16, 16, 19, 18, 17, 16, 16, 16, 16, 16, 16, 16, 18, 16, 16, 16, 16, 16, 16, 16, 17, 16, 16, 17, 17, 16, 19, 16, 16, 18, 17, 16, 16, 18, 16, 16, 17, 19, 18, 16, 16, 16, 16, 16, 17, 16, 16, 16, 16, 16, 17, 16, 19, 16, 16, 16, 17, 16, 19, 16, 19, 16, 16, 16, 17, 16, 16, 16, 16, 16, 17, 16, 19, 17, 19, 16, 16, 19, 19, 19, 16, 16, 18, 16, 16, 16, 16, 16, 16, 19, 18, 16, 16, 17, 16, 16, 16, 19, 16, 16, 19, 19, 18, 16, 19, 18, 16, 19, 19, 16, 18, 16, 16, 17, 16, 17, 16, 16, 16, 18, 19, 16, 16, 19, 16, 19, 16, 16, 17, 16, 16, 16, 16, 19, 16, 16, 18, 19, 19, 17, 16, 16, 16, 16, 18, 16, 18, 19, 16, 16, 18, 16, 19, 17, 18, 16, 16, 16, 16, 18, 16, 16, 19, 16, 19, 17, 16, 16, 16, 16, 16, 16, 17, 16, 16, 18, 19, 17, 16, 16, 16, 16, 18, 19, 16, 16, 19, 16, 17, 16, 18, 16, 17, 16, 16, 16, 16, 16, 16, 17, 19, 18, 17, 16, 19, 19, 16, 16, 16, 16, 16, 16, 18, 16, 16, 18, 18, 17, 18, 16, 16, 16, 16, 16, 18, 17, 16, 17, 16, 16, 19, 16, 16, 16, 16, 18, 17, 17, 16, 16, 16, 16, 16, 18, 16, 17, 16, 19, 16, 17, 16, 16, 16, 19, 16, 16, 16, 16, 16, 16, 19, 16, 16, 17, 19, 16, 16, 19, 16, 16, 16, 16, 16, 16, 16, 16, 16, 16, 19, 18, 16, 19, 16, 16, 16, 16, 19, 16, 16, 16, 16, 16, 16, 16, 19, 19, 17, 19, 16, 16, 19, 16, 16, 19, 16, 17, 16, 19, 17, 16, 18, 18, 19, 18, 16, 17, 16, 16, 17, 16, 16, 16, 16, 16, 16, 16, 16, 17, 18, 19, 16, 19, 16, 16, 16, 16, 16, 16, 16, 16, 16, 17, 17, 17, 16, 19, 16, 16, 17, 16, 16, 16, 16, 16, 16, 16, 16, 16, 16, 18, 16, 19, 18, 18, 19, 16, 17, 16, 16, 18, 16, 16, 16, 16, 18, 19, 18, 18, 16, 19, 16, 16, 17, 16, 16, 16, 16, 18, 16, 18, 19, 16, 16, 18, 17, 17, 16, 19, 16, 16, 18, 16, 16, 17, 16, 16, 16, 17, 16, 17, 16, 16, 16, 18, 16, 19, 16, 16, 16, 16, 16, 16, 16, 17, 17, 16, 16, 16, 18, 16, 16, 16, 18, 18, 19, 17, 19, 17, 16, 16, 16, 17, 16, 19, 16, 16, 19, 17, 18, 16, 19, 16, 16, 18, 16, 16, 16, 16, 18, 16, 16, 16, 16, 16, 16, 17, 16, 16, 16, 19, 16, 16, 16, 16, 16, 18, 17, 16, 18, 16, 16, 16, 16, 17, 16, 17, 16, 19, 19, 18, 17, 19, 16, 16, 16, 16, 17, 16, 16, 16, 17, 16, 19, 19, 16, 16, 16, 16, 16, 16, 17, 17, 16, 16, 19, 18, 17, 16, 17, 16, 16, 19, 18, 16, 16, 16, 16, 17, 16, 16, 16, 17, 16, 16, 16, 16, 18, 16, 16, 18, 16, 19, 16, 16, 16, 16, 16, 16, 16, 16, 16, 16, 16, 16, 17, 16, 16, 16, 16, 19, 16, 19, 16, 16, 19, 19, 16, 16, 18, 16, 16, 16, 16, 16, 16, 19, 17, 18, 16, 16, 19, 16, 16, 16, 17, 18, 16, 16, 16, 16, 16, 19, 18, 16, 17, 16, 19, 16, 16, 16, 16, 16, 16, 16, 16, 18, 18, 16, 16, 18, 16, 16, 16, 17, 16, 16, 16, 16, 18, 16, 16, 16, 17, 19, 18, 17, 17, 16, 16, 16, 18, 16, 16, 19, 18, 16, 16, 16, 16, 16, 16, 18, 16, 16, 18, 16, 19, 16, 16, 16, 16, 19, 17, 16, 16, 18, 16, 16, 16, 19, 16, 18, 16, 16, 16, 19, 18, 17, 16, 16, 18, 16, 16, 16, 16, 16, 16, 16, 16, 16, 16, 17, 19, 18, 17, 19, 19, 16, 16, 16, 19, 17, 16, 16, 16, 16, 17, 17, 16, 18, 19, 16, 17, 16, 16, 16, 16, 17, 16, 16, 16, 16, 16, 16, 16, 16, 19, 16, 19, 16, 18, 16, 16, 19, 17, 16, 19, 18, 16, 17, 16, 16, 18, 17, 16, 17, 17, 16, 19, 16, 19, 19, 16, 16, 18, 18, 16, 16, 16, 18, 16, 19, 16, 16, 16, 18, 16, 18, 16, 16, 16, 17, 16, 16, 18, 17, 16, 16, 16, 16, 19, 16, 17, 18, 19, 16, 16, 18, 16, 17, 16, 16, 18, 16, 16, 16, 16, 16, 19, 16, 16, 19, 16, 16, 16, 16, 16, 16, 16, 17, 16, 18, 18, 17, 16, 16, 19, 19, 16, 16, 18, 16, 17, 18, 16, 17, 16, 16, 16, 16, 16, 16, 16, 16, 19, 16, 19, 16, 16, 18, 16, 16, 16, 16, 16, 16, 16, 19, 16, 17, 18, 16, 16, 16, 18, 19, 17, 18, 18, 16, 16, 16, 17, 16, 19, 16, 18, 19, 17, 16, 19, 19, 17, 16, 16, 16, 19, 16, 16, 19, 16, 18, 16, 16, 19, 16, 16, 16, 16, 16, 19, 16, 19, 16, 16, 19, 17, 17, 17, 16, 16, 16, 16, 17, 16, 16, 16, 19, 16, 16, 16, 16, 18, 19, 16, 18, 16, 19, 18, 16, 16, 16, 19, 16, 19, 16, 17, 16, 16, 19, 16, 16, 16, 16, 16, 16, 16, 17, 16, 19, 17, 16, 16, 16, 16, 19, 16, 16, 16, 16, 16, 16, 17, 16, 16, 16, 16, 17, 16, 19, 18, 16, 16, 16, 16, 18, 16, 16, 16, 17, 19, 16, 16, 16, 16, 16, 17, 19, 16, 16, 19, 16, 16, 19, 17, 19, 16, 16, 17, 16, 16, 16, 19, 17, 16, 19, 18, 16, 16, 16, 16, 16, 16, 19, 16, 18, 16, 16, 17, 16, 16, 17, 16, 16, 17, 16, 16, 16, 16, 16, 16, 19, 19, 16, 16, 17, 16, 16, 16, 16, 17, 19, 16, 19, 16, 16, 16, 16, 16, 17, 16, 16, 16, 19, 16, 16, 18, 16, 16, 16, 18, 16, 16, 18, 16, 16, 16, 16, 16, 19, 16, 16, 16, 16, 16, 16, 16, 17, 16, 16, 16, 18, 16, 18, 16, 16, 17, 16, 19, 17, 16, 19, 19, 16, 16, 16, 17, 16, 16, 18, 19, 16, 16, 16, 17, 16, 16, 16, 19, 16, 16, 16, 19, 18, 16, 16, 16, 16, 16, 16, 16, 18, 17, 19, 17, 18, 16, 16, 18, 19, 18, 18, 16, 16, 16, 19, 16, 19, 17, 16, 16, 16, 18, 19, 19, 16, 16, 17, 16, 16, 16, 16, 18, 17, 16, 16, 16, 18, 16, 16, 16, 17, 16, 16, 17, 18, 16, 19, 16, 17, 16, 19, 19, 19, 16, 18, 16, 17, 16, 18, 16, 16, 16, 16, 16, 17, 16, 16, 16, 19, 16, 17, 16, 16, 16, 16, 16, 16, 16, 16, 18, 18, 18, 16, 18, 16, 19, 18, 16, 16, 16, 16, 18, 16, 16, 16, 16, 17, 16, 16, 16, 16, 19, 16, 16, 16, 18, 16, 18, 18, 17, 16, 16, 16, 19, 16, 16, 16, 16, 19, 16, 16, 16, 18, 16, 16, 16, 16, 19, 19, 16, 18, 18, 16, 16, 16, 16, 16, 17, 16, 19, 17, 17, 16, 19, 19, 16, 17, 19, 16, 19, 16, 16, 18, 17, 16, 18, 16, 16, 16, 16, 16, 16, 17, 17, 16, 19, 16, 19, 16, 16, 16, 16, 16, 16, 18, 16, 16, 16, 16, 17, 19, 16, 16, 16, 16, 18, 19, 19, 16, 16, 16, 16, 16, 16, 16, 16, 18, 16, 16, 16, 16, 18, 16, 16, 16, 16, 16, 16, 16, 16, 16, 18, 16, 19, 16, 19, 16, 16, 16, 16, 16, 16, 16, 16, 19, 16, 16, 16, 19, 16, 16, 18, 16, 16, 16, 16, 19, 17, 16, 16, 17, 17, 16, 19, 17, 16, 17, 16, 16, 16, 16, 16, 19, 16, 17, 16, 16, 16, 16, 18, 16, 16, 16, 16, 16, 16, 19, 16, 17, 16, 16, 16, 17, 16, 19, 16, 18, 16, 16, 18, 18, 16, 19, 16, 17, 16, 17, 16, 16, 19, 16, 17, 19, 16, 18, 16, 17, 16, 17, 17, 16, 16, 19, 18, 16, 16, 16, 16, 16, 16, 16, 18, 16, 16, 19, 16, 16, 16, 16, 19, 19, 17, 17, 16, 16, 18, 16, 16, 16, 16, 16, 18, 18, 16, 19, 16, 19, 16, 16, 16, 16, 16, 16, 16, 16, 16, 16, 16, 19, 16, 16, 16, 18, 16, 16, 16, 16, 19, 19, 18, 16, 18, 16, 16, 19, 16, 16, 16, 16, 16, 16, 16, 16, 17, 17, 16, 16, 16, 19, 16, 16, 17, 18, 17, 16, 16, 17, 19, 16, 16, 16, 16, 16, 16, 17, 16, 16, 16, 17, 17, 16, 18, 16, 17, 16, 16, 17, 18, 18, 16, 16, 18, 16, 16, 17, 16, 16, 18, 16, 18, 16, 19, 16, 16, 16, 19, 16, 18, 16, 18, 17, 16, 19, 18, 19, 16, 17, 16, 19, 16, 18, 19, 19, 16, 18, 16, 16, 16, 17, 16, 16, 16, 16, 17, 16, 16, 16, 16, 16, 16, 16, 16, 16, 16, 16, 19, 17, 18, 16, 16, 16, 18, 19, 16, 16, 16, 18, 16, 16, 16, 17, 16, 16, 16, 16, 16, 17, 16, 16, 16, 16, 16, 18, 16, 17, 16, 16, 16, 19, 16, 18, 16, 16, 16, 16, 19, 16, 17, 17, 16, 16, 16, 16, 17, 16, 18, 16, 16, 17, 18, 16, 16, 19, 18, 16, 16, 18, 16, 16, 16, 16, 16, 17, 16, 19, 19, 19, 19, 17, 17, 16, 16, 17, 16, 16, 16, 16, 17, 16, 19, 16, 16, 16, 16, 16, 16, 16, 16, 16, 19, 16, 16, 16, 16, 19, 18, 17, 19, 16, 16, 16, 19, 16, 16, 16, 18, 16, 16, 16, 18, 16, 19, 16, 17, 16, 17, 19, 19, 18, 16, 18, 16, 18, 16, 16, 16, 16, 16, 18, 16, 17, 16, 16, 16, 16, 16, 16, 16, 16, 16, 16, 16, 17, 16, 16, 16, 16, 16, 16, 16, 17, 16, 16, 18, 16, 16, 19, 17, 16, 16, 16, 16, 18, 16, 16, 16, 16, 19, 16, 19, 16, 19, 16, 16, 18, 16, 18, 16, 18, 16, 16, 16, 16, 19, 19, 16, 16, 16, 16, 16, 16, 17, 18, 16, 16, 16, 19, 16, 16, 16, 16, 18, 17, 19, 16, 16, 16, 18, 16, 19, 16, 16, 17, 16, 16, 16, 19, 16, 17, 16, 16, 16, 16, 16, 17, 16, 16, 16, 16, 18, 16, 16, 19, 16, 16, 17, 19, 16, 16, 17, 16, 17, 18, 19, 19, 19, 19, 16, 19, 16, 16, 16, 16, 16, 16, 16, 16, 17, 16, 17, 19, 18, 17, 18, 18, 16, 17, 16, 16, 16, 16, 17, 18, 16, 16, 19, 16, 16, 18, 16, 17, 17, 16, 16, 16, 16, 16, 16, 17, 16, 16, 16, 19, 17, 19, 16, 16, 16, 16, 16, 17, 17, 16, 16, 16, 16, 16, 16, 16, 16, 16, 16, 19, 16, 16, 16, 16, 18, 17, 16, 17, 18, 16, 16, 19, 16, 17, 18, 16, 19, 18, 19, 16, 18, 16, 19, 19, 18, 16, 16, 18, 17, 18, 17, 16, 17, 16, 17, 17, 16, 16, 16, 16, 16, 16, 18, 19, 19, 16, 16, 16, 18, 16, 18, 17, 18, 19, 16, 18, 16, 16, 16, 16, 16, 16, 16, 16, 16, 16, 16, 19, 17, 16, 16, 16, 18, 17, 19, 19, 16, 19, 19, 16, 16, 18, 16, 18, 18, 16, 16, 16, 16, 16, 16, 17, 16, 16, 18, 16, 18, 17, 16, 18, 17, 16, 16, 16, 19, 19, 16, 16, 17, 18, 16, 16, 16, 16, 16, 16, 16, 16, 19, 17, 18, 16, 16, 16, 16, 17, 16, 16, 16, 16, 17, 16, 16, 17, 17, 18, 16, 17, 16, 16, 19, 16, 17, 16, 16, 19, 16, 19, 16, 16, 16, 16, 16, 19, 16, 16, 16, 17, 16, 16, 16, 16, 16, 18, 16, 17, 16, 16, 16, 16, 16, 16, 16, 16, 19, 16, 16, 16, 16, 16, 16, 16, 18, 16, 17, 16, 16, 16, 16, 19, 16, 18, 18, 19, 18, 18, 16, 16, 16, 18, 16, 16, 17, 16, 16, 18, 17, 16, 16, 18, 16, 19, 16, 16, 19, 16, 16, 16, 18, 16, 19, 16, 16, 16, 16, 16, 16, 19, 19, 16, 16, 17, 19, 16, 16, 16, 16, 18, 16, 16, 16, 18, 16, 16, 16, 16, 19, 16, 16, 16, 16, 16, 16, 16, 18, 16, 16, 17, 17, 19, 19, 18, 16, 19, 16, 19, 19, 16, 16, 16, 16, 16, 16, 17, 17, 16, 16, 18, 17, 16, 17, 16, 16, 16, 18, 19, 16, 17, 16, 16, 16, 16, 17, 16, 16, 16, 19, 18, 17, 16, 16, 17, 19, 17, 19, 16, 16, 16, 16, 16, 19, 17, 16, 16, 16, 16, 16, 19, 17, 19, 16, 16, 16, 16, 16, 19, 16, 16, 16, 17, 16, 19, 17, 19, 16, 16, 16, 16, 16, 16, 18, 16, 16, 16, 18, 16, 17, 18, 16, 16, 16]}, {"id": 2, "name": "malpa\u00eds", "type": "tilelayer", "x": 0, "y": 0, "width": 70, "height": 45, "opacity": 1, "visible": true, "data": [0, 0, 0, 0, 0, 0, 0, 0, 0, 0, 0, 0, 0, 0, 0, 0, 0, 0, 0, 0, 0, 0, 0, 0, 0, 0, 0, 0, 0, 0, 0, 0, 0, 0, 0, 0, 0, 0, 0, 0, 0, 0, 0, 0, 0, 0, 0, 0, 0, 0, 0, 0, 0, 0, 0, 0, 0, 0, 0, 0, 0, 0, 0, 0, 0, 0, 0, 0, 0, 0, 0, 0, 0, 0, 0, 0, 0, 0, 0, 0, 0, 0, 0, 0, 0, 0, 0, 0, 0, 0, 0, 0, 0, 0, 0, 0, 0, 0, 0, 0, 0, 0, 0, 0, 0, 0, 0, 0, 0, 0, 0, 0, 0, 0, 0, 0, 0, 0, 0, 0, 0, 0, 0, 0, 0, 0, 0, 0, 0, 0, 0, 0, 0, 0, 0, 0, 0, 0, 0, 0, 0, 0, 0, 0, 0, 0, 0, 0, 0, 0, 21, 23, 23, 23, 23, 23, 23, 22, 0, 0, 0, 0, 0, 0, 0, 0, 0, 0, 0, 0, 0, 0, 0, 0, 0, 0, 0, 0, 0, 0, 0, 0, 0, 0, 0, 0, 0, 0, 0, 0, 0, 0, 0, 0, 0, 0, 0, 0, 0, 0, 0, 0, 0, 0, 0, 0, 0, 0, 0, 0, 0, 0, 0, 0, 0, 0, 0, 0, 21, 23, 27, 36, 35, 35, 35, 37, 35, 31, 23, 22, 0, 0, 0, 0, 0, 0, 0, 0, 0, 0, 0, 0, 0, 0, 0, 0, 0, 0, 0, 0, 0, 0, 0, 0, 0, 0, 0, 0, 0, 0, 0, 0, 0, 21, 23, 23, 23, 23, 22, 0, 0, 0, 0, 0, 0, 0, 0, 0, 0, 0, 0, 0, 0, 0, 0, 0, 0, 21, 27, 36, 37, 37, 35, 36, 37, 35, 35, 36, 37, 31, 22, 0, 0, 0, 0, 0, 0, 0, 0, 0, 0, 0, 0, 0, 0, 0, 0, 0, 0, 0, 0, 21, 23, 23, 22, 0, 0, 0, 0, 0, 0, 21, 23, 27, 36, 35, 35, 35, 31, 23, 22, 0, 0, 0, 0, 0, 0, 0, 0, 0, 0, 21, 22, 0, 0, 0, 21, 27, 36, 35, 35, 38, 35, 35, 35, 37, 35, 35, 36, 35, 31, 22, 0, 0, 0, 0, 0, 0, 0, 0, 0, 0, 0, 0, 0, 0, 0, 0, 0, 0, 21, 27, 35, 36, 31, 22, 0, 0, 0, 21, 23, 27, 35, 35, 38, 35, 36, 38, 35, 35, 31, 23, 22, 0, 0, 0, 0, 0, 0, 0, 21, 27, 31, 23, 22, 21, 27, 35, 35, 35, 35, 35, 35, 35, 38, 35, 38, 38, 35, 35, 36, 31, 23, 23, 23, 22, 0, 0, 0, 0, 0, 0, 0, 0, 0, 0, 0, 0, 0, 21, 27, 35, 35, 37, 35, 31, 22, 0, 0, 25, 37, 36, 37, 36, 35, 37, 36, 35, 35, 35, 35, 37, 30, 0, 0, 0, 0, 0, 0, 0, 27, 35, 38, 38, 30, 25, 35, 35, 35, 35, 38, 35, 35, 35, 37, 35, 38, 35, 36, 35, 35, 35, 35, 35, 35, 31, 22, 0, 0, 0, 0, 0, 0, 0, 0, 0, 0, 0, 0, 25, 35, 36, 38, 36, 35, 38, 30, 0, 21, 27, 36, 35, 35, 35, 35, 35, 35, 37, 35, 36, 38, 35, 31, 23, 23, 22, 0, 0, 0, 0, 35, 35, 37, 36, 31, 27, 36, 35, 35, 35, 35, 37, 35, 35, 35, 35, 35, 35, 35, 35, 35, 38, 37, 35, 35, 35, 31, 22, 0, 0, 0, 0, 0, 0, 0, 0, 0, 0, 0, 25, 35, 35, 35, 36, 35, 35, 30, 0, 25, 35, 35, 35, 35, 35, 36, 35, 35, 35, 35, 35, 37, 35, 38, 35, 35, 31, 22, 0, 0, 0, 38, 37, 35, 35, 36, 35, 36, 37, 35, 36, 35, 37, 35, 35, 35, 35, 37, 35, 35, 35, 36, 35, 35, 35, 38, 35, 37, 30, 0, 0, 0, 0, 0, 0, 0, 0, 0, 0, 0, 25, 35, 35, 35, 35, 35, 37, 31, 23, 27, 35, 35, 35, 35, 35, 38, 38, 35, 35, 35, 37, 35, 36, 35, 35, 37, 35, 30, 0, 0, 0, 37, 35, 38, 35, 35, 35, 35, 38, 37, 35, 36, 38, 38, 37, 35, 36, 38, 35, 35, 35, 35, 35, 35, 35, 35, 37, 35, 31, 22, 0, 0, 0, 0, 0, 0, 0, 0, 0, 21, 27, 35, 35, 36, 35, 35, 35, 35, 37, 36, 35, 35, 35, 37, 35, 36, 35, 35, 37, 35, 35, 35, 35, 35, 35, 35, 37, 31, 22, 0, 0, 38, 35, 35, 35, 38, 38, 35, 35, 38, 35, 35, 35, 38, 35, 36, 35, 37, 35, 35, 35, 37, 37, 35, 37, 35, 35, 36, 35, 30, 0, 0, 0, 0, 0, 0, 0, 0, 0, 25, 35, 38, 37, 36, 35, 35, 35, 34, 33, 37, 35, 35, 35, 35, 35, 35, 35, 35, 38, 37, 36, 37, 35, 35, 35, 35, 35, 36, 30, 0, 0, 33, 37, 37, 35, 37, 37, 35, 37, 37, 35, 35, 35, 37, 38, 35, 37, 36, 37, 35, 37, 35, 35, 36, 35, 37, 35, 35, 35, 30, 0, 0, 0, 0, 0, 0, 0, 0, 0, 25, 35, 35, 38, 35, 35, 35, 35, 30, 25, 36, 35, 38, 35, 35, 35, 36, 35, 35, 36, 38, 35, 35, 35, 36, 36, 36, 36, 35, 30, 0, 0, 24, 33, 38, 35, 35, 35, 35, 36, 35, 35, 35, 35, 35, 35, 35, 35, 35, 35, 38, 35, 35, 35, 35, 35, 35, 35, 38, 34, 28, 0, 0, 0, 0, 0, 0, 0, 0, 0, 24, 33, 37, 35, 35, 35, 35, 34, 28, 25, 35, 35, 35, 36, 35, 35, 35, 38, 35, 35, 35, 37, 35, 35, 35, 36, 35, 35, 34, 28, 0, 0, 0, 24, 32, 32, 33, 35, 36, 36, 38, 35, 36, 36, 35, 38, 35, 35, 35, 35, 35, 38, 36, 35, 38, 37, 35, 35, 35, 30, 0, 0, 0, 0, 0, 0, 0, 0, 0, 0, 0, 24, 33, 35, 35, 35, 34, 28, 0, 24, 33, 35, 35, 35, 35, 35, 35, 35, 35, 35, 37, 35, 37, 35, 38, 35, 35, 38, 30, 0, 0, 0, 0, 0, 0, 0, 24, 33, 35, 38, 37, 35, 38, 35, 38, 38, 35, 38, 35, 36, 35, 35, 38, 35, 36, 35, 35, 35, 34, 28, 0, 0, 0, 0, 0, 0, 0, 0, 0, 0, 0, 0, 24, 32, 32, 32, 28, 0, 0, 0, 25, 35, 35, 35, 37, 35, 35, 35, 35, 35, 35, 38, 36, 35, 35, 36, 35, 34, 28, 0, 0, 0, 0, 0, 0, 0, 0, 25, 35, 37, 35, 37, 35, 37, 38, 38, 35, 35, 35, 35, 35, 37, 35, 37, 38, 36, 35, 34, 28, 0, 0, 0, 0, 0, 0, 0, 0, 0, 0, 0, 0, 0, 0, 0, 0, 0, 0, 0, 0, 0, 24, 33, 35, 37, 37, 38, 36, 35, 35, 35, 35, 38, 35, 35, 34, 32, 32, 28, 0, 0, 0, 0, 0, 0, 0, 0, 0, 24, 33, 36, 35, 35, 35, 35, 36, 35, 36, 37, 35, 35, 35, 35, 37, 34, 33, 35, 34, 28, 0, 0, 0, 0, 0, 0, 0, 0, 0, 0, 0, 0, 0, 0, 0, 0, 0, 0, 0, 0, 0, 0, 0, 25, 35, 35, 35, 35, 35, 38, 37, 35, 35, 36, 38, 36, 30, 0, 0, 0, 0, 0, 0, 0, 0, 0, 0, 0, 0, 0, 24, 33, 35, 37, 35, 35, 35, 36, 37, 35, 35, 35, 35, 38, 34, 28, 24, 32, 28, 0, 0, 0, 0, 0, 0, 0, 0, 0, 0, 0, 0, 0, 0, 0, 0, 0, 0, 0, 0, 0, 0, 0, 0, 24, 32, 33, 35, 35, 35, 38, 35, 37, 35, 37, 34, 32, 28, 0, 0, 0, 0, 0, 0, 0, 0, 0, 0, 0, 0, 0, 0, 24, 33, 38, 35, 35, 35, 35, 36, 38, 35, 38, 38, 34, 28, 0, 0, 0, 0, 0, 0, 0, 0, 0, 0, 0, 0, 0, 0, 0, 0, 0, 0, 0, 0, 0, 0, 0, 0, 0, 0, 0, 0, 0, 0, 24, 32, 33, 35, 35, 36, 35, 34, 32, 28, 0, 0, 0, 0, 0, 0, 0, 0, 0, 0, 0, 0, 0, 0, 0, 0, 0, 24, 32, 33, 36, 37, 35, 37, 35, 36, 34, 32, 28, 0, 0, 0, 0, 0, 0, 0, 0, 0, 0, 0, 0, 0, 0, 0, 0, 0, 0, 0, 0, 0, 0, 0, 0, 0, 0, 0, 0, 0, 0, 0, 0, 0, 24, 32, 32, 32, 32, 28, 0, 0, 0, 0, 0, 0, 0, 0, 0, 0, 0, 0, 0, 0, 0, 0, 0, 0, 0, 0, 0, 24, 32, 32, 32, 32, 32, 32, 28, 0, 0, 0, 0, 0, 0, 0, 0, 0, 0, 0, 0, 0, 0, 0, 0, 0, 0, 0, 0, 0, 0, 0, 0, 0, 0, 0, 0, 0, 0, 0, 0, 0, 0, 0, 0, 0, 0, 0, 0, 0, 0, 0, 0, 0, 0, 0, 0, 0, 0, 0, 0, 0, 0, 0, 0, 0, 0, 0, 0, 0, 0, 0, 0, 0, 0, 0, 0, 0, 0, 0, 0, 0, 0, 0, 0, 0, 0, 0, 0, 0, 0, 0, 0, 0, 0, 0, 0, 0, 0, 0, 0, 0, 0, 0, 0, 0, 0, 0, 0, 0, 0, 0, 0, 0, 0, 0, 0, 0, 0, 0, 0, 0, 0, 0, 0, 0, 0, 0, 0, 0, 0, 0, 0, 0, 0, 0, 0, 0, 0, 0, 0, 0, 0, 0, 0, 0, 0, 0, 0, 0, 0, 0, 0, 0, 0, 0, 0, 0, 0, 0, 0, 0, 0, 0, 0, 0, 0, 0, 0, 0, 0, 0, 0, 0, 0, 0, 0, 0, 0, 0, 0, 0, 0, 0, 0, 0, 0, 0, 0, 0, 0, 0, 0, 0, 0, 0, 0, 0, 0, 0, 0, 0, 0, 0, 0, 0, 0, 0, 0, 0, 0, 0, 0, 0, 0, 0, 0, 0, 0, 0, 0, 0, 0, 0, 0, 0, 0, 0, 0, 0, 0, 0, 0, 0, 0, 0, 0, 0, 0, 0, 0, 0, 0, 0, 0, 0, 0, 0, 0, 0, 0, 0, 0, 0, 0, 0, 0, 0, 0, 0, 0, 0, 0, 0, 0, 0, 0, 0, 0, 0, 0, 0, 0, 0, 0, 0, 0, 0, 0, 0, 0, 0, 0, 0, 0, 0, 0, 0, 0, 0, 0, 0, 0, 0, 0, 0, 0, 0, 0, 0, 0, 0, 0, 0, 0, 0, 0, 0, 0, 0, 0, 0, 0, 0, 0, 0, 0, 0, 0, 0, 0, 0, 0, 0, 0, 0, 0, 0, 0, 0, 0, 0, 0, 0, 0, 0, 0, 0, 0, 0, 0, 0, 0, 0, 0, 0, 0, 0, 0, 0, 0, 0, 0, 0, 0, 0, 0, 0, 0, 0, 0, 0, 0, 0, 0, 0, 0, 0, 0, 0, 0, 0, 0, 0, 0, 0, 0, 0, 0, 0, 0, 0, 0, 0, 0, 0, 0, 0, 0, 0, 0, 0, 0, 0, 0, 0, 0, 0, 0, 0, 0, 0, 0, 0, 0, 0, 0, 0, 0, 0, 0, 0, 0, 0, 0, 0, 0, 0, 0, 0, 21, 23, 23, 23, 23, 22, 0, 0, 0, 0, 0, 0, 21, 23, 22, 0, 0, 0, 0, 0, 0, 0, 0, 0, 0, 0, 0, 0, 0, 0, 0, 0, 0, 0, 0, 0, 0, 0, 0, 0, 0, 0, 0, 0, 0, 0, 0, 0, 0, 0, 0, 0, 21, 23, 23, 23, 22, 0, 0, 0, 0, 0, 0, 0, 0, 0, 0, 0, 21, 23, 27, 35, 38, 37, 35, 31, 23, 22, 0, 0, 0, 21, 27, 35, 30, 0, 0, 0, 0, 0, 0, 0, 0, 0, 0, 0, 0, 0, 0, 0, 0, 0, 0, 0, 0, 0, 0, 0, 0, 0, 0, 0, 0, 0, 0, 0, 0, 0, 0, 0, 0, 21, 27, 37, 35, 38, 31, 22, 0, 0, 0, 21, 23, 23, 23, 23, 23, 23, 27, 35, 36, 36, 35, 37, 35, 37, 35, 31, 23, 22, 21, 27, 37, 37, 30, 0, 0, 0, 0, 0, 0, 0, 0, 0, 0, 0, 0, 0, 0, 0, 0, 0, 0, 0, 0, 0, 0, 0, 0, 0, 0, 0, 0, 0, 0, 0, 0, 0, 0, 0, 21, 27, 35, 35, 38, 35, 37, 31, 22, 0, 0, 27, 36, 37, 35, 38, 37, 35, 35, 35, 37, 37, 35, 35, 35, 35, 35, 35, 35, 30, 25, 38, 35, 35, 30, 0, 0, 0, 0, 0, 0, 0, 0, 0, 0, 0, 0, 0, 0, 0, 0, 0, 0, 0, 0, 0, 0, 0, 0, 0, 0, 0, 21, 23, 23, 23, 23, 22, 0, 0, 25, 35, 35, 35, 38, 38, 35, 35, 30, 0, 0, 38, 37, 35, 35, 35, 36, 35, 35, 36, 35, 36, 35, 36, 35, 35, 37, 38, 36, 31, 27, 37, 35, 35, 31, 22, 0, 0, 0, 0, 0, 0, 0, 0, 0, 0, 0, 0, 0, 0, 0, 0, 0, 0, 0, 0, 21, 22, 0, 0, 21, 23, 27, 37, 35, 37, 35, 31, 23, 23, 27, 35, 35, 36, 37, 35, 35, 36, 30, 0, 0, 35, 36, 35, 37, 35, 35, 35, 35, 37, 36, 35, 35, 35, 35, 38, 35, 35, 35, 35, 35, 35, 38, 35, 35, 30, 0, 0, 0, 0, 0, 0, 0, 0, 0, 0, 0, 0, 0, 0, 0, 21, 23, 23, 23, 23, 27, 31, 22, 21, 27, 35, 35, 37, 35, 35, 35, 35, 36, 35, 38, 35, 35, 35, 35, 35, 35, 36, 31, 22, 0, 35, 35, 35, 35, 35, 35, 38, 38, 35, 37, 37, 38, 35, 35, 37, 37, 35, 35, 35, 35, 38, 36, 35, 35, 31, 22, 0, 0, 0, 0, 0, 0, 0, 0, 0, 0, 0, 0, 0, 0, 25, 38, 36, 35, 36, 35, 35, 31, 27, 35, 35, 37, 35, 35, 35, 35, 35, 35, 35, 37, 35, 35, 35, 36, 36, 35, 38, 38, 30, 0, 36, 35, 36, 35, 35, 35, 36, 35, 37, 36, 35, 36, 35, 37, 35, 35, 35, 35, 35, 35, 35, 36, 36, 36, 35, 31, 22, 0, 0, 0, 0, 0, 0, 0, 0, 0, 0, 0, 0, 0, 25, 35, 35, 36, 35, 38, 38, 38, 36, 35, 35, 35, 35, 35, 35, 35, 35, 35, 35, 38, 37, 36, 35, 36, 35, 35, 35, 34, 28, 0, 35, 35, 35, 35, 35, 36, 36, 35, 38, 38, 35, 35, 37, 35, 37, 37, 35, 37, 35, 35, 35, 35, 38, 37, 35, 34, 28, 0, 0, 0, 0, 0, 0, 0, 0, 0, 0, 0, 0, 0, 25, 38, 38, 35, 35, 37, 35, 35, 35, 35, 35, 35, 35, 35, 35, 35, 35, 35, 35, 35, 36, 35, 35, 36, 36, 35, 35, 30, 0, 0, 37, 35, 35, 35, 35, 35, 35, 38, 36, 35, 35, 35, 35, 35, 35, 35, 35, 35, 35, 38, 36, 35, 35, 37, 37, 30, 0, 0, 0, 0, 0, 0, 0, 0, 0, 0, 0, 0, 0, 0, 25, 35, 37, 38, 38, 35, 35, 37, 36, 35, 35, 35, 35, 35, 35, 35, 35, 35, 36, 38, 35, 35, 35, 35, 37, 37, 35, 30, 0, 0, 35, 37, 35, 36, 35, 35, 35, 38, 35, 35, 35, 35, 35, 36, 38, 35, 35, 37, 37, 35, 36, 35, 36, 35, 34, 28, 0, 0, 0, 0, 0, 0, 0, 0, 0, 0, 0, 0, 0, 0, 25, 38, 37, 35, 36, 36, 36, 36, 35, 35, 35, 36, 35, 36, 38, 38, 38, 36, 36, 35, 37, 38, 35, 35, 35, 38, 34, 28, 0, 0, 35, 35, 36, 38, 35, 38, 35, 35, 35, 35, 35, 38, 35, 35, 35, 35, 35, 35, 35, 34, 32, 32, 32, 32, 28, 0, 0, 0, 0, 0, 0, 0, 0, 0, 0, 0, 0, 0, 0, 0, 24, 33, 35, 35, 35, 36, 37, 35, 35, 35, 35, 35, 36, 35, 37, 35, 35, 35, 35, 37, 35, 35, 35, 35, 38, 34, 28, 0, 0, 0, 33, 35, 35, 35, 35, 35, 35, 35, 36, 36, 35, 35, 35, 35, 35, 35, 36, 35, 36, 30, 0, 0, 0, 0, 0, 0, 0, 0, 0, 0, 0, 0, 0, 0, 0, 0, 0, 0, 0, 0, 0, 24, 33, 38, 35, 34, 33, 35, 35, 35, 35, 36, 35, 36, 36, 36, 35, 35, 36, 35, 36, 34, 32, 32, 32, 28, 0, 0, 0, 0, 24, 33, 36, 35, 34, 33, 35, 38, 35, 37, 36, 35, 35, 37, 35, 37, 35, 35, 34, 28, 0, 0, 0, 0, 0, 0, 0, 0, 0, 0, 0, 0, 0, 0, 0, 0, 0, 0, 0, 0, 0, 0, 24, 32, 32, 28, 24, 33, 35, 35, 35, 35, 35, 38, 35, 35, 36, 38, 35, 36, 34, 28, 0, 0, 0, 0, 0, 0, 0, 0, 0, 24, 32, 32, 28, 25, 35, 35, 35, 35, 35, 35, 35, 38, 35, 35, 35, 35, 30, 0, 0, 0, 0, 0, 0, 0, 0, 0, 0, 0, 0, 0, 0, 0, 0, 0, 0, 0, 0, 0, 0, 0, 0, 0, 0, 0, 0, 25, 36, 36, 35, 35, 35, 35, 35, 35, 35, 36, 35, 36, 30, 0, 0, 0, 0, 0, 0, 0, 0, 0, 0, 0, 0, 0, 0, 24, 32, 33, 38, 35, 35, 35, 35, 35, 38, 38, 34, 32, 28, 0, 0, 0, 0, 0, 0, 0, 0, 0, 0, 0, 0, 0, 0, 0, 0, 0, 0, 0, 0, 0, 0, 0, 0, 0, 0, 0, 0, 24, 33, 35, 35, 35, 35, 36, 35, 37, 35, 38, 35, 34, 28, 0, 0, 0, 0, 0, 0, 0, 0, 0, 0, 0, 0, 0, 0, 0, 0, 24, 32, 33, 35, 38, 37, 35, 34, 32, 28, 0, 0, 0, 0, 0, 0, 0, 0, 0, 0, 0, 0, 0, 0, 0, 0, 0, 0, 0, 0, 0, 0, 0, 0, 0, 0, 0, 0, 0, 0, 0, 24, 33, 35, 35, 35, 36, 35, 35, 37, 35, 34, 28, 0, 0, 0, 0, 0, 0, 0, 0, 0, 0, 0, 0, 0, 0, 0, 0, 0, 0, 0, 24, 32, 32, 32, 32, 28, 0, 0, 0, 0, 0, 0, 0, 0, 0, 0, 0, 0, 0, 0, 0, 0, 0, 0, 0, 0, 0, 0, 0, 0, 0, 0, 0, 0, 0, 0, 0, 0, 0, 0, 24, 32, 33, 35, 35, 37, 36, 34, 32, 28, 0, 0, 0, 0, 0, 0, 0, 0, 0, 0, 0]}, {"id": 3, "name": "camino", "type": "tilelayer", "x": 0, "y": 0, "width": 70, "height": 45, "opacity": 1, "visible": true, "data": [0, 0, 0, 0, 0, 0, 0, 0, 0, 0, 0, 0, 0, 0, 0, 0, 0, 0, 0, 0, 0, 0, 0, 0, 0, 0, 0, 0, 0, 0, 0, 0, 0, 0, 0, 0, 0, 0, 0, 0, 0, 0, 0, 0, 0, 0, 0, 0, 0, 0, 0, 0, 0, 0, 0, 0, 0, 0, 0, 0, 0, 0, 0, 0, 0, 0, 0, 0, 0, 0, 0, 0, 0, 0, 0, 0, 0, 0, 0, 0, 0, 0, 0, 0, 0, 0, 0, 0, 0, 0, 0, 0, 0, 0, 0, 0, 0, 0, 0, 0, 0, 0, 0, 0, 0, 0, 0, 0, 0, 0, 0, 0, 0, 0, 0, 0, 0, 0, 0, 0, 0, 0, 0, 0, 0, 0, 0, 0, 0, 0, 0, 0, 0, 0, 0, 0, 0, 0, 0, 0, 0, 0, 0, 0, 0, 0, 0, 0, 0, 0, 0, 0, 0, 0, 0, 0, 0, 0, 0, 0, 0, 0, 0, 0, 0, 0, 0, 0, 0, 0, 0, 0, 0, 0, 0, 0, 0, 0, 0, 0, 0, 0, 0, 0, 0, 0, 0, 0, 0, 0, 0, 0, 0, 0, 0, 0, 0, 0, 0, 0, 0, 0, 0, 0, 0, 0, 0, 0, 0, 0, 0, 0, 0, 0, 0, 0, 0, 0, 0, 0, 0, 0, 0, 0, 0, 0, 0, 0, 0, 0, 0, 0, 0, 0, 0, 0, 0, 0, 0, 0, 0, 0, 0, 0, 0, 0, 0, 0, 0, 0, 0, 0, 0, 0, 0, 0, 0, 0, 0, 0, 0, 0, 0, 0, 0, 0, 0, 0, 0, 0, 0, 0, 0, 0, 0, 0, 0, 0, 0, 0, 0, 0, 0, 0, 0, 0, 0, 0, 0, 0, 0, 0, 0, 0, 0, 0, 0, 0, 0, 0, 0, 0, 0, 0, 0, 0, 0, 0, 0, 0, 0, 0, 0, 0, 0, 0, 0, 0, 0, 0, 0, 0, 0, 0, 0, 0, 0, 0, 0, 0, 0, 0, 0, 0, 0, 0, 0, 0, 0, 0, 0, 0, 0, 0, 0, 0, 0, 0, 0, 0, 0, 0, 0, 0, 0, 0, 0, 0, 0, 0, 0, 0, 0, 0, 0, 0, 0, 0, 0, 0, 0, 0, 0, 0, 0, 0, 0, 0, 0, 0, 0, 0, 0, 0, 0, 0, 0, 0, 0, 0, 0, 0, 0, 0, 0, 0, 0, 0, 0, 0, 0, 0, 0, 0, 0, 0, 0, 0, 0, 0, 0, 0, 0, 0, 0, 0, 0, 0, 0, 0, 0, 0, 0, 0, 0, 0, 0, 0, 0, 0, 0, 0, 0, 0, 0, 0, 0, 0, 0, 0, 0, 0, 0, 0, 0, 0, 0, 0, 0, 0, 0, 0, 0, 0, 0, 0, 0, 0, 0, 0, 0, 0, 0, 0, 0, 0, 0, 0, 0, 0, 0, 0, 0, 0, 0, 0, 0, 0, 0, 0, 0, 0, 0, 0, 0, 0, 0, 0, 0, 0, 0, 0, 0, 0, 0, 0, 0, 0, 0, 0, 0, 0, 0, 0, 0, 0, 0, 0, 0, 0, 0, 0, 0, 0, 0, 0, 0, 0, 0, 0, 0, 0, 0, 0, 0, 0, 0, 40, 41, 0, 0, 0, 0, 0, 0, 0, 0, 0, 0, 0, 0, 0, 0, 0, 0, 0, 0, 0, 0, 0, 0, 0, 0, 0, 0, 0, 0, 0, 0, 0, 0, 0, 0, 0, 0, 0, 0, 0, 0, 0, 0, 0, 0, 0, 0, 0, 0, 0, 0, 0, 0, 0, 0, 0, 0, 0, 0, 0, 0, 0, 0, 0, 0, 0, 0, 0, 40, 46, 50, 41, 0, 0, 0, 0, 0, 0, 0, 0, 0, 0, 0, 0, 0, 0, 0, 0, 0, 0, 0, 0, 0, 0, 0, 0, 0, 0, 0, 0, 0, 0, 0, 0, 0, 0, 0, 0, 0, 0, 0, 0, 0, 0, 0, 0, 0, 0, 0, 0, 0, 0, 0, 0, 0, 0, 0, 0, 0, 0, 0, 0, 0, 0, 0, 0, 0, 40, 46, 56, 53, 47, 0, 0, 0, 0, 0, 0, 0, 0, 0, 0, 0, 0, 0, 0, 0, 0, 0, 0, 0, 0, 0, 0, 0, 0, 0, 0, 0, 0, 0, 0, 0, 0, 0, 0, 0, 0, 0, 0, 0, 0, 0, 0, 0, 0, 0, 0, 0, 0, 0, 0, 0, 0, 0, 0, 0, 0, 0, 0, 0, 0, 0, 0, 0, 0, 40, 46, 54, 53, 47, 0, 0, 0, 0, 0, 0, 0, 0, 0, 0, 0, 0, 0, 0, 0, 0, 0, 0, 0, 0, 0, 0, 0, 0, 0, 0, 0, 0, 0, 0, 0, 0, 0, 0, 0, 0, 0, 0, 0, 0, 0, 0, 0, 0, 0, 0, 0, 0, 0, 0, 0, 0, 0, 0, 0, 0, 0, 0, 0, 0, 0, 0, 0, 0, 40, 46, 54, 54, 49, 0, 0, 0, 0, 0, 0, 0, 0, 0, 0, 0, 0, 0, 0, 0, 0, 0, 0, 0, 0, 0, 0, 0, 0, 0, 0, 0, 0, 0, 0, 0, 0, 0, 0, 0, 0, 0, 0, 0, 0, 0, 0, 0, 0, 0, 0, 0, 0, 0, 0, 0, 0, 0, 0, 0, 0, 0, 0, 0, 0, 0, 0, 0, 0, 40, 46, 56, 54, 53, 47, 0, 0, 0, 0, 0, 0, 0, 0, 0, 0, 0, 0, 0, 0, 0, 0, 0, 0, 0, 0, 0, 0, 0, 0, 0, 0, 0, 0, 0, 0, 0, 0, 0, 0, 0, 0, 0, 0, 0, 0, 0, 0, 0, 0, 0, 0, 0, 0, 0, 0, 0, 0, 0, 0, 0, 0, 0, 0, 0, 0, 0, 0, 0, 0, 44, 54, 56, 53, 47, 0, 0, 0, 0, 0, 0, 0, 0, 0, 0, 0, 0, 0, 0, 0, 0, 0, 0, 0, 0, 0, 0, 0, 0, 0, 0, 0, 0, 0, 0, 0, 0, 0, 0, 0, 0, 0, 0, 0, 0, 0, 0, 0, 0, 0, 0, 0, 0, 0, 0, 0, 0, 0, 0, 0, 0, 0, 0, 0, 0, 0, 0, 0, 0, 40, 46, 54, 53, 47, 0, 0, 0, 0, 0, 0, 0, 0, 0, 0, 0, 0, 0, 0, 0, 0, 0, 0, 0, 0, 0, 0, 0, 0, 0, 0, 0, 0, 0, 0, 0, 0, 0, 0, 0, 0, 0, 0, 0, 0, 0, 0, 0, 0, 0, 0, 0, 0, 0, 0, 0, 0, 0, 0, 0, 0, 0, 0, 0, 0, 0, 0, 0, 0, 40, 46, 54, 53, 47, 0, 0, 0, 0, 0, 0, 0, 0, 0, 0, 0, 0, 0, 0, 0, 0, 0, 0, 0, 0, 0, 0, 0, 0, 0, 0, 0, 0, 0, 0, 0, 0, 0, 0, 0, 0, 0, 0, 0, 0, 0, 0, 0, 0, 0, 0, 0, 0, 0, 0, 0, 0, 0, 0, 0, 0, 0, 0, 0, 0, 0, 0, 0, 0, 40, 46, 54, 53, 47, 0, 0, 0, 0, 0, 0, 0, 0, 0, 0, 0, 0, 0, 0, 0, 0, 0, 0, 0, 0, 0, 0, 0, 0, 0, 0, 0, 0, 0, 0, 0, 0, 0, 0, 0, 0, 0, 0, 0, 0, 0, 0, 0, 0, 0, 0, 0, 0, 0, 0, 0, 0, 0, 0, 0, 0, 0, 0, 0, 0, 0, 0, 0, 0, 40, 46, 54, 53, 47, 0, 0, 0, 0, 0, 0, 0, 0, 0, 0, 0, 0, 0, 0, 0, 0, 0, 0, 0, 0, 0, 0, 0, 0, 0, 0, 0, 0, 0, 0, 0, 0, 0, 0, 0, 0, 0, 0, 0, 0, 0, 0, 0, 0, 0, 0, 0, 0, 0, 0, 0, 0, 0, 0, 0, 0, 0, 0, 0, 0, 0, 0, 0, 0, 40, 46, 56, 53, 47, 0, 0, 0, 0, 0, 0, 0, 0, 0, 0, 0, 0, 0, 0, 0, 0, 0, 0, 0, 0, 0, 0, 0, 0, 0, 0, 0, 0, 0, 0, 0, 0, 0, 0, 0, 0, 0, 0, 0, 0, 0, 0, 0, 0, 0, 0, 0, 0, 0, 0, 0, 0, 0, 0, 0, 0, 0, 0, 0, 0, 0, 0, 0, 0, 40, 46, 54, 53, 47, 0, 0, 0, 0, 0, 0, 0, 0, 0, 0, 0, 0, 0, 0, 0, 0, 0, 0, 0, 0, 0, 0, 0, 0, 0, 0, 0, 0, 0, 0, 0, 0, 0, 0, 0, 0, 0, 0, 0, 0, 0, 0, 0, 0, 0, 0, 0, 0, 0, 0, 0, 0, 0, 0, 0, 0, 0, 0, 0, 0, 0, 0, 0, 0, 40, 46, 55, 53, 47, 0, 0, 0, 0, 0, 0, 0, 0, 0, 0, 0, 0, 0, 0, 0, 0, 0, 0, 0, 0, 0, 0, 0, 0, 0, 40, 41, 0, 0, 0, 0, 0, 0, 0, 0, 0, 0, 0, 0, 0, 0, 0, 0, 0, 0, 0, 0, 0, 0, 0, 0, 0, 0, 0, 0, 0, 0, 0, 0, 0, 0, 0, 0, 0, 40, 46, 54, 53, 47, 0, 0, 0, 0, 0, 0, 0, 0, 0, 0, 0, 0, 0, 0, 0, 0, 0, 0, 0, 0, 0, 0, 0, 0, 0, 40, 46, 50, 41, 0, 0, 0, 0, 0, 0, 0, 0, 0, 0, 0, 0, 0, 0, 0, 0, 0, 0, 0, 0, 0, 0, 0, 0, 0, 0, 0, 0, 0, 0, 0, 0, 0, 0, 0, 40, 46, 54, 53, 47, 0, 0, 0, 0, 0, 0, 0, 0, 0, 0, 0, 0, 0, 0, 0, 0, 0, 0, 0, 0, 0, 0, 0, 0, 0, 40, 46, 54, 53, 47, 0, 0, 0, 0, 0, 0, 0, 0, 0, 0, 0, 0, 0, 0, 0, 0, 0, 0, 0, 0, 0, 0, 0, 0, 0, 0, 0, 0, 0, 0, 0, 0, 0, 0, 40, 46, 54, 53, 47, 0, 0, 0, 0, 0, 0, 0, 0, 0, 0, 0, 0, 0, 0, 0, 0, 0, 0, 0, 0, 0, 0, 0, 0, 0, 40, 46, 57, 53, 47, 0, 0, 0, 0, 0, 0, 0, 0, 0, 0, 0, 0, 0, 0, 0, 0, 0, 0, 0, 0, 0, 0, 0, 0, 0, 0, 0, 0, 0, 0, 0, 0, 0, 0, 0, 44, 57, 56, 49, 0, 0, 0, 0, 0, 0, 0, 0, 0, 0, 0, 0, 0, 0, 0, 0, 0, 0, 0, 0, 0, 0, 0, 0, 0, 40, 46, 54, 53, 47, 0, 0, 0, 0, 0, 0, 0, 0, 0, 0, 0, 0, 0, 0, 0, 0, 0, 0, 0, 0, 0, 0, 0, 0, 0, 0, 0, 0, 0, 0, 0, 0, 0, 0, 0, 0, 43, 52, 56, 49, 0, 0, 0, 0, 0, 0, 0, 0, 0, 0, 0, 0, 0, 0, 0, 0, 0, 0, 0, 0, 0, 0, 0, 0, 40, 46, 54, 53, 47, 0, 0, 0, 0, 0, 0, 0, 0, 0, 0, 0, 0, 0, 0, 0, 0, 0, 0, 0, 0, 0, 0, 0, 0, 0, 0, 0, 0, 0, 0, 0, 0, 0, 0, 0, 0, 0, 0, 44, 54, 50, 41, 0, 0, 0, 0, 0, 0, 0, 0, 0, 0, 0, 0, 0, 0, 0, 0, 0, 0, 0, 0, 0, 0, 40, 46, 54, 53, 47, 0, 0, 0, 0, 0, 0, 0, 0, 0, 0, 0, 0, 0, 0, 0, 0, 0, 0, 0, 0, 0, 0, 0, 0, 0, 0, 0, 0, 0, 0, 0, 0, 0, 0, 0, 0, 0, 0, 0, 44, 56, 54, 49, 0, 0, 0, 0, 0, 0, 0, 0, 0, 0, 0, 0, 0, 0, 0, 0, 0, 0, 0, 0, 0, 40, 46, 54, 53, 47, 0, 0, 0, 0, 0, 0, 0, 0, 0, 0, 0, 0, 0, 0, 0, 0, 0, 0, 0, 0, 0, 0, 0, 0, 0, 0, 0, 0, 0, 0, 0, 0, 0, 0, 0, 0, 0, 0, 0, 0, 44, 57, 54, 49, 0, 0, 0, 0, 0, 0, 0, 0, 0, 0, 0, 0, 0, 0, 0, 0, 0, 40, 42, 42, 42, 46, 54, 53, 47, 0, 0, 0, 0, 0, 0, 0, 0, 0, 0, 0, 0, 0, 0, 0, 0, 0, 0, 0, 0, 0, 0, 0, 0, 0, 0, 0, 0, 0, 0, 0, 0, 0, 0, 0, 0, 0, 0, 0, 0, 0, 43, 52, 56, 49, 0, 0, 0, 0, 0, 0, 40, 42, 42, 42, 42, 42, 42, 42, 42, 42, 42, 46, 54, 54, 54, 54, 53, 47, 0, 0, 0, 0, 0, 0, 0, 0, 0, 0, 0, 0, 0, 0, 0, 0, 0, 0, 0, 0, 0, 0, 0, 0, 0, 0, 0, 0, 0, 0, 0, 0, 0, 0, 0, 0, 0, 0, 0, 0, 0, 0, 0, 44, 54, 50, 42, 42, 42, 42, 42, 42, 46, 57, 56, 54, 57, 56, 56, 54, 55, 54, 54, 56, 54, 54, 57, 53, 47, 0, 0, 0, 0, 0, 0, 0, 0, 0, 0, 0, 0, 0, 0, 0, 0, 0, 0, 0, 0, 0, 0, 0, 0, 0, 0, 0, 0, 0, 0, 0, 0, 0, 0, 0, 0, 0, 0, 0, 0, 0, 0, 0, 0, 44, 54, 56, 54, 54, 54, 57, 54, 55, 54, 54, 54, 55, 54, 54, 54, 53, 51, 51, 51, 51, 51, 51, 51, 47, 0, 0, 0, 0, 0, 0, 0, 0, 0, 0, 0, 0, 0, 0, 0, 0, 0, 0, 0, 0, 0, 0, 0, 0, 0, 0, 0, 0, 0, 0, 0, 0, 0, 0, 0, 0, 0, 0, 0, 0, 0, 0, 0, 0, 0, 43, 52, 54, 54, 56, 53, 51, 51, 51, 51, 51, 51, 51, 51, 51, 51, 47, 0, 0, 0, 0, 0, 0, 0, 0, 0, 0, 0, 0, 0, 0, 0, 0, 0, 0, 0, 0, 0, 0, 0, 0, 0, 0, 0, 0, 0, 0, 0, 0, 0, 0, 0, 0, 0, 0, 0, 0, 0, 0, 0, 0, 0, 0, 0, 0, 0, 0, 0, 0, 0, 0, 43, 52, 57, 54, 50, 42, 41, 0, 0, 0, 0, 0, 0, 0, 0, 0, 0, 0, 0, 0, 0, 0, 0, 0, 0, 0, 0, 0, 0, 0, 0, 0, 0, 0, 0, 0, 0, 0, 0, 0, 0, 0, 0, 0, 0, 0, 0, 0, 0, 0, 0, 0, 0, 0, 0, 0, 0, 0, 0, 0, 0, 0, 0, 0, 0, 0, 0, 0, 0, 0, 0, 43, 51, 52, 54, 55, 50, 41, 0, 0, 0, 0, 0, 0, 0, 0, 0, 0, 0, 0, 0, 0, 0, 0, 0, 0, 0, 0, 0, 0, 0, 0, 0, 0, 0, 0, 0, 0, 0, 0, 0, 0, 0, 0, 0, 0, 0, 0, 0, 0, 0, 0, 0, 0, 0, 0, 0, 0, 0, 0, 0, 0, 0, 0, 0, 0, 0, 0, 0, 0, 0, 0, 0, 43, 52, 54, 57, 50, 42, 41, 0, 0, 0, 0, 0, 0, 0, 0, 0, 0, 0, 0, 0, 0, 0, 0, 0, 0, 0, 0, 0, 0, 0, 0, 0, 0, 0, 0, 0, 0, 0, 0, 0, 0, 0, 0, 0, 0, 0, 0, 0, 0, 0, 0, 0, 0, 0, 0, 0, 0, 0, 0, 0, 0, 0, 0, 0, 0, 0, 0, 0, 0, 0, 0, 43, 51, 52, 56, 54, 50, 41, 0, 0, 0, 0, 0, 0, 0, 0, 0, 0, 0, 0, 0, 0, 0, 0, 0, 0, 0, 0, 0, 0, 0, 0, 0, 0, 0, 0, 0, 0, 0, 0, 0, 0, 0, 0, 0, 0, 0, 0, 0, 0, 0, 0, 0, 0, 0, 0, 0, 0, 0, 0, 0, 0, 0, 0, 0, 0, 0, 0, 0, 0, 0, 0, 0, 43, 52, 54, 54, 50, 41, 0, 0, 0, 0, 0, 0, 0, 0, 0, 0, 0, 0, 0, 0, 0, 0, 0, 0, 0, 0, 0, 0, 0, 0, 0, 0, 0, 0, 0, 0, 0, 0, 0, 0, 0, 0, 0, 0, 0, 0, 0, 0, 0, 0, 0, 0, 0, 0, 0, 0, 0, 0, 0, 0, 0, 0, 0, 0, 0, 0, 0, 0, 0, 0, 0, 43, 52, 55, 54, 49, 0, 0, 0, 0, 0, 0, 0, 0, 0, 0, 0, 0, 0, 0, 0, 0, 0, 0, 0, 0, 0, 0, 0, 0, 0, 0, 0, 0, 0, 0, 0, 0, 0, 0, 0, 0, 0, 0, 0, 0, 0, 0, 0, 0, 0, 0, 0, 0, 0, 0, 0, 0, 0, 0, 0, 0, 0, 0, 0, 0, 0, 0, 0, 0, 0, 0, 44, 56, 57, 49, 0, 0, 0, 0, 0, 0, 0, 0, 0, 0, 0, 0, 0, 0, 0, 0, 0, 0, 0, 0, 0, 0, 0, 0, 0, 0, 0, 0, 0, 0, 0, 0, 0, 0, 0, 0, 0, 0, 0, 0, 0, 0, 0, 0, 0, 0, 0, 0, 0, 0, 0, 0, 0, 0, 0, 0, 0, 0, 0, 0, 0, 0, 0, 0, 0, 0, 44, 57, 55, 49, 0, 0, 0, 0, 0, 0, 0, 0, 0, 0, 0, 0, 0, 0, 0, 0, 0, 0, 0, 0, 0, 0, 0, 0, 0, 0, 0, 0, 0, 0, 0, 0, 0, 0, 0, 0, 0, 0, 0, 0, 0, 0, 0, 0, 0, 0, 0, 0, 0, 0, 0, 0, 0, 0, 0, 0, 0, 0, 0, 0, 0, 0, 0, 0, 0, 0, 44, 54, 56, 49, 0, 0, 0, 0, 0, 0, 0, 0, 0, 0, 0, 0, 0, 0, 0, 0, 0, 0, 0, 0, 0, 0, 0, 0, 0, 0, 0, 0, 0, 0, 0, 0, 0, 0, 0, 0, 0, 0, 0, 0, 0, 0, 0, 0, 0, 0, 0, 0, 0, 0, 0, 0, 0, 0, 0, 0, 0, 0, 0, 0, 0, 0, 0, 0, 0, 0, 44, 54, 57, 49, 0, 0, 0, 0, 0, 0, 0, 0, 0, 0, 0, 0, 0, 0, 0, 0, 0, 0, 0, 0, 0, 0, 0, 0, 0, 0, 0, 0, 0, 0, 0, 0, 0, 0, 0, 0, 0, 0, 0, 0, 0, 0, 0, 0, 0, 0, 0, 0, 0, 0, 0, 0, 0, 0, 0, 0, 0, 0, 0, 0, 0, 0, 0, 0, 0, 0, 44, 54, 54, 49, 0, 0, 0, 0, 0, 0, 0, 0, 0, 0, 0, 0, 0, 0, 0, 0, 0, 0, 0, 0, 0, 0, 0, 0, 0, 0, 0, 0, 0, 0, 0, 0, 0, 0, 0, 0, 0, 0, 0, 0, 0, 0, 0, 0, 0, 0, 0, 0, 0, 0, 0, 0, 0, 0, 0, 0, 0, 0, 0, 0, 0, 0, 0, 0, 0, 0, 44, 56, 54, 49, 0, 0, 0, 0, 0, 0, 0, 0, 0, 0, 0, 0, 0, 0, 0, 0, 0, 0, 0, 0, 0, 0, 0, 0, 0, 0, 0, 0, 0, 0, 0, 0, 0]}, {"id": 4, "name": "lava", "type": "tilelayer", "x": 0, "y": 0, "width": 70, "height": 45, "opacity": 1, "visible": true, "data": [0, 0, 0, 0, 0, 0, 0, 0, 0, 0, 0, 0, 0, 0, 0, 0, 0, 0, 0, 0, 0, 0, 0, 0, 0, 0, 0, 0, 0, 0, 0, 0, 0, 0, 0, 0, 0, 0, 0, 0, 0, 0, 0, 0, 0, 0, 0, 0, 0, 0, 0, 0, 0, 0, 0, 0, 0, 0, 0, 0, 0, 0, 0, 0, 0, 0, 0, 0, 0, 0, 0, 0, 0, 0, 0, 0, 0, 0, 0, 0, 0, 0, 0, 0, 0, 0, 0, 0, 0, 0, 0, 0, 0, 0, 0, 0, 0, 0, 0, 0, 0, 0, 0, 0, 0, 0, 0, 0, 0, 0, 0, 0, 0, 0, 0, 0, 0, 0, 0, 0, 0, 0, 0, 0, 0, 0, 0, 0, 0, 0, 0, 0, 0, 0, 0, 0, 0, 0, 0, 0, 0, 0, 0, 0, 0, 0, 0, 0, 0, 0, 0, 0, 0, 0, 0, 0, 0, 0, 0, 0, 0, 0, 0, 0, 0, 0, 0, 0, 0, 0, 0, 0, 0, 0, 0, 0, 0, 0, 0, 0, 0, 0, 0, 0, 0, 0, 0, 0, 0, 0, 0, 0, 0, 0, 0, 0, 0, 0, 0, 0, 0, 0, 0, 0, 0, 0, 0, 0, 0, 0, 0, 0, 0, 0, 0, 0, 0, 0, 0, 0, 0, 0, 0, 0, 0, 0, 0, 0, 0, 0, 0, 0, 0, 0, 0, 0, 0, 0, 0, 0, 0, 0, 0, 0, 0, 0, 0, 0, 0, 0, 0, 0, 0, 0, 0, 0, 0, 0, 0, 0, 0, 0, 0, 0, 0, 0, 0, 0, 0, 0, 0, 0, 0, 0, 0, 0, 0, 0, 0, 0, 0, 0, 0, 0, 0, 0, 0, 0, 0, 0, 0, 0, 0, 0, 0, 0, 0, 0, 0, 0, 0, 0, 0, 0, 0, 0, 0, 0, 0, 0, 0, 0, 0, 0, 0, 0, 0, 0, 0, 0, 0, 0, 0, 0, 0, 0, 0, 0, 0, 0, 0, 0, 0, 0, 0, 0, 0, 0, 0, 0, 0, 0, 0, 0, 0, 0, 0, 0, 0, 0, 0, 0, 0, 0, 0, 0, 0, 0, 0, 0, 0, 0, 0, 0, 0, 0, 0, 0, 0, 0, 0, 0, 0, 0, 0, 0, 0, 0, 0, 0, 0, 0, 0, 0, 0, 0, 0, 0, 0, 0, 0, 0, 0, 0, 0, 0, 0, 0, 0, 0, 0, 0, 0, 0, 0, 0, 0, 0, 0, 0, 0, 0, 0, 0, 0, 0, 0, 0, 0, 0, 0, 0, 0, 0, 0, 0, 0, 0, 0, 0, 0, 0, 59, 61, 61, 61, 61, 60, 0, 0, 0, 0, 0, 0, 0, 0, 0, 0, 0, 0, 0, 0, 0, 0, 0, 0, 0, 0, 0, 0, 0, 0, 0, 0, 0, 0, 0, 0, 0, 0, 0, 0, 0, 0, 0, 0, 0, 0, 0, 0, 0, 0, 0, 0, 0, 0, 0, 0, 0, 0, 0, 0, 0, 0, 0, 0, 0, 0, 0, 0, 59, 61, 65, 73, 74, 73, 73, 69, 60, 0, 0, 0, 0, 0, 0, 0, 0, 0, 0, 0, 0, 0, 0, 0, 0, 0, 0, 0, 0, 0, 0, 0, 0, 0, 0, 0, 0, 0, 0, 0, 0, 0, 0, 0, 59, 61, 61, 61, 61, 60, 0, 0, 0, 0, 0, 0, 0, 0, 0, 0, 0, 0, 0, 0, 0, 0, 0, 0, 0, 59, 65, 75, 74, 75, 73, 73, 75, 76, 69, 60, 0, 0, 0, 0, 0, 0, 0, 0, 0, 0, 0, 0, 0, 0, 0, 0, 0, 0, 0, 0, 0, 0, 0, 0, 0, 0, 0, 0, 0, 0, 0, 0, 59, 61, 65, 73, 73, 73, 73, 69, 60, 0, 0, 0, 0, 0, 0, 0, 0, 0, 0, 0, 0, 0, 0, 0, 0, 0, 59, 65, 76, 76, 73, 73, 73, 73, 73, 74, 75, 69, 60, 0, 0, 0, 0, 0, 0, 0, 0, 0, 0, 0, 0, 0, 0, 0, 0, 0, 0, 0, 0, 0, 0, 0, 0, 0, 0, 0, 0, 0, 0, 59, 65, 75, 73, 73, 76, 75, 73, 73, 69, 60, 0, 0, 0, 0, 0, 0, 0, 0, 0, 0, 0, 0, 0, 0, 0, 0, 63, 73, 73, 73, 74, 76, 75, 75, 74, 73, 75, 74, 68, 0, 0, 0, 0, 0, 0, 0, 0, 0, 0, 0, 0, 0, 0, 0, 0, 0, 0, 0, 0, 0, 0, 0, 0, 0, 0, 0, 0, 0, 0, 63, 73, 73, 73, 75, 75, 73, 73, 73, 73, 68, 0, 0, 0, 0, 0, 0, 0, 0, 0, 0, 0, 0, 0, 0, 0, 59, 65, 76, 73, 73, 73, 73, 74, 73, 76, 73, 73, 73, 69, 60, 0, 0, 0, 0, 0, 0, 0, 0, 0, 0, 0, 0, 0, 0, 0, 0, 0, 0, 0, 0, 0, 0, 0, 0, 0, 0, 0, 0, 0, 63, 73, 76, 74, 73, 73, 74, 74, 73, 75, 68, 0, 0, 0, 0, 0, 0, 0, 0, 0, 0, 0, 0, 0, 0, 0, 63, 73, 73, 73, 73, 73, 75, 73, 75, 76, 74, 74, 73, 72, 66, 0, 0, 0, 0, 0, 0, 0, 0, 0, 0, 0, 0, 0, 0, 0, 0, 0, 0, 0, 0, 0, 0, 0, 0, 0, 0, 0, 0, 0, 63, 73, 74, 75, 73, 73, 73, 75, 73, 74, 68, 0, 0, 0, 0, 0, 0, 0, 0, 0, 0, 0, 0, 0, 0, 0, 62, 71, 73, 73, 73, 76, 74, 76, 73, 73, 73, 73, 74, 68, 0, 0, 0, 0, 0, 0, 0, 0, 0, 0, 0, 0, 0, 0, 0, 0, 0, 0, 0, 0, 0, 0, 0, 0, 0, 0, 0, 0, 0, 0, 63, 73, 73, 73, 73, 73, 73, 75, 73, 73, 68, 0, 0, 0, 0, 0, 0, 0, 0, 0, 0, 0, 0, 0, 0, 0, 0, 63, 76, 73, 73, 73, 73, 73, 75, 73, 74, 73, 75, 68, 0, 0, 0, 0, 0, 0, 0, 0, 0, 0, 0, 0, 0, 0, 0, 0, 0, 0, 0, 0, 0, 0, 0, 0, 0, 0, 0, 0, 0, 0, 62, 71, 74, 74, 74, 73, 73, 75, 73, 73, 68, 0, 0, 0, 0, 0, 0, 0, 0, 0, 0, 0, 0, 0, 0, 0, 0, 62, 71, 73, 73, 75, 74, 75, 73, 73, 73, 75, 72, 66, 0, 0, 0, 0, 0, 0, 0, 0, 0, 0, 0, 0, 0, 0, 0, 0, 0, 0, 0, 0, 0, 0, 0, 0, 0, 0, 0, 0, 0, 0, 59, 65, 74, 73, 74, 73, 73, 75, 74, 72, 66, 0, 0, 0, 0, 0, 0, 0, 0, 0, 0, 0, 0, 0, 0, 0, 0, 0, 62, 70, 71, 73, 76, 75, 73, 73, 73, 72, 66, 0, 0, 0, 0, 0, 0, 0, 0, 0, 0, 0, 0, 0, 0, 0, 0, 0, 0, 0, 0, 0, 0, 0, 0, 0, 0, 0, 0, 0, 0, 59, 65, 73, 75, 73, 73, 74, 73, 73, 72, 66, 0, 0, 0, 0, 0, 0, 0, 0, 0, 0, 0, 0, 0, 0, 0, 0, 0, 0, 0, 0, 62, 70, 70, 70, 70, 70, 70, 66, 0, 0, 0, 0, 0, 0, 0, 0, 0, 0, 0, 0, 0, 0, 0, 0, 0, 0, 0, 0, 0, 0, 0, 0, 0, 0, 0, 0, 0, 0, 59, 65, 76, 72, 70, 70, 70, 70, 71, 73, 69, 60, 0, 0, 0, 0, 0, 0, 0, 0, 0, 0, 0, 0, 0, 0, 0, 0, 0, 0, 0, 0, 0, 0, 0, 0, 0, 0, 0, 0, 0, 0, 0, 0, 0, 0, 0, 0, 0, 0, 0, 0, 0, 0, 0, 0, 0, 0, 0, 0, 0, 0, 0, 0, 0, 0, 0, 0, 0, 59, 65, 73, 72, 66, 0, 0, 0, 0, 62, 71, 73, 69, 60, 0, 0, 0, 0, 0, 0, 0, 0, 0, 0, 0, 0, 0, 0, 0, 0, 0, 0, 0, 0, 0, 0, 0, 0, 0, 0, 0, 0, 0, 0, 0, 0, 0, 0, 0, 0, 0, 0, 0, 0, 0, 0, 0, 0, 0, 0, 0, 0, 0, 0, 0, 0, 0, 0, 0, 59, 65, 72, 70, 66, 0, 0, 0, 0, 0, 0, 62, 70, 71, 69, 60, 0, 0, 0, 0, 0, 0, 0, 0, 0, 0, 0, 0, 0, 0, 0, 0, 0, 0, 0, 0, 0, 0, 0, 0, 0, 0, 0, 0, 0, 0, 0, 0, 0, 0, 0, 0, 0, 0, 0, 0, 0, 0, 0, 0, 0, 0, 0, 0, 0, 0, 0, 0, 0, 59, 65, 73, 68, 0, 0, 0, 0, 0, 0, 0, 0, 0, 0, 63, 73, 68, 0, 0, 0, 0, 0, 0, 0, 0, 0, 0, 0, 0, 0, 0, 0, 0, 0, 0, 0, 0, 0, 0, 0, 0, 0, 0, 0, 0, 0, 0, 0, 0, 0, 0, 0, 0, 0, 0, 0, 0, 0, 0, 0, 0, 0, 0, 0, 0, 0, 0, 0, 0, 0, 63, 73, 72, 66, 0, 0, 0, 0, 0, 0, 0, 0, 0, 0, 62, 71, 69, 60, 0, 0, 0, 0, 0, 0, 0, 0, 0, 0, 0, 0, 0, 0, 0, 0, 0, 0, 0, 0, 0, 0, 0, 0, 0, 0, 0, 0, 0, 0, 0, 0, 0, 0, 0, 0, 0, 0, 0, 0, 0, 0, 0, 0, 0, 0, 0, 0, 0, 0, 0, 59, 65, 72, 66, 0, 0, 0, 0, 0, 0, 0, 0, 0, 0, 0, 0, 62, 71, 69, 60, 0, 0, 0, 0, 0, 0, 0, 0, 0, 0, 0, 0, 0, 0, 0, 0, 0, 0, 0, 0, 0, 0, 0, 0, 0, 0, 0, 0, 0, 0, 0, 0, 0, 0, 0, 0, 0, 0, 0, 0, 0, 0, 0, 0, 0, 0, 0, 0, 0, 59, 65, 72, 66, 0, 0, 0, 0, 0, 0, 0, 0, 0, 0, 0, 0, 0, 0, 62, 71, 69, 60, 0, 0, 0, 0, 0, 0, 0, 0, 0, 0, 0, 0, 0, 0, 0, 0, 0, 0, 0, 0, 0, 0, 0, 0, 0, 0, 0, 0, 0, 0, 0, 0, 0, 0, 0, 0, 0, 0, 0, 0, 0, 0, 0, 0, 0, 0, 0, 0, 63, 72, 66, 0, 0, 0, 0, 0, 0, 0, 0, 0, 0, 0, 0, 0, 0, 0, 0, 62, 71, 68, 0, 0, 0, 0, 0, 0, 0, 0, 0, 0, 0, 0, 0, 0, 0, 0, 0, 0, 0, 0, 0, 0, 0, 0, 0, 0, 0, 0, 0, 0, 0, 0, 0, 0, 0, 0, 0, 0, 0, 0, 0, 0, 0, 0, 0, 0, 0, 0, 62, 66, 0, 0, 0, 0, 0, 0, 0, 0, 0, 0, 0, 0, 0, 0, 0, 0, 0, 0, 62, 66, 0, 0, 0, 0, 0, 0, 0, 0, 0, 0, 0, 0, 0, 0, 0, 0, 0, 0, 0, 0, 0, 0, 0, 0, 0, 0, 0, 0, 0, 0, 0, 0, 0, 0, 0, 0, 0, 0, 0, 0, 0, 0, 0, 0, 0, 0, 0, 0, 0, 0, 0, 0, 0, 0, 0, 0, 0, 0, 0, 0, 0, 0, 0, 0, 0, 0, 0, 0, 0, 0, 0, 0, 0, 0, 0, 0, 0, 0, 0, 0, 0, 0, 0, 0, 0, 0, 0, 0, 0, 0, 0, 0, 0, 0, 0, 0, 0, 0, 0, 0, 0, 0, 0, 0, 0, 0, 0, 0, 0, 0, 0, 0, 0, 0, 0, 0, 0, 0, 0, 0, 0, 0, 0, 0, 0, 0, 0, 0, 0, 0, 0, 0, 0, 0, 0, 0, 0, 0, 0, 0, 0, 0, 0, 0, 0, 0, 0, 0, 0, 0, 0, 0, 0, 0, 0, 0, 0, 0, 0, 0, 0, 0, 0, 0, 0, 0, 0, 0, 0, 0, 0, 0, 0, 0, 0, 0, 0, 0, 0, 0, 0, 0, 0, 0, 0, 0, 0, 0, 0, 0, 0, 0, 0, 0, 0, 0, 0, 0, 0, 0, 0, 0, 0, 0, 0, 0, 0, 0, 0, 0, 0, 0, 0, 0, 0, 0, 0, 0, 0, 0, 0, 0, 0, 0, 0, 0, 0, 0, 0, 0, 0, 0, 0, 0, 0, 0, 0, 0, 0, 0, 0, 0, 0, 0, 0, 0, 0, 0, 0, 0, 0, 0, 0, 0, 0, 0, 0, 0, 0, 0, 0, 0, 0, 0, 0, 0, 0, 0, 0, 0, 0, 0, 0, 0, 0, 0, 0, 0, 0, 0, 0, 0, 0, 0, 0, 0, 0, 0, 0, 0, 0, 0, 0, 0, 0, 0, 0, 0, 0, 0, 0, 0, 0, 0, 0, 0, 0, 0, 0, 0, 0, 0, 0, 0, 0, 0, 0, 0, 0, 0, 0, 0, 0, 0, 0, 0, 0, 0, 0, 0, 0, 0, 0, 0, 0, 0, 0, 0, 0, 0, 0, 0, 0, 0, 0, 0, 0, 0, 0, 0, 0, 0, 0, 0, 0, 0, 0, 0, 0, 0, 0, 0, 59, 61, 61, 61, 61, 61, 60, 0, 0, 0, 0, 0, 0, 0, 0, 0, 0, 0, 0, 0, 0, 0, 0, 0, 0, 0, 0, 0, 0, 0, 0, 0, 0, 0, 0, 0, 0, 0, 0, 0, 0, 0, 0, 0, 0, 0, 0, 0, 0, 0, 0, 0, 0, 0, 0, 0, 0, 0, 0, 0, 0, 0, 0, 0, 0, 0, 0, 0, 0, 59, 65, 75, 73, 73, 73, 75, 69, 61, 60, 0, 0, 0, 0, 0, 0, 0, 0, 0, 0, 0, 0, 0, 0, 0, 0, 0, 0, 0, 0, 0, 0, 0, 0, 0, 0, 0, 0, 0, 0, 0, 0, 0, 0, 0, 0, 0, 0, 0, 0, 0, 0, 0, 0, 0, 0, 0, 0, 0, 0, 0, 0, 0, 0, 0, 0, 0, 0, 0, 59, 65, 76, 73, 73, 73, 73, 76, 73, 73, 68, 0, 0, 0, 0, 0, 0, 0, 0, 0, 0, 0, 0, 0, 0, 0, 0, 0, 0, 0, 0, 0, 0, 0, 0, 0, 0, 0, 0, 0, 0, 0, 0, 0, 0, 0, 0, 59, 61, 60, 0, 0, 0, 0, 0, 0, 0, 0, 0, 0, 0, 0, 0, 0, 0, 0, 0, 0, 0, 0, 63, 73, 73, 73, 73, 73, 73, 76, 73, 73, 69, 60, 0, 0, 0, 0, 0, 0, 0, 0, 0, 0, 0, 0, 0, 0, 0, 0, 0, 0, 0, 0, 0, 0, 0, 0, 0, 0, 0, 0, 0, 0, 0, 0, 0, 59, 61, 65, 73, 69, 61, 60, 0, 0, 0, 0, 0, 0, 0, 0, 0, 0, 0, 0, 0, 0, 0, 0, 0, 0, 63, 73, 75, 73, 76, 73, 73, 75, 73, 73, 73, 68, 0, 0, 0, 0, 0, 0, 0, 0, 0, 0, 0, 0, 0, 0, 0, 0, 0, 0, 0, 0, 0, 0, 0, 0, 0, 0, 0, 0, 0, 0, 0, 0, 59, 65, 73, 73, 73, 73, 76, 69, 60, 0, 0, 0, 0, 0, 0, 0, 0, 0, 0, 0, 0, 0, 0, 0, 0, 0, 63, 73, 73, 73, 74, 75, 73, 73, 75, 73, 76, 68, 0, 0, 0, 0, 0, 0, 0, 0, 0, 0, 0, 0, 0, 0, 0, 0, 0, 0, 0, 0, 0, 0, 0, 0, 0, 0, 0, 0, 0, 0, 0, 59, 65, 73, 75, 73, 73, 73, 73, 73, 68, 0, 0, 0, 0, 0, 0, 0, 0, 0, 0, 0, 0, 0, 0, 0, 0, 0, 63, 73, 76, 75, 75, 73, 73, 73, 74, 73, 72, 66, 0, 0, 0, 0, 0, 0, 0, 0, 0, 0, 0, 0, 0, 0, 0, 0, 0, 0, 0, 0, 0, 0, 0, 0, 0, 0, 0, 0, 0, 0, 0, 63, 73, 76, 73, 74, 73, 75, 75, 73, 68, 0, 0, 0, 0, 0, 0, 0, 0, 0, 0, 0, 0, 0, 0, 0, 0, 0, 62, 71, 73, 76, 73, 74, 73, 73, 73, 73, 68, 0, 0, 0, 0, 0, 0, 0, 0, 0, 0, 0, 0, 0, 0, 0, 0, 0, 0, 0, 0, 0, 0, 0, 0, 0, 0, 0, 0, 0, 0, 0, 0, 63, 73, 74, 73, 76, 73, 73, 73, 73, 68, 0, 0, 0, 0, 0, 0, 0, 0, 0, 0, 0, 0, 0, 0, 0, 0, 0, 0, 62, 70, 71, 74, 74, 74, 73, 72, 70, 66, 0, 0, 0, 0, 0, 0, 0, 0, 0, 0, 0, 0, 0, 0, 0, 0, 0, 0, 0, 0, 0, 0, 0, 0, 0, 0, 0, 0, 0, 0, 0, 0, 62, 71, 75, 73, 73, 73, 73, 73, 72, 66, 0, 0, 0, 0, 0, 0, 0, 0, 0, 0, 0, 0, 0, 0, 0, 0, 0, 0, 0, 0, 62, 70, 70, 70, 70, 66, 0, 0, 0, 0, 0, 0, 0, 0, 0, 0, 0, 0, 0, 0, 0, 0, 0, 0, 0, 0, 0, 0, 0, 0, 0, 0, 0, 0, 0, 0, 0, 0, 0, 0, 0, 62, 71, 73, 76, 73, 73, 72, 66, 0, 0, 0, 0, 0, 0, 0, 0, 0, 0, 0, 0, 0, 0, 0, 0, 0, 0, 0, 0, 0, 0, 0, 0, 0, 0, 0, 0, 0, 0, 0, 0, 0, 0, 0, 0, 0, 0, 0, 0, 0, 0, 0, 0, 0, 0, 0, 0, 0, 0, 0, 0, 0, 0, 0, 0, 0, 0, 0, 0, 0, 0, 0, 62, 70, 70, 70, 70, 66, 0, 0, 0, 0, 0, 0, 0, 0, 0, 0, 0, 0, 0, 0, 0, 0, 0, 0, 0, 0, 0, 0, 0, 0, 0, 0, 0, 0, 0, 0, 0, 0, 0, 0, 0, 0, 0, 0, 0, 0, 0, 0, 0, 0, 0, 0, 0, 0, 0, 0, 0, 0, 0, 0, 0, 0, 0, 0, 0, 0, 0, 0, 0, 0, 0, 0, 0, 0, 0, 0, 0, 0, 0, 0, 0, 0, 0, 0, 0, 0, 0, 0, 0, 0, 0, 0, 0, 0, 0, 0, 0, 0, 0, 0, 0, 0, 0, 0, 0, 0, 0, 0, 0, 0, 0, 0, 0, 0, 0, 0, 0, 0, 0, 0, 0, 0, 0, 0, 0, 0, 0, 0, 0, 0, 0, 0, 0, 0, 0, 0, 0, 0, 0, 0, 0, 0, 0, 0, 0, 0, 0, 0, 0, 0, 0, 0, 0, 0, 0, 0, 0, 0, 0, 0, 0, 0, 0, 0, 0, 0, 0, 0, 0, 0, 0, 0, 0, 0, 0, 0, 0, 0, 0, 0, 0, 0, 0, 0, 0, 0, 0, 0, 0, 0, 0, 0, 0, 0, 0, 0, 0, 0, 0, 0, 0, 0, 0, 0, 0, 0, 0, 0, 0, 0, 0, 0, 0, 0, 0, 0, 0, 0, 0, 0, 0, 0, 0, 0, 0, 0, 0, 0, 0]}, {"id": 5, "name": "Above Player", "type": "tilelayer", "x": 0, "y": 0, "width": 70, "height": 45, "opacity": 1, "visible": true, "data": [0, 0, 0, 0, 0, 0, 0, 0, 0, 0, 0, 0, 0, 0, 0, 0, 0, 0, 0, 0, 0, 0, 0, 0, 0, 0, 0, 0, 0, 0, 0, 0, 0, 0, 0, 0, 0, 0, 0, 0, 0, 0, 0, 0, 0, 0, 0, 0, 0, 0, 0, 0, 0, 0, 0, 0, 0, 0, 0, 0, 0, 0, 0, 0, 0, 0, 0, 0, 0, 0, 0, 0, 0, 0, 0, 0, 0, 0, 0, 0, 0, 0, 0, 0, 0, 0, 0, 0, 0, 0, 0, 0, 0, 0, 0, 0, 0, 0, 0, 0, 0, 0, 0, 0, 0, 0, 0, 0, 0, 0, 0, 0, 0, 0, 0, 0, 0, 0, 0, 0, 0, 0, 0, 0, 0, 0, 0, 0, 0, 0, 0, 0, 0, 0, 0, 0, 0, 0, 0, 0, 0, 0, 0, 0, 0, 0, 0, 0, 0, 0, 0, 0, 0, 0, 0, 0, 0, 0, 0, 0, 0, 0, 0, 0, 0, 0, 0, 0, 0, 0, 0, 0, 0, 0, 0, 0, 0, 0, 0, 0, 0, 0, 0, 0, 0, 0, 0, 0, 0, 0, 0, 0, 0, 0, 0, 0, 0, 0, 0, 0, 0, 0, 0, 0, 0, 0, 0, 0, 0, 0, 0, 0, 0, 0, 0, 0, 0, 0, 0, 0, 0, 0, 0, 0, 0, 0, 0, 0, 0, 0, 0, 0, 0, 0, 0, 0, 0, 0, 0, 0, 0, 0, 0, 0, 0, 0, 0, 0, 0, 0, 0, 0, 0, 0, 0, 0, 0, 0, 0, 0, 0, 0, 0, 0, 0, 0, 0, 0, 0, 0, 0, 0, 0, 0, 0, 0, 0, 0, 0, 0, 0, 0, 0, 0, 0, 0, 0, 0, 0, 0, 0, 0, 0, 0, 0, 0, 0, 0, 0, 0, 0, 0, 0, 0, 0, 0, 0, 0, 0, 0, 0, 0, 0, 0, 0, 0, 0, 0, 0, 0, 0, 0, 0, 0, 0, 0, 0, 0, 0, 0, 0, 0, 0, 0, 0, 0, 0, 0, 0, 0, 0, 0, 0, 0, 0, 0, 0, 0, 0, 0, 0, 0, 0, 0, 0, 0, 0, 0, 0, 0, 0, 0, 0, 0, 0, 0, 0, 0, 0, 0, 0, 0, 0, 0, 0, 0, 0, 0, 0, 0, 0, 0, 0, 0, 0, 0, 0, 0, 0, 0, 0, 0, 0, 0, 0, 0, 0, 0, 0, 0, 0, 0, 0, 0, 0, 0, 0, 0, 0, 0, 0, 0, 0, 0, 0, 0, 0, 0, 0, 0, 0, 0, 0, 0, 0, 0, 0, 0, 0, 0, 0, 0, 0, 0, 0, 0, 0, 0, 0, 0, 0, 0, 0, 0, 0, 0, 0, 0, 0, 0, 0, 0, 0, 0, 0, 0, 0, 0, 0, 0, 0, 0, 0, 0, 0, 0, 0, 0, 0, 0, 0, 0, 0, 0, 0, 0, 0, 0, 0, 0, 0, 0, 0, 0, 0, 0, 0, 0, 0, 0, 0, 0, 0, 0, 0, 0, 0, 0, 0, 0, 0, 0, 0, 0, 0, 0, 0, 0, 0, 0, 0, 0, 0, 0, 0, 0, 0, 0, 0, 0, 0, 0, 0, 0, 0, 0, 0, 0, 0, 0, 0, 0, 0, 0, 0, 0, 0, 0, 0, 0, 0, 0, 0, 0, 0, 0, 0, 0, 0, 0, 0, 0, 0, 0, 0, 0, 0, 0, 0, 0, 0, 0, 0, 0, 0, 0, 0, 0, 0, 0, 0, 0, 0, 0, 0, 0, 0, 0, 0, 0, 0, 0, 0, 0, 0, 0, 0, 0, 0, 0, 0, 0, 0, 0, 0, 0, 0, 0, 0, 0, 0, 0, 0, 0, 0, 0, 0, 0, 0, 0, 0, 0, 0, 0, 0, 0, 0, 0, 0, 0, 0, 0, 0, 0, 0, 0, 0, 0, 0, 0, 0, 0, 0, 0, 0, 0, 0, 0, 0, 0, 0, 0, 0, 0, 0, 0, 0, 0, 0, 0, 0, 0, 0, 0, 0, 0, 0, 0, 0, 0, 0, 0, 0, 0, 0, 0, 0, 0, 0, 0, 0, 0, 0, 0, 0, 0, 0, 0, 0, 0, 0, 0, 0, 0, 0, 0, 0, 0, 0, 0, 0, 0, 0, 0, 0, 0, 0, 0, 0, 0, 0, 0, 0, 0, 0, 0, 0, 0, 0, 0, 0, 0, 0, 0, 0, 0, 0, 0, 0, 0, 0, 0, 0, 0, 0, 0, 0, 0, 0, 0, 0, 0, 0, 0, 0, 0, 0, 0, 0, 0, 0, 0, 0, 0, 0, 0, 0, 0, 0, 0, 0, 0, 0, 0, 0, 0, 0, 0, 0, 0, 0, 0, 0, 0, 0, 0, 0, 0, 0, 0, 0, 0, 0, 0, 0, 0, 0, 0, 0, 0, 0, 0, 0, 0, 0, 0, 0, 0, 0, 0, 0, 0, 0, 0, 0, 0, 0, 0, 0, 0, 0, 0, 0, 0, 0, 0, 0, 0, 0, 0, 0, 0, 0, 0, 0, 0, 0, 0, 0, 0, 0, 0, 0, 0, 0, 0, 0, 0, 0, 0, 0, 0, 0, 0, 0, 0, 0, 0, 0, 0, 0, 0, 0, 0, 0, 0, 0, 0, 0, 0, 0, 0, 0, 0, 0, 0, 0, 0, 0, 0, 0, 0, 0, 0, 0, 0, 0, 0, 0, 0, 0, 0, 0, 0, 0, 0, 0, 0, 0, 0, 0, 0, 0, 0, 0, 0, 0, 0, 0, 0, 0, 0, 0, 0, 0, 0, 0, 0, 0, 0, 0, 0, 0, 0, 0, 0, 0, 0, 0, 0, 0, 0, 0, 0, 0, 0, 0, 0, 0, 0, 0, 0, 0, 0, 0, 0, 0, 0, 0, 0, 0, 0, 0, 0, 0, 0, 0, 0, 0, 0, 0, 0, 0, 0, 0, 0, 0, 0, 0, 0, 0, 0, 0, 0, 0, 0, 0, 0, 0, 0, 0, 0, 0, 0, 0, 0, 0, 0, 0, 0, 0, 0, 0, 0, 0, 0, 0, 0, 0, 0, 0, 0, 0, 0, 0, 0, 0, 0, 0, 0, 0, 0, 0, 0, 0, 0, 0, 0, 0, 0, 0, 0, 0, 0, 0, 0, 0, 0, 0, 0, 0, 0, 0, 0, 0, 0, 0, 0, 0, 0, 0, 0, 0, 0, 0, 0, 0, 0, 0, 0, 0, 0, 0, 0, 0, 0, 0, 0, 0, 0, 0, 0, 0, 0, 0, 0, 0, 0, 0, 0, 0, 0, 0, 0, 0, 0, 0, 0, 0, 0, 0, 0, 0, 0, 0, 0, 0, 0, 0, 0, 0, 0, 0, 0, 0, 0, 0, 0, 0, 0, 0, 0, 0, 0, 0, 0, 0, 0, 0, 0, 0, 0, 0, 0, 0, 0, 0, 0, 0, 0, 0, 0, 0, 0, 0, 0, 0, 0, 0, 0, 0, 0, 0, 0, 0, 0, 0, 0, 0, 0, 0, 0, 0, 0, 0, 0, 0, 0, 0, 0, 0, 0, 0, 0, 0, 0, 0, 0, 0, 0, 0, 0, 0, 0, 0, 0, 0, 0, 0, 0, 0, 0, 0, 0, 0, 0, 0, 0, 0, 0, 0, 0, 0, 0, 0, 0, 0, 0, 0, 0, 0, 0, 0, 0, 0, 0, 0, 0, 0, 0, 0, 0, 0, 0, 0, 0, 0, 0, 0, 0, 0, 0, 0, 0, 0, 0, 0, 0, 0, 0, 0, 0, 0, 0, 0, 0, 0, 0, 0, 0, 0, 0, 0, 0, 0, 0, 0, 0, 0, 0, 0, 0, 0, 0, 0, 0, 0, 0, 0, 0, 0, 0, 0, 0, 0, 0, 0, 0, 0, 0, 0, 0, 0, 0, 0, 0, 0, 0, 0, 0, 0, 0, 0, 0, 0, 0, 0, 0, 0, 0, 0, 0, 0, 0, 0, 0, 0, 0, 0, 0, 0, 0, 0, 0, 0, 0, 0, 0, 0, 0, 0, 0, 0, 0, 0, 0, 0, 0, 0, 0, 0, 0, 0, 0, 0, 0, 0, 0, 0, 0, 0, 0, 0, 0, 0, 0, 0, 0, 0, 0, 0, 0, 0, 0, 0, 0, 0, 0, 0, 0, 0, 0, 0, 0, 0, 0, 0, 0, 0, 0, 0, 0, 0, 0, 0, 0, 0, 0, 0, 0, 0, 0, 0, 0, 0, 0, 0, 0, 0, 0, 0, 0, 0, 0, 0, 0, 0, 0, 0, 0, 0, 0, 0, 0, 0, 0, 0, 0, 0, 0, 0, 0, 0, 0, 0, 0, 0, 0, 0, 0, 0, 0, 0, 0, 0, 0, 0, 0, 0, 0, 0, 0, 0, 0, 0, 0, 0, 0, 0, 0, 0, 0, 0, 0, 0, 0, 0, 0, 0, 0, 0, 0, 0, 0, 0, 0, 0, 0, 0, 0, 0, 0, 0, 0, 0, 0, 0, 0, 0, 0, 0, 0, 0, 0, 0, 0, 0, 0, 0, 0, 0, 0, 0, 0, 0, 0, 0, 0, 0, 0, 0, 0, 0, 0, 0, 0, 0, 0, 0, 0, 0, 0, 0, 0, 0, 0, 0, 0, 0, 0, 0, 0, 0, 0, 0, 0, 0, 0, 0, 0, 0, 0, 0, 0, 0, 0, 0, 0, 0, 0, 0, 0, 0, 0, 0, 0, 0, 0, 0, 0, 0, 0, 0, 0, 0, 0, 0, 0, 0, 0, 0, 0, 0, 0, 0, 0, 0, 0, 0, 0, 0, 0, 0, 0, 0, 0, 0, 0, 0, 0, 0, 0, 0, 0, 0, 0, 0, 0, 0, 0, 0, 0, 0, 0, 0, 0, 0, 0, 0, 0, 0, 0, 0, 0, 0, 0, 0, 0, 0, 0, 0, 0, 0, 0, 0, 0, 0, 0, 0, 0, 0, 0, 0, 0, 0, 0, 0, 0, 0, 0, 0, 0, 0, 0, 0, 0, 0, 0, 0, 0, 0, 0, 0, 0, 0, 0, 0, 0, 0, 0, 0, 0, 0, 0, 0, 0, 0, 0, 0, 0, 0, 0, 0, 0, 0, 0, 0, 0, 0, 0, 0, 0, 0, 0, 0, 0, 0, 0, 0, 0, 0, 0, 0, 0, 0, 0, 0, 0, 0, 0, 0, 0, 0, 0, 0, 0, 0, 0, 0, 0, 0, 0, 0, 0, 0, 0, 0, 0, 0, 0, 0, 0, 0, 0, 0, 0, 0, 0, 0, 0, 0, 0, 0, 0, 0, 0, 0, 0, 0, 0, 0, 0, 0, 0, 0, 0, 0, 0, 0, 0, 0, 0, 0, 0, 0, 0, 0, 0, 0, 0, 0, 0, 0, 0, 0, 0, 0, 0, 0, 0, 0, 0, 0, 0, 0, 0, 0, 0, 0, 0, 0, 0, 0, 0, 0, 0, 0, 0, 0, 0, 0, 0, 0, 0, 0, 0, 0, 0, 0, 0, 0, 0, 0, 0, 0, 0, 0, 0, 0, 0, 0, 0, 0, 0, 0, 0, 0, 0, 0, 0, 0, 0, 0, 0, 0, 0, 0, 0, 0, 0, 0, 0, 0, 0, 0, 0, 0, 0, 0, 0, 0, 0, 0, 0, 0, 0, 0, 0, 0, 0, 0, 0, 0, 0, 0, 0, 0, 0, 0, 0, 0, 0, 0, 0, 0, 0, 0, 0, 0, 0, 0, 0, 0, 0, 0, 0, 0, 0, 0, 0, 0, 0, 0, 0, 0, 0, 0, 0, 0, 0, 0, 0, 0, 0, 0, 0, 0, 0, 0, 0, 0, 0, 0, 0, 0, 0, 0, 0, 0, 0, 0, 0, 0, 0, 0, 0, 0, 0, 0, 0, 0, 0, 0, 0, 0, 0, 0, 0, 0, 0, 0, 0, 0, 0, 0, 0, 0, 0, 0, 0, 0, 0, 0, 0, 0, 0, 0, 0, 0, 0, 0, 0, 0, 0, 0, 0, 0, 0, 0, 0, 0, 0, 0, 0, 0, 0, 0, 0, 0, 0, 0, 0, 0, 0, 0, 0, 0, 0, 0, 0, 0, 0, 0, 0, 0, 0, 0, 0, 0, 0, 0, 0, 0, 0, 0, 0, 0, 0, 0, 0, 0, 0, 0, 0, 0, 0, 0, 0, 0, 0, 0, 0, 0, 0, 0, 0, 0, 0, 0, 0, 0, 0, 0, 0, 0, 0, 0, 0, 0, 0, 0, 0, 0, 0, 0, 0, 0, 0, 0, 0, 0, 0, 0, 0, 0, 0, 0, 0, 0, 0, 0, 0, 0, 0, 0, 0, 0, 0, 0, 0, 0, 0, 0, 0, 0, 0, 0, 0, 0, 0, 0, 0, 0, 0, 0, 0, 0, 0, 0, 0, 0, 0, 0, 0, 0, 0, 0, 0, 0, 0, 0, 0, 0, 0, 0, 0, 0, 0, 0, 0, 0, 0, 0, 0, 0, 0, 0, 0, 0, 0, 0, 0, 0, 0, 0, 0, 0, 0, 0, 0, 0, 0, 0, 0, 0, 0, 0, 0, 0, 0, 0, 0, 0, 0, 0, 0, 0, 0, 0, 0, 0, 0, 0, 0, 0, 0, 0, 0, 0, 0, 0, 0, 0, 0, 0, 0, 0, 0, 0, 0, 0, 0, 0, 0, 0, 0, 0, 0, 0, 0, 0, 0, 0, 0, 0, 0, 0, 0, 0, 0, 0, 0, 0, 0, 0, 0, 0, 0, 0, 0, 0, 0, 0, 0, 0, 0, 0, 0, 0, 0, 0, 0, 0, 0, 0, 0, 0, 0, 0, 0, 0, 0, 0, 0, 0, 0, 0, 0, 0, 0, 0, 0, 0, 0, 0, 0, 0, 0, 0, 0, 0, 0, 0, 0, 0, 0, 0, 0, 0, 0, 0, 0, 0, 0, 0, 0, 0, 0, 0, 0, 0, 0, 0, 0, 0, 0, 0, 0, 0, 0, 0, 0, 0, 0, 0, 0, 0, 0, 0, 0, 0, 0, 0, 0, 0, 0, 0, 0, 0, 0, 0, 0, 0, 0, 0, 0, 0, 0, 0, 0, 0, 0, 0, 0, 0, 0, 0, 0, 0, 0, 0, 0, 0, 0, 0, 0, 0, 0, 0, 0, 0, 0, 0, 0, 0, 0, 0, 0, 0, 0, 0, 0, 0, 0, 0, 0, 0, 0, 0, 0, 0, 0, 0, 0, 0, 0, 0, 0, 0, 0, 0, 0, 0, 0, 0, 0, 0, 0, 0, 0, 0, 0, 0, 0, 0, 0, 0, 0, 0, 0, 0, 0, 0, 0, 0, 0, 0, 0, 0, 0, 0, 0, 0, 0, 0, 0, 0, 0, 0, 0, 0, 0, 0, 0, 0, 0, 0, 0, 0, 0, 0, 0, 0, 0, 0, 0, 0, 0, 0, 0, 0, 0, 0, 0, 0, 0, 0, 0, 0, 0, 0, 0, 0, 0, 0, 0, 0, 0, 0, 0, 0, 0, 0, 0, 0, 0, 0, 0, 0, 0, 0, 0, 0, 0, 0, 0, 0, 0, 0, 0, 0, 0, 0, 0, 0, 0, 0, 0, 0, 0, 0, 0, 0, 0, 0, 0, 0, 0, 0, 0, 0, 0, 0, 0, 0, 0, 0, 0, 0, 0, 0, 0, 0, 0, 0, 0, 0, 0, 0, 0, 0, 0, 0, 0, 0, 0, 0, 0, 0, 0, 0, 0, 0, 0, 0, 0, 0, 0, 0, 0, 0, 0, 0, 0, 0, 0, 0, 0, 0, 0, 0, 0, 0, 0, 0, 0, 0, 0, 0, 0, 0, 0, 0, 0, 0, 0, 0, 0, 0, 0, 0, 0, 0, 0, 0, 0, 0, 0, 0, 0, 0, 0, 0, 0, 0, 0, 0, 0, 0, 0, 0, 0, 0, 0, 0, 0, 0, 0, 0, 0, 0, 0, 0, 0, 0, 0, 0, 0, 0, 0, 0, 0, 0, 0, 0, 0, 0, 0, 0, 0, 0, 0, 0, 0, 0, 0, 0, 0, 0, 0, 0, 0, 0, 0, 0, 0, 0, 0, 0, 0, 0, 0, 0, 0, 0, 0, 0, 0, 0, 0, 0, 0, 0, 0, 0, 0, 0, 0, 0, 0, 0, 0, 0, 0, 0, 0, 0, 0, 0, 0, 0, 0, 0, 0, 0, 0, 0, 0, 0, 0, 0, 0, 0, 0, 0, 0, 0, 0, 0, 0, 0, 0, 0, 0, 0, 0, 0, 0, 0, 0, 0, 0, 0, 0, 0, 0, 0, 0, 0, 0, 0, 0, 0, 0, 0, 0, 0, 0, 0, 0, 0, 0, 0, 0, 0, 0, 0, 0, 0, 0, 0, 0, 0, 0, 0, 0, 0, 0, 0, 0, 0, 0, 0, 0, 0, 0, 0, 0, 0, 0, 0, 0, 0, 0, 0, 0, 0, 0, 0, 0, 0, 0, 0, 0, 0, 0, 0, 0, 0, 0, 0, 0, 0, 0, 0, 0, 0, 0, 0, 0, 0, 0, 0, 0, 0, 0, 0, 0, 0, 0, 0, 0, 0, 0, 0, 0, 0, 0, 0, 0, 0, 0, 0, 0, 0, 0, 0, 0, 0, 0, 0, 0, 0, 0, 0, 0, 0, 0, 0, 0, 0, 0, 0, 0, 0, 0, 0, 0, 0, 0, 0, 0, 0, 0, 0, 0, 0, 0, 0, 0, 0, 0, 0, 0, 0, 0, 0, 0, 0, 0, 0, 0, 0, 0, 0, 0, 0, 0, 0, 0, 0, 0, 0, 0, 0, 0, 0, 0, 0, 0, 0, 0, 0, 0, 0, 0, 0, 0, 0, 0, 0, 0, 0, 0, 0, 0, 0, 0, 0, 0, 0, 0, 0, 0, 0, 0, 0, 0, 0, 0, 0, 0, 0, 0, 0, 0, 0, 0, 0, 0, 0, 0, 0, 0, 0, 0, 0, 0, 0, 0, 0, 0, 0, 0, 0, 0, 0, 0, 0, 0, 0, 0, 0, 0, 0, 0, 0, 0, 0, 0, 0, 0, 0, 0, 0, 0, 0, 0, 0, 0, 0, 0, 0, 0, 0, 0, 0, 0, 0, 0, 0, 0, 0, 0, 0, 0, 0, 0, 0, 0, 0, 0, 0, 0, 0, 0, 0, 0, 0, 0, 0, 0, 0, 0, 0, 0, 0, 0, 0, 0, 0, 0, 0, 0, 0, 0, 0, 0, 0, 0, 0, 0, 0, 0, 0, 0, 0, 0, 0, 0, 0, 0, 0, 0, 0, 0, 0, 0, 0, 0, 0, 0, 0, 0, 0, 0, 0, 0, 0, 0, 0, 0, 0, 0, 0, 0, 0, 0, 0, 0, 0, 0, 0, 0, 0, 0, 0, 0, 0, 0, 0, 0, 0, 0, 0, 0, 0, 0, 0, 0, 0, 0, 0, 0, 0, 0, 0, 0, 0, 0, 0, 0, 0, 0, 0, 0, 0, 0, 0, 0, 0, 0, 0, 0, 0, 0, 0, 0, 0, 0, 0, 0, 0, 0, 0, 0, 0, 0, 0, 0, 0, 0, 0, 0, 0, 0, 0, 0, 0, 0, 0, 0, 0, 0, 0, 0, 0, 0, 0, 0, 0, 0, 0, 0, 0, 0, 0, 0, 0, 0, 0, 0, 0, 0, 0, 0, 0, 0, 0, 0, 0, 0, 0, 0, 0, 0, 0, 0, 0, 0, 0, 0, 0, 0, 0, 0, 0, 0, 0, 0, 0, 0, 0, 0, 0, 0, 0, 0, 0, 0, 0, 0, 0, 0, 0, 0, 0, 0, 0, 0, 0, 0, 0, 0, 0, 0, 0, 0, 0, 0, 0, 0, 0, 0, 0, 0, 0, 0, 0, 0, 0, 0, 0, 0, 0, 0, 0, 0, 0, 0, 0, 0, 0, 0, 0, 0, 0, 0, 0, 0, 0, 0, 0, 0, 0, 0, 0, 0, 0, 0, 0, 0, 0, 0, 0, 0, 0, 0, 0, 0, 0, 0, 0, 0, 0, 0, 0, 0, 0, 0]}, {"id": 6, "name": "Objects", "type": "objectgroup", "x": 0, "y": 0, "opacity": 1, "visible": true, "draworder": "topdown", "objects": [{"id": 1, "name": "Spawn Point", "type": "", "x": 1120, "y": 1376, "width": 0, "height": 0, "rotation": 0, "visible": true, "point": true}, {"id": 2, "name": "crater-timanfaya", "type": "hito", "x": 1216, "y": 320, "width": 0, "height": 0, "rotation": 0, "visible": true, "point": true}, {"id": 3, "name": "crater-timanfaya", "type": "zona", "x": 1216, "y": 288, "width": 0, "height": 0, "rotation": 0, "visible": true, "point": true}, {"id": 4, "name": "murcielago", "type": "enemigo", "x": 640, "y": 640, "width": 0, "height": 0, "rotation": 0, "visible": true, "point": true}, {"id": 5, "name": "murcielago", "type": "enemigo", "x": 1472, "y": 576, "width": 0, "height": 0, "rotation": 0, "visible": true, "point": true}, {"id": 6, "name": "murcielago", "type": "enemigo", "x": 960, "y": 1216, "width": 0, "height": 0, "rotation": 0, "visible": true, "point": true}, {"id": 7, "name": "murcielago", "type": "enemigo", "x": 1856, "y": 960, "width": 0, "height": 0, "rotation": 0, "visible": true, "point": true}, {"id": 8, "name": "murcielago", "type": "enemigo", "x": 320, "y": 832, "width": 0, "height": 0, "rotation": 0, "visible": true, "point": true}, {"id": 9, "name": "murcielago", "type": "enemigo", "x": 1408, "y": 1280, "width": 0, "height": 0, "rotation": 0, "visible": true, "point": true}, {"id": 10, "name": "esqueleto", "type": "enemigo", "x": 1280, "y": 384, "width": 0, "height": 0, "rotation": 0, "visible": true, "point": true}, {"id": 11, "name": "esqueleto", "type": "enemigo", "x": 576, "y": 960, "width": 0, "height": 0, "rotation": 0, "visible": true, "point": true}, {"id": 12, "name": "aguja-volcanica", "type": "decor", "x": 663, "y": 1233, "width": 0, "height": 0, "rotation": 0, "visible": true, "point": true, "properties": [{"name": "solido", "type": "bool", "value": true}]}, {"id": 13, "name": "aguja-volcanica", "type": "decor", "x": 523, "y": 565, "width": 0, "height": 0, "rotation": 0, "visible": true, "point": true, "properties": [{"name": "solido", "type": "bool", "value": true}]}, {"id": 14, "name": "aguja-volcanica", "type": "decor", "x": 2010, "y": 89, "width": 0, "height": 0, "rotation": 0, "visible": true, "point": true, "properties": [{"name": "solido", "type": "bool", "value": true}]}, {"id": 15, "name": "aguja-volcanica", "type": "decor", "x": 1246, "y": 488, "width": 0, "height": 0, "rotation": 0, "visible": true, "point": true, "properties": [{"name": "solido", "type": "bool", "value": true}]}, {"id": 16, "name": "aguja-volcanica", "type": "decor", "x": 1689, "y": 183, "width": 0, "height": 0, "rotation": 0, "visible": true, "point": true, "properties": [{"name": "solido", "type": "bool", "value": true}]}, {"id": 17, "name": "aguja-volcanica", "type": "decor", "x": 2191, "y": 876, "width": 0, "height": 0, "rotation": 0, "visible": true, "point": true, "properties": [{"name": "solido", "type": "bool", "value": true}]}, {"id": 18, "name": "aguja-volcanica", "type": "decor", "x": 237, "y": 217, "width": 0, "height": 0, "rotation": 0, "visible": true, "point": true, "properties": [{"name": "solido", "type": "bool", "value": true}]}, {"id": 19, "name": "aguja-volcanica", "type": "decor", "x": 1768, "y": 970, "width": 0, "height": 0, "rotation": 0, "visible": true, "point": true, "properties": [{"name": "solido", "type": "bool", "value": true}]}, {"id": 20, "name": "aguja-volcanica", "type": "decor", "x": 965, "y": 228, "width": 0, "height": 0, "rotation": 0, "visible": true, "point": true, "properties": [{"name": "solido", "type": "bool", "value": true}]}, {"id": 21, "name": "aguja-volcanica", "type": "decor", "x": 103, "y": 200, "width": 0, "height": 0, "rotation": 0, "visible": true, "point": true, "properties": [{"name": "solido", "type": "bool", "value": true}]}, {"id": 22, "name": "aguja-volcanica", "type": "decor", "x": 1359, "y": 490, "width": 0, "height": 0, "rotation": 0, "visible": true, "point": true, "properties": [{"name": "solido", "type": "bool", "value": true}]}, {"id": 23, "name": "aguja-volcanica", "type": "decor", "x": 987, "y": 1349, "width": 0, "height": 0, "rotation": 0, "visible": true, "point": true, "properties": [{"name": "solido", "type": "bool", "value": true}]}, {"id": 24, "name": "aguja-volcanica", "type": "decor", "x": 608, "y": 41, "width": 0, "height": 0, "rotation": 0, "visible": true, "point": true, "properties": [{"name": "solido", "type": "bool", "value": true}]}, {"id": 25, "name": "aguja-volcanica", "type": "decor", "x": 749, "y": 446, "width": 0, "height": 0, "rotation": 0, "visible": true, "point": true, "properties": [{"name": "solido", "type": "bool", "value": true}]}, {"id": 26, "name": "aguja-volcanica", "type": "decor", "x": 1291, "y": 1153, "width": 0, "height": 0, "rotation": 0, "visible": true, "point": true, "properties": [{"name": "solido", "type": "bool", "value": true}]}, {"id": 27, "name": "aguja-volcanica", "type": "decor", "x": 247, "y": 49, "width": 0, "height": 0, "rotation": 0, "visible": true, "point": true, "properties": [{"name": "solido", "type": "bool", "value": true}]}, {"id": 28, "name": "aguja-volcanica", "type": "decor", "x": 2031, "y": 996, "width": 0, "height": 0, "rotation": 0, "visible": true, "point": true, "properties": [{"name": "solido", "type": "bool", "value": true}]}, {"id": 29, "name": "aguja-volcanica", "type": "decor", "x": 532, "y": 83, "width": 0, "height": 0, "rotation": 0, "visible": true, "point": true, "properties": [{"name": "solido", "type": "bool", "value": true}]}, {"id": 30, "name": "aguja-volcanica", "type": "decor", "x": 1110, "y": 891, "width": 0, "height": 0, "rotation": 0, "visible": true, "point": true, "properties": [{"name": "solido", "type": "bool", "value": true}]}, {"id": 31, "name": "aguja-volcanica", "type": "decor", "x": 1184, "y": 1180, "width": 0, "height": 0, "rotation": 0, "visible": true, "point": true, "properties": [{"name": "solido", "type": "bool", "value": true}]}, {"id": 32, "name": "aguja-volcanica", "type": "decor", "x": 2038, "y": 610, "width": 0, "height": 0, "rotation": 0, "visible": true, "point": true, "properties": [{"name": "solido", "type": "bool", "value": true}]}, {"id": 33, "name": "aguja-volcanica", "type": "decor", "x": 2108, "y": 70, "width": 0, "height": 0, "rotation": 0, "visible": true, "point": true, "properties": [{"name": "solido", "type": "bool", "value": true}]}, {"id": 34, "name": "aguja-volcanica", "type": "decor", "x": 2151, "y": 1348, "width": 0, "height": 0, "rotation": 0, "visible": true, "point": true, "properties": [{"name": "solido", "type": "bool", "value": true}]}, {"id": 35, "name": "aguja-volcanica", "type": "decor", "x": 867, "y": 1337, "width": 0, "height": 0, "rotation": 0, "visible": true, "point": true, "properties": [{"name": "solido", "type": "bool", "value": true}]}, {"id": 36, "name": "aguja-volcanica", "type": "decor", "x": 146, "y": 1289, "width": 0, "height": 0, "rotation": 0, "visible": true, "point": true, "properties": [{"name": "solido", "type": "bool", "value": true}]}, {"id": 37, "name": "aguja-volcanica", "type": "decor", "x": 1961, "y": 758, "width": 0, "height": 0, "rotation": 0, "visible": true, "point": true, "properties": [{"name": "solido", "type": "bool", "value": true}]}, {"id": 38, "name": "aguja-volcanica", "type": "decor", "x": 450, "y": 628, "width": 0, "height": 0, "rotation": 0, "visible": true, "point": true, "properties": [{"name": "solido", "type": "bool", "value": true}]}, {"id": 39, "name": "aguja-volcanica", "type": "decor", "x": 520, "y": 696, "width": 0, "height": 0, "rotation": 0, "visible": true, "point": true, "properties": [{"name": "solido", "type": "bool", "value": true}]}, {"id": 40, "name": "aguja-volcanica", "type": "decor", "x": 1280, "y": 838, "width": 0, "height": 0, "rotation": 0, "visible": true, "point": true, "properties": [{"name": "solido", "type": "bool", "value": true}]}, {"id": 41, "name": "aguja-volcanica", "type": "decor", "x": 624, "y": 875, "width": 0, "height": 0, "rotation": 0, "visible": true, "point": true, "properties": [{"name": "solido", "type": "bool", "value": true}]}, {"id": 42, "name": "aguja-volcanica", "type": "decor", "x": 1264, "y": 583, "width": 0, "height": 0, "rotation": 0, "visible": true, "point": true, "properties": [{"name": "solido", "type": "bool", "value": true}]}, {"id": 43, "name": "aguja-volcanica", "type": "decor", "x": 2167, "y": 1111, "width": 0, "height": 0, "rotation": 0, "visible": true, "point": true, "properties": [{"name": "solido", "type": "bool", "value": true}]}, {"id": 44, "name": "aguja-volcanica", "type": "decor", "x": 2098, "y": 543, "width": 0, "height": 0, "rotation": 0, "visible": true, "point": true, "properties": [{"name": "solido", "type": "bool", "value": true}]}, {"id": 45, "name": "aguja-volcanica", "type": "decor", "x": 1586, "y": 316, "width": 0, "height": 0, "rotation": 0, "visible": true, "point": true, "properties": [{"name": "solido", "type": "bool", "value": true}]}, {"id": 46, "name": "aguja-volcanica", "type": "decor", "x": 719, "y": 300, "width": 0, "height": 0, "rotation": 0, "visible": true, "point": true, "properties": [{"name": "solido", "type": "bool", "value": true}]}, {"id": 47, "name": "aguja-volcanica", "type": "decor", "x": 1841, "y": 769, "width": 0, "height": 0, "rotation": 0, "visible": true, "point": true, "properties": [{"name": "solido", "type": "bool", "value": true}]}, {"id": 48, "name": "aguja-volcanica", "type": "decor", "x": 95, "y": 641, "width": 0, "height": 0, "rotation": 0, "visible": true, "point": true, "properties": [{"name": "solido", "type": "bool", "value": true}]}, {"id": 49, "name": "aguja-volcanica", "type": "decor", "x": 1999, "y": 232, "width": 0, "height": 0, "rotation": 0, "visible": true, "point": true, "properties": [{"name": "solido", "type": "bool", "value": true}]}, {"id": 50, "name": "aguja-volcanica", "type": "decor", "x": 1454, "y": 1185, "width": 0, "height": 0, "rotation": 0, "visible": true, "point": true, "properties": [{"name": "solido", "type": "bool", "value": true}]}, {"id": 51, "name": "aguja-volcanica", "type": "decor", "x": 171, "y": 687, "width": 0, "height": 0, "rotation": 0, "visible": true, "point": true, "properties": [{"name": "solido", "type": "bool", "value": true}]}, {"id": 52, "name": "aguja-volcanica", "type": "decor", "x": 1056, "y": 131, "width": 0, "height": 0, "rotation": 0, "visible": true, "point": true, "properties": [{"name": "solido", "type": "bool", "value": true}]}, {"id": 53, "name": "aguja-volcanica", "type": "decor", "x": 2033, "y": 488, "width": 0, "height": 0, "rotation": 0, "visible": true, "point": true, "properties": [{"name": "solido", "type": "bool", "value": true}]}, {"id": 54, "name": "aguja-volcanica", "type": "decor", "x": 225, "y": 487, "width": 0, "height": 0, "rotation": 0, "visible": true, "point": true, "properties": [{"name": "solido", "type": "bool", "value": true}]}, {"id": 55, "name": "aguja-volcanica", "type": "decor", "x": 1498, "y": 1068, "width": 0, "height": 0, "rotation": 0, "visible": true, "point": true, "properties": [{"name": "solido", "type": "bool", "value": true}]}, {"id": 56, "name": "aguja-volcanica", "type": "decor", "x": 1083, "y": 300, "width": 0, "height": 0, "rotation": 0, "visible": true, "point": true, "properties": [{"name": "solido", "type": "bool", "value": true}]}, {"id": 57, "name": "aguja-volcanica", "type": "decor", "x": 2142, "y": 1026, "width": 0, "height": 0, "rotation": 0, "visible": true, "point": true, "properties": [{"name": "solido", "type": "bool", "value": true}]}, {"id": 58, "name": "aguja-volcanica", "type": "decor", "x": 2205, "y": 637, "width": 0, "height": 0, "rotation": 0, "visible": true, "point": true, "properties": [{"name": "solido", "type": "bool", "value": true}]}, {"id": 59, "name": "aguja-volcanica", "type": "decor", "x": 1247, "y": 714, "width": 0, "height": 0, "rotation": 0, "visible": true, "point": true, "properties": [{"name": "solido", "type": "bool", "value": true}]}, {"id": 60, "name": "aguja-volcanica", "type": "decor", "x": 413, "y": 57, "width": 0, "height": 0, "rotation": 0, "visible": true, "point": true, "properties": [{"name": "solido", "type": "bool", "value": true}]}, {"id": 61, "name": "aguja-volcanica", "type": "decor", "x": 1002, "y": 757, "width": 0, "height": 0, "rotation": 0, "visible": true, "point": true, "properties": [{"name": "solido", "type": "bool", "value": true}]}, {"id": 62, "name": "aguja-volcanica", "type": "decor", "x": 789, "y": 1283, "width": 0, "height": 0, "rotation": 0, "visible": true, "point": true, "properties": [{"name": "solido", "type": "bool", "value": true}]}, {"id": 63, "name": "aguja-volcanica", "type": "decor", "x": 1628, "y": 678, "width": 0, "height": 0, "rotation": 0, "visible": true, "point": true, "properties": [{"name": "solido", "type": "bool", "value": true}]}, {"id": 64, "name": "aguja-volcanica", "type": "decor", "x": 1932, "y": 1028, "width": 0, "height": 0, "rotation": 0, "visible": true, "point": true, "properties": [{"name": "solido", "type": "bool", "value": true}]}, {"id": 65, "name": "aguja-volcanica", "type": "decor", "x": 1102, "y": 663, "width": 0, "height": 0, "rotation": 0, "visible": true, "point": true, "properties": [{"name": "solido", "type": "bool", "value": true}]}, {"id": 66, "name": "aguja-volcanica", "type": "decor", "x": 242, "y": 717, "width": 0, "height": 0, "rotation": 0, "visible": true, "point": true, "properties": [{"name": "solido", "type": "bool", "value": true}]}, {"id": 67, "name": "aguja-volcanica", "type": "decor", "x": 923, "y": 69, "width": 0, "height": 0, "rotation": 0, "visible": true, "point": true, "properties": [{"name": "solido", "type": "bool", "value": true}]}, {"id": 68, "name": "aguja-volcanica", "type": "decor", "x": 449, "y": 169, "width": 0, "height": 0, "rotation": 0, "visible": true, "point": true, "properties": [{"name": "solido", "type": "bool", "value": true}]}, {"id": 69, "name": "aguja-volcanica", "type": "decor", "x": 311, "y": 689, "width": 0, "height": 0, "rotation": 0, "visible": true, "point": true, "properties": [{"name": "solido", "type": "bool", "value": true}]}, {"id": 70, "name": "aguja-volcanica", "type": "decor", "x": 1622, "y": 67, "width": 0, "height": 0, "rotation": 0, "visible": true, "point": true, "properties": [{"name": "solido", "type": "bool", "value": true}]}, {"id": 71, "name": "aguja-volcanica", "type": "decor", "x": 887, "y": 233, "width": 0, "height": 0, "rotation": 0, "visible": true, "point": true, "properties": [{"name": "solido", "type": "bool", "value": true}]}, {"id": 72, "name": "roca-malpais", "type": "decor", "x": 909, "y": 754, "width": 0, "height": 0, "rotation": 0, "visible": true, "point": true, "properties": [{"name": "solido", "type": "bool", "value": true}]}, {"id": 73, "name": "roca-malpais", "type": "decor", "x": 2192, "y": 268, "width": 0, "height": 0, "rotation": 0, "visible": true, "point": true, "properties": [{"name": "solido", "type": "bool", "value": true}]}, {"id": 74, "name": "roca-malpais", "type": "decor", "x": 1176, "y": 170, "width": 0, "height": 0, "rotation": 0, "visible": true, "point": true, "properties": [{"name": "solido", "type": "bool", "value": true}]}, {"id": 75, "name": "roca-malpais", "type": "decor", "x": 715, "y": 1024, "width": 0, "height": 0, "rotation": 0, "visible": true, "point": true, "properties": [{"name": "solido", "type": "bool", "value": true}]}, {"id": 76, "name": "roca-malpais", "type": "decor", "x": 77, "y": 1316, "width": 0, "height": 0, "rotation": 0, "visible": true, "point": true, "properties": [{"name": "solido", "type": "bool", "value": true}]}, {"id": 77, "name": "roca-malpais", "type": "decor", "x": 1582, "y": 1250, "width": 0, "height": 0, "rotation": 0, "visible": true, "point": true, "properties": [{"name": "solido", "type": "bool", "value": true}]}, {"id": 78, "name": "roca-malpais", "type": "decor", "x": 1337, "y": 662, "width": 0, "height": 0, "rotation": 0, "visible": true, "point": true, "properties": [{"name": "solido", "type": "bool", "value": true}]}, {"id": 79, "name": "roca-malpais", "type": "decor", "x": 552, "y": 872, "width": 0, "height": 0, "rotation": 0, "visible": true, "point": true, "properties": [{"name": "solido", "type": "bool", "value": true}]}, {"id": 80, "name": "roca-malpais", "type": "decor", "x": 451, "y": 1306, "width": 0, "height": 0, "rotation": 0, "visible": true, "point": true, "properties": [{"name": "solido", "type": "bool", "value": true}]}, {"id": 81, "name": "roca-malpais", "type": "decor", "x": 655, "y": 1052, "width": 0, "height": 0, "rotation": 0, "visible": true, "point": true, "properties": [{"name": "solido", "type": "bool", "value": true}]}, {"id": 82, "name": "roca-malpais", "type": "decor", "x": 1514, "y": 94, "width": 0, "height": 0, "rotation": 0, "visible": true, "point": true, "properties": [{"name": "solido", "type": "bool", "value": true}]}, {"id": 83, "name": "roca-malpais", "type": "decor", "x": 264, "y": 1394, "width": 0, "height": 0, "rotation": 0, "visible": true, "point": true, "properties": [{"name": "solido", "type": "bool", "value": true}]}, {"id": 84, "name": "roca-malpais", "type": "decor", "x": 131, "y": 448, "width": 0, "height": 0, "rotation": 0, "visible": true, "point": true, "properties": [{"name": "solido", "type": "bool", "value": true}]}, {"id": 85, "name": "roca-malpais", "type": "decor", "x": 1342, "y": 1220, "width": 0, "height": 0, "rotation": 0, "visible": true, "point": true, "properties": [{"name": "solido", "type": "bool", "value": true}]}, {"id": 86, "name": "roca-malpais", "type": "decor", "x": 1891, "y": 661, "width": 0, "height": 0, "rotation": 0, "visible": true, "point": true, "properties": [{"name": "solido", "type": "bool", "value": true}]}, {"id": 87, "name": "roca-malpais", "type": "decor", "x": 750, "y": 545, "width": 0, "height": 0, "rotation": 0, "visible": true, "point": true, "properties": [{"name": "solido", "type": "bool", "value": true}]}, {"id": 88, "name": "roca-malpais", "type": "decor", "x": 771, "y": 130, "width": 0, "height": 0, "rotation": 0, "visible": true, "point": true, "properties": [{"name": "solido", "type": "bool", "value": true}]}, {"id": 89, "name": "roca-malpais", "type": "decor", "x": 1121, "y": 53, "width": 0, "height": 0, "rotation": 0, "visible": true, "point": true, "properties": [{"name": "solido", "type": "bool", "value": true}]}, {"id": 90, "name": "roca-malpais", "type": "decor", "x": 2081, "y": 1330, "width": 0, "height": 0, "rotation": 0, "visible": true, "point": true, "properties": [{"name": "solido", "type": "bool", "value": true}]}, {"id": 91, "name": "roca-malpais", "type": "decor", "x": 58, "y": 768, "width": 0, "height": 0, "rotation": 0, "visible": true, "point": true, "properties": [{"name": "solido", "type": "bool", "value": true}]}, {"id": 92, "name": "roca-malpais", "type": "decor", "x": 914, "y": 881, "width": 0, "height": 0, "rotation": 0, "visible": true, "point": true, "properties": [{"name": "solido", "type": "bool", "value": true}]}, {"id": 93, "name": "roca-malpais", "type": "decor", "x": 39, "y": 1122, "width": 0, "height": 0, "rotation": 0, "visible": true, "point": true, "properties": [{"name": "solido", "type": "bool", "value": true}]}, {"id": 94, "name": "roca-malpais", "type": "decor", "x": 1610, "y": 1016, "width": 0, "height": 0, "rotation": 0, "visible": true, "point": true, "properties": [{"name": "solido", "type": "bool", "value": true}]}, {"id": 95, "name": "roca-malpais", "type": "decor", "x": 739, "y": 1081, "width": 0, "height": 0, "rotation": 0, "visible": true, "point": true, "properties": [{"name": "solido", "type": "bool", "value": true}]}, {"id": 96, "name": "roca-malpais", "type": "decor", "x": 1577, "y": 738, "width": 0, "height": 0, "rotation": 0, "visible": true, "point": true, "properties": [{"name": "solido", "type": "bool", "value": true}]}, {"id": 97, "name": "roca-malpais", "type": "decor", "x": 194, "y": 902, "width": 0, "height": 0, "rotation": 0, "visible": true, "point": true, "properties": [{"name": "solido", "type": "bool", "value": true}]}, {"id": 98, "name": "roca-malpais", "type": "decor", "x": 708, "y": 949, "width": 0, "height": 0, "rotation": 0, "visible": true, "point": true, "properties": [{"name": "solido", "type": "bool", "value": true}]}, {"id": 99, "name": "roca-malpais", "type": "decor", "x": 881, "y": 534, "width": 0, "height": 0, "rotation": 0, "visible": true, "point": true, "properties": [{"name": "solido", "type": "bool", "value": true}]}, {"id": 100, "name": "roca-malpais", "type": "decor", "x": 1505, "y": 174, "width": 0, "height": 0, "rotation": 0, "visible": true, "point": true, "properties": [{"name": "solido", "type": "bool", "value": true}]}, {"id": 101, "name": "roca-malpais", "type": "decor", "x": 1516, "y": 1372, "width": 0, "height": 0, "rotation": 0, "visible": true, "point": true, "properties": [{"name": "solido", "type": "bool", "value": true}]}, {"id": 102, "name": "roca-malpais", "type": "decor", "x": 124, "y": 940, "width": 0, "height": 0, "rotation": 0, "visible": true, "point": true, "properties": [{"name": "solido", "type": "bool", "value": true}]}, {"id": 103, "name": "roca-malpais", "type": "decor", "x": 1821, "y": 69, "width": 0, "height": 0, "rotation": 0, "visible": true, "point": true, "properties": [{"name": "solido", "type": "bool", "value": true}]}, {"id": 104, "name": "roca-malpais", "type": "decor", "x": 860, "y": 102, "width": 0, "height": 0, "rotation": 0, "visible": true, "point": true, "properties": [{"name": "solido", "type": "bool", "value": true}]}, {"id": 105, "name": "roca-malpais", "type": "decor", "x": 302, "y": 183, "width": 0, "height": 0, "rotation": 0, "visible": true, "point": true, "properties": [{"name": "solido", "type": "bool", "value": true}]}, {"id": 106, "name": "roca-malpais", "type": "decor", "x": 584, "y": 180, "width": 0, "height": 0, "rotation": 0, "visible": true, "point": true, "properties": [{"name": "solido", "type": "bool", "value": true}]}, {"id": 107, "name": "roca-malpais", "type": "decor", "x": 1987, "y": 1107, "width": 0, "height": 0, "rotation": 0, "visible": true, "point": true, "properties": [{"name": "solido", "type": "bool", "value": true}]}, {"id": 108, "name": "roca-malpais", "type": "decor", "x": 507, "y": 973, "width": 0, "height": 0, "rotation": 0, "visible": true, "point": true, "properties": [{"name": "solido", "type": "bool", "value": true}]}, {"id": 109, "name": "roca-malpais", "type": "decor", "x": 407, "y": 918, "width": 0, "height": 0, "rotation": 0, "visible": true, "point": true, "properties": [{"name": "solido", "type": "bool", "value": true}]}, {"id": 110, "name": "roca-malpais", "type": "decor", "x": 477, "y": 800, "width": 0, "height": 0, "rotation": 0, "visible": true, "point": true, "properties": [{"name": "solido", "type": "bool", "value": true}]}, {"id": 111, "name": "roca-malpais", "type": "decor", "x": 147, "y": 1155, "width": 0, "height": 0, "rotation": 0, "visible": true, "point": true, "properties": [{"name": "solido", "type": "bool", "value": true}]}]}]}